( PCB Contour )
( Generated by Rapid-PCB.com )
( Material Size)
( X= 70.000, Y= 50.000, Z= 1.580)
()
G00
G17
G21
G40
G49
G54
G80
G90
G94
G00 F3000 Z3.000
M03 S9000
G00 F3000 X23.686 Y48.350
G00 F1500 Z0
G01 F60 Z-0.200
G01 F60 X23.599 Y48.332
G01 F60 X23.582 Y48.324
G01 F60 X23.537 Y48.334
G01 F60 X23.313 Y48.334
G01 F60 X23.094 Y48.287
G01 F60 X22.890 Y48.196
G01 F60 X22.709 Y48.065
G01 F60 X22.559 Y47.898
G01 F60 X22.447 Y47.705
G01 F60 X22.378 Y47.492
G01 F60 X22.355 Y47.269
G01 F60 X22.378 Y47.047
G01 F60 X22.447 Y46.834
G01 F60 X22.559 Y46.640
G01 F60 X22.709 Y46.474
G01 F60 X22.890 Y46.343
G01 F60 X23.065 Y46.265
G01 F60 X23.037 Y45.652
G01 F60 X22.922 Y45.601
G01 F60 X22.751 Y45.477
G01 F60 X22.611 Y45.321
G01 F60 X22.505 Y45.139
G01 F60 X22.440 Y44.939
G01 F60 X22.418 Y44.729
G01 F60 X22.440 Y44.520
G01 F60 X22.505 Y44.320
G01 F60 X22.611 Y44.138
G01 F60 X22.751 Y43.981
G01 F60 X22.922 Y43.858
G01 F60 X23.114 Y43.772
G01 F60 X23.320 Y43.728
G01 F60 X23.530 Y43.728
G01 F60 X23.736 Y43.772
G01 F60 X23.928 Y43.858
G01 F60 X24.099 Y43.981
G01 F60 X24.239 Y44.138
G01 F60 X24.345 Y44.320
G01 F60 X24.410 Y44.520
G01 F60 X24.431 Y44.729
G01 F60 X24.410 Y44.939
G01 F60 X24.345 Y45.139
G01 F60 X24.239 Y45.321
G01 F60 X24.099 Y45.477
G01 F60 X23.928 Y45.601
G01 F60 X23.882 Y45.622
G01 F60 X23.911 Y46.321
G01 F60 X23.960 Y46.343
G01 F60 X24.141 Y46.474
G01 F60 X24.291 Y46.640
G01 F60 X24.402 Y46.834
G01 F60 X24.407 Y46.849
G01 F60 X43.323 Y46.849
G01 F60 X43.323 Y7.074
G01 F60 X36.301 Y7.050
G01 F60 X34.769 Y8.598
G01 F60 X34.769 Y10.328
G01 F60 X32.452 Y10.328
G01 F60 X32.449 Y9.393
G01 F60 X32.426 Y9.169
G01 F60 X32.452 Y8.938
G01 F60 X32.452 Y8.011
G01 F60 X34.164 Y8.011
G01 F60 X35.845 Y6.314
G01 F60 X35.914 Y6.264
G01 F60 X35.994 Y6.228
G01 F60 X36.081 Y6.209
G01 F60 X36.157 Y6.209
G01 F60 X43.789 Y6.235
G01 F60 X43.875 Y6.253
G01 F60 X43.956 Y6.289
G01 F60 X44.028 Y6.341
G01 F60 X44.087 Y6.407
G01 F60 X44.131 Y6.483
G01 F60 X44.158 Y6.567
G01 F60 X44.167 Y6.649
G01 F60 X44.167 Y47.276
G01 F60 X44.158 Y47.357
G01 F60 X44.131 Y47.441
G01 F60 X44.087 Y47.518
G01 F60 X44.028 Y47.583
G01 F60 X43.956 Y47.635
G01 F60 X43.875 Y47.671
G01 F60 X43.789 Y47.690
G01 F60 X24.407 Y47.690
G01 F60 X24.402 Y47.705
G01 F60 X24.291 Y47.898
G01 F60 X24.141 Y48.065
G01 F60 X24.123 Y48.077
G01 F60 X24.116 Y48.102
G01 F60 X24.072 Y48.178
G01 F60 X24.012 Y48.244
G01 F60 X23.941 Y48.296
G01 F60 X23.860 Y48.332
G01 F60 X23.774 Y48.350
G01 F60 X23.686 Y48.350
G00 F3000 Z3.000
G00 F3000 X13.153 Y48.334
G00 F1500 Z0
G01 F60 Z-0.200
G01 F60 X12.934 Y48.287
G01 F60 X12.730 Y48.196
G01 F60 X12.549 Y48.065
G01 F60 X12.399 Y47.898
G01 F60 X12.287 Y47.705
G01 F60 X12.218 Y47.492
G01 F60 X12.195 Y47.269
G01 F60 X12.218 Y47.047
G01 F60 X12.287 Y46.834
G01 F60 X12.399 Y46.640
G01 F60 X12.549 Y46.474
G01 F60 X12.730 Y46.343
G01 F60 X12.843 Y46.292
G01 F60 X12.834 Y41.657
G01 F60 X12.698 Y41.596
G01 F60 X12.506 Y41.457
G01 F60 X12.348 Y41.281
G01 F60 X12.229 Y41.076
G01 F60 X12.156 Y40.850
G01 F60 X12.131 Y40.615
G01 F60 X12.156 Y40.379
G01 F60 X12.229 Y40.154
G01 F60 X12.348 Y39.948
G01 F60 X12.506 Y39.772
G01 F60 X12.698 Y39.633
G01 F60 X12.915 Y39.536
G01 F60 X13.146 Y39.487
G01 F60 X13.383 Y39.487
G01 F60 X13.615 Y39.536
G01 F60 X13.832 Y39.633
G01 F60 X14.024 Y39.772
G01 F60 X14.182 Y39.948
G01 F60 X14.301 Y40.154
G01 F60 X14.374 Y40.379
G01 F60 X14.399 Y40.615
G01 F60 X14.374 Y40.850
G01 F60 X14.301 Y41.076
G01 F60 X14.182 Y41.281
G01 F60 X14.024 Y41.457
G01 F60 X13.831 Y41.597
G01 F60 X13.687 Y41.660
G01 F60 X13.687 Y42.215
G01 F60 X13.707 Y46.301
G01 F60 X13.800 Y46.343
G01 F60 X13.981 Y46.474
G01 F60 X14.131 Y46.640
G01 F60 X14.243 Y46.834
G01 F60 X14.312 Y47.047
G01 F60 X14.335 Y47.269
G01 F60 X14.326 Y47.358
G01 F60 X14.337 Y47.377
G01 F60 X14.364 Y47.461
G01 F60 X14.373 Y47.549
G01 F60 X14.364 Y47.637
G01 F60 X14.337 Y47.721
G01 F60 X14.293 Y47.797
G01 F60 X14.233 Y47.863
G01 F60 X14.159 Y47.916
G01 F60 X14.091 Y47.943
G01 F60 X13.981 Y48.065
G01 F60 X13.800 Y48.196
G01 F60 X13.596 Y48.287
G01 F60 X13.377 Y48.334
G01 F60 X13.153 Y48.334
G00 F3000 Z3.000
G00 F3000 X48.365 Y47.983
G00 F1500 Z0
G01 F60 Z-0.200
G01 F60 X48.365 Y47.958
G01 F60 X48.314 Y47.958
G01 F60 X48.314 Y47.933
G01 F60 X48.263 Y47.933
G01 F60 X48.263 Y47.907
G01 F60 X48.238 Y47.907
G01 F60 X48.238 Y47.882
G01 F60 X48.213 Y47.882
G01 F60 X48.213 Y47.856
G01 F60 X48.187 Y47.856
G01 F60 X48.187 Y47.806
G01 F60 X48.162 Y47.806
G01 F60 X48.162 Y47.755
G01 F60 X48.136 Y47.755
G01 F60 X48.136 Y47.729
G01 F60 X48.111 Y47.729
G01 F60 X48.111 Y47.678
G01 F60 X48.086 Y47.678
G01 F60 X48.086 Y47.628
G01 F60 X48.060 Y47.628
G01 F60 X48.060 Y47.602
G01 F60 X48.035 Y47.602
G01 F60 X48.035 Y47.552
G01 F60 X48.009 Y47.552
G01 F60 X48.009 Y47.501
G01 F60 X47.984 Y47.501
G01 F60 X47.984 Y47.450
G01 F60 X47.959 Y47.450
G01 F60 X47.959 Y47.425
G01 F60 X47.933 Y47.425
G01 F60 X47.933 Y47.374
G01 F60 X47.908 Y47.374
G01 F60 X47.908 Y47.323
G01 F60 X47.882 Y47.323
G01 F60 X47.882 Y47.297
G01 F60 X47.857 Y47.297
G01 F60 X47.857 Y47.247
G01 F60 X47.832 Y47.247
G01 F60 X47.832 Y47.196
G01 F60 X47.806 Y47.196
G01 F60 X47.806 Y47.171
G01 F60 X47.781 Y47.171
G01 F60 X47.781 Y47.120
G01 F60 X47.755 Y47.120
G01 F60 X47.755 Y47.069
G01 F60 X47.730 Y47.069
G01 F60 X47.730 Y47.018
G01 F60 X47.705 Y47.018
G01 F60 X47.705 Y46.993
G01 F60 X47.679 Y46.993
G01 F60 X47.679 Y46.942
G01 F60 X47.654 Y46.942
G01 F60 X47.654 Y46.891
G01 F60 X47.628 Y46.891
G01 F60 X47.628 Y46.866
G01 F60 X47.603 Y46.866
G01 F60 X47.603 Y46.815
G01 F60 X47.578 Y46.815
G01 F60 X47.578 Y46.764
G01 F60 X47.552 Y46.764
G01 F60 X47.552 Y46.739
G01 F60 X47.527 Y46.739
G01 F60 X47.527 Y46.688
G01 F60 X47.501 Y46.688
G01 F60 X47.501 Y46.637
G01 F60 X47.476 Y46.637
G01 F60 X47.476 Y46.586
G01 F60 X47.451 Y46.586
G01 F60 X47.451 Y46.561
G01 F60 X47.425 Y46.561
G01 F60 X47.425 Y46.510
G01 F60 X47.400 Y46.510
G01 F60 X47.400 Y46.459
G01 F60 X47.374 Y46.459
G01 F60 X47.374 Y46.434
G01 F60 X47.349 Y46.434
G01 F60 X47.349 Y46.383
G01 F60 X47.324 Y46.383
G01 F60 X47.324 Y46.332
G01 F60 X47.298 Y46.332
G01 F60 X47.298 Y46.282
G01 F60 X47.273 Y46.282
G01 F60 X47.273 Y46.256
G01 F60 X47.247 Y46.256
G01 F60 X47.247 Y46.205
G01 F60 X47.222 Y46.205
G01 F60 X47.222 Y46.154
G01 F60 X47.197 Y46.154
G01 F60 X47.197 Y46.129
G01 F60 X47.171 Y46.129
G01 F60 X47.171 Y46.078
G01 F60 X47.146 Y46.078
G01 F60 X47.146 Y46.028
G01 F60 X47.120 Y46.028
G01 F60 X47.120 Y46.002
G01 F60 X47.095 Y46.002
G01 F60 X47.095 Y45.951
G01 F60 X47.070 Y45.951
G01 F60 X47.070 Y45.901
G01 F60 X47.044 Y45.901
G01 F60 X47.044 Y45.850
G01 F60 X47.019 Y45.850
G01 F60 X47.019 Y45.824
G01 F60 X46.993 Y45.824
G01 F60 X46.993 Y45.774
G01 F60 X46.968 Y45.774
G01 F60 X46.968 Y45.723
G01 F60 X46.943 Y45.723
G01 F60 X46.943 Y45.697
G01 F60 X46.917 Y45.697
G01 F60 X46.917 Y45.647
G01 F60 X46.892 Y45.647
G01 F60 X46.892 Y45.596
G01 F60 X46.866 Y45.596
G01 F60 X46.866 Y45.570
G01 F60 X46.841 Y45.570
G01 F60 X46.841 Y45.520
G01 F60 X46.816 Y45.520
G01 F60 X46.816 Y45.469
G01 F60 X46.790 Y45.469
G01 F60 X46.790 Y45.418
G01 F60 X46.765 Y45.418
G01 F60 X46.765 Y45.393
G01 F60 X46.739 Y45.393
G01 F60 X46.739 Y45.342
G01 F60 X46.714 Y45.342
G01 F60 X46.714 Y45.291
G01 F60 X46.689 Y45.291
G01 F60 X46.689 Y45.266
G01 F60 X46.663 Y45.266
G01 F60 X46.663 Y45.164
G01 F60 X46.638 Y45.164
G01 F60 X46.638 Y44.828
G01 F60 X46.663 Y44.828
G01 F60 X46.663 Y44.752
G01 F60 X46.689 Y44.752
G01 F60 X46.689 Y44.701
G01 F60 X46.714 Y44.701
G01 F60 X46.714 Y44.676
G01 F60 X46.739 Y44.676
G01 F60 X46.739 Y44.651
G01 F60 X46.765 Y44.651
G01 F60 X46.765 Y44.625
G01 F60 X46.790 Y44.625
G01 F60 X46.790 Y44.600
G01 F60 X46.841 Y44.600
G01 F60 X46.841 Y44.574
G01 F60 X46.917 Y44.574
G01 F60 X46.917 Y44.549
G01 F60 X47.227 Y44.549
G01 F60 X47.227 Y44.574
G01 F60 X47.329 Y44.574
G01 F60 X47.329 Y44.600
G01 F60 X47.380 Y44.600
G01 F60 X47.380 Y44.625
G01 F60 X47.431 Y44.625
G01 F60 X47.431 Y44.651
G01 F60 X47.456 Y44.651
G01 F60 X47.456 Y44.701
G01 F60 X47.481 Y44.701
G01 F60 X47.481 Y44.727
G01 F60 X47.507 Y44.727
G01 F60 X47.507 Y44.778
G01 F60 X47.532 Y44.778
G01 F60 X47.532 Y44.828
G01 F60 X47.558 Y44.828
G01 F60 X47.558 Y44.854
G01 F60 X47.583 Y44.854
G01 F60 X47.583 Y44.904
G01 F60 X47.608 Y44.904
G01 F60 X47.608 Y44.955
G01 F60 X47.634 Y44.955
G01 F60 X47.634 Y44.981
G01 F60 X47.659 Y44.981
G01 F60 X47.659 Y45.032
G01 F60 X47.685 Y45.032
G01 F60 X47.685 Y45.082
G01 F60 X47.710 Y45.082
G01 F60 X47.710 Y45.133
G01 F60 X47.735 Y45.133
G01 F60 X47.735 Y45.159
G01 F60 X47.761 Y45.159
G01 F60 X47.761 Y45.209
G01 F60 X47.786 Y45.209
G01 F60 X47.786 Y45.260
G01 F60 X47.812 Y45.260
G01 F60 X47.812 Y45.285
G01 F60 X47.837 Y45.285
G01 F60 X47.837 Y45.336
G01 F60 X47.862 Y45.336
G01 F60 X47.862 Y45.387
G01 F60 X47.888 Y45.387
G01 F60 X47.888 Y45.413
G01 F60 X47.913 Y45.413
G01 F60 X47.913 Y45.463
G01 F60 X47.939 Y45.463
G01 F60 X47.939 Y45.514
G01 F60 X47.964 Y45.514
G01 F60 X47.964 Y45.565
G01 F60 X47.989 Y45.565
G01 F60 X47.989 Y45.590
G01 F60 X48.015 Y45.590
G01 F60 X48.015 Y45.641
G01 F60 X48.040 Y45.641
G01 F60 X48.040 Y45.692
G01 F60 X48.066 Y45.692
G01 F60 X48.066 Y45.717
G01 F60 X48.091 Y45.717
G01 F60 X48.091 Y45.768
G01 F60 X48.116 Y45.768
G01 F60 X48.116 Y45.819
G01 F60 X48.142 Y45.819
G01 F60 X48.142 Y45.870
G01 F60 X48.167 Y45.870
G01 F60 X48.167 Y45.895
G01 F60 X48.193 Y45.895
G01 F60 X48.193 Y45.946
G01 F60 X48.218 Y45.946
G01 F60 X48.218 Y45.997
G01 F60 X48.243 Y45.997
G01 F60 X48.243 Y46.022
G01 F60 X48.269 Y46.022
G01 F60 X48.269 Y46.073
G01 F60 X48.294 Y46.073
G01 F60 X48.294 Y46.124
G01 F60 X48.320 Y46.124
G01 F60 X48.320 Y46.175
G01 F60 X48.345 Y46.175
G01 F60 X48.345 Y46.200
G01 F60 X48.370 Y46.200
G01 F60 X48.370 Y46.251
G01 F60 X48.396 Y46.251
G01 F60 X48.396 Y46.302
G01 F60 X48.421 Y46.302
G01 F60 X48.421 Y46.327
G01 F60 X48.447 Y46.327
G01 F60 X48.447 Y46.378
G01 F60 X48.472 Y46.378
G01 F60 X48.472 Y46.428
G01 F60 X48.497 Y46.428
G01 F60 X48.497 Y46.454
G01 F60 X48.523 Y46.454
G01 F60 X48.523 Y46.505
G01 F60 X48.548 Y46.505
G01 F60 X48.548 Y46.556
G01 F60 X48.574 Y46.556
G01 F60 X48.574 Y46.606
G01 F60 X48.599 Y46.606
G01 F60 X48.599 Y46.632
G01 F60 X48.624 Y46.632
G01 F60 X48.624 Y46.683
G01 F60 X48.650 Y46.683
G01 F60 X48.650 Y46.733
G01 F60 X48.675 Y46.733
G01 F60 X48.675 Y46.759
G01 F60 X48.701 Y46.759
G01 F60 X48.701 Y46.809
G01 F60 X48.746 Y46.809
G01 F60 X48.746 Y46.759
G01 F60 X48.771 Y46.759
G01 F60 X48.771 Y46.708
G01 F60 X48.797 Y46.708
G01 F60 X48.797 Y46.657
G01 F60 X48.822 Y46.657
G01 F60 X48.822 Y46.632
G01 F60 X48.848 Y46.632
G01 F60 X48.848 Y46.581
G01 F60 X48.873 Y46.581
G01 F60 X48.873 Y46.530
G01 F60 X48.898 Y46.530
G01 F60 X48.898 Y46.505
G01 F60 X48.924 Y46.505
G01 F60 X48.924 Y46.454
G01 F60 X48.949 Y46.454
G01 F60 X48.949 Y46.403
G01 F60 X48.975 Y46.403
G01 F60 X48.975 Y46.352
G01 F60 X49.000 Y46.352
G01 F60 X49.000 Y46.327
G01 F60 X49.025 Y46.327
G01 F60 X49.025 Y46.276
G01 F60 X49.051 Y46.276
G01 F60 X49.051 Y46.225
G01 F60 X49.076 Y46.225
G01 F60 X49.076 Y46.200
G01 F60 X49.102 Y46.200
G01 F60 X49.102 Y46.149
G01 F60 X49.127 Y46.149
G01 F60 X49.127 Y46.098
G01 F60 X49.152 Y46.098
G01 F60 X49.152 Y46.073
G01 F60 X49.178 Y46.073
G01 F60 X49.178 Y46.022
G01 F60 X49.203 Y46.022
G01 F60 X49.203 Y45.971
G01 F60 X49.229 Y45.971
G01 F60 X49.229 Y45.921
G01 F60 X49.254 Y45.921
G01 F60 X49.254 Y45.895
G01 F60 X49.279 Y45.895
G01 F60 X49.279 Y45.844
G01 F60 X49.305 Y45.844
G01 F60 X49.305 Y45.794
G01 F60 X49.330 Y45.794
G01 F60 X49.330 Y45.768
G01 F60 X49.356 Y45.768
G01 F60 X49.356 Y45.717
G01 F60 X49.381 Y45.717
G01 F60 X49.381 Y45.666
G01 F60 X49.406 Y45.666
G01 F60 X49.406 Y45.616
G01 F60 X49.432 Y45.616
G01 F60 X49.432 Y45.590
G01 F60 X49.457 Y45.590
G01 F60 X49.457 Y45.540
G01 F60 X49.483 Y45.540
G01 F60 X49.483 Y45.489
G01 F60 X49.508 Y45.489
G01 F60 X49.508 Y45.463
G01 F60 X49.533 Y45.463
G01 F60 X49.533 Y45.413
G01 F60 X49.559 Y45.413
G01 F60 X49.559 Y45.362
G01 F60 X49.584 Y45.362
G01 F60 X49.584 Y45.311
G01 F60 X49.610 Y45.311
G01 F60 X49.610 Y45.285
G01 F60 X49.635 Y45.285
G01 F60 X49.635 Y45.235
G01 F60 X49.660 Y45.235
G01 F60 X49.660 Y45.184
G01 F60 X49.686 Y45.184
G01 F60 X49.686 Y45.159
G01 F60 X49.711 Y45.159
G01 F60 X49.711 Y45.108
G01 F60 X49.737 Y45.108
G01 F60 X49.737 Y45.057
G01 F60 X49.762 Y45.057
G01 F60 X49.762 Y45.032
G01 F60 X49.787 Y45.032
G01 F60 X49.787 Y44.981
G01 F60 X49.813 Y44.981
G01 F60 X49.813 Y44.930
G01 F60 X49.838 Y44.930
G01 F60 X49.838 Y44.879
G01 F60 X49.864 Y44.879
G01 F60 X49.864 Y44.854
G01 F60 X49.889 Y44.854
G01 F60 X49.889 Y44.803
G01 F60 X49.914 Y44.803
G01 F60 X49.914 Y44.752
G01 F60 X49.940 Y44.752
G01 F60 X49.940 Y44.727
G01 F60 X49.965 Y44.727
G01 F60 X49.965 Y44.676
G01 F60 X49.991 Y44.676
G01 F60 X49.991 Y44.651
G01 F60 X50.016 Y44.651
G01 F60 X50.016 Y44.625
G01 F60 X50.041 Y44.625
G01 F60 X50.041 Y44.600
G01 F60 X50.092 Y44.600
G01 F60 X50.092 Y44.574
G01 F60 X50.194 Y44.574
G01 F60 X50.194 Y44.549
G01 F60 X50.504 Y44.549
G01 F60 X50.504 Y44.574
G01 F60 X50.606 Y44.574
G01 F60 X50.606 Y44.600
G01 F60 X50.656 Y44.600
G01 F60 X50.656 Y44.625
G01 F60 X50.682 Y44.625
G01 F60 X50.682 Y44.651
G01 F60 X50.707 Y44.651
G01 F60 X50.707 Y44.676
G01 F60 X50.733 Y44.676
G01 F60 X50.733 Y44.701
G01 F60 X50.758 Y44.701
G01 F60 X50.758 Y44.752
G01 F60 X50.783 Y44.752
G01 F60 X50.783 Y45.240
G01 F60 X50.758 Y45.240
G01 F60 X50.758 Y45.291
G01 F60 X50.733 Y45.291
G01 F60 X50.733 Y45.316
G01 F60 X50.707 Y45.316
G01 F60 X50.707 Y45.367
G01 F60 X50.682 Y45.367
G01 F60 X50.682 Y45.418
G01 F60 X50.656 Y45.418
G01 F60 X50.656 Y45.469
G01 F60 X50.631 Y45.469
G01 F60 X50.631 Y45.494
G01 F60 X50.606 Y45.494
G01 F60 X50.606 Y45.545
G01 F60 X50.580 Y45.545
G01 F60 X50.580 Y45.596
G01 F60 X50.555 Y45.596
G01 F60 X50.555 Y45.621
G01 F60 X50.529 Y45.621
G01 F60 X50.529 Y45.672
G01 F60 X50.504 Y45.672
G01 F60 X50.504 Y45.723
G01 F60 X50.479 Y45.723
G01 F60 X50.479 Y45.748
G01 F60 X50.453 Y45.748
G01 F60 X50.453 Y45.799
G01 F60 X50.428 Y45.799
G01 F60 X50.428 Y45.850
G01 F60 X50.402 Y45.850
G01 F60 X50.402 Y45.901
G01 F60 X50.377 Y45.901
G01 F60 X50.377 Y45.926
G01 F60 X50.352 Y45.926
G01 F60 X50.352 Y45.977
G01 F60 X50.326 Y45.977
G01 F60 X50.326 Y46.028
G01 F60 X50.301 Y46.028
G01 F60 X50.301 Y46.053
G01 F60 X50.275 Y46.053
G01 F60 X50.275 Y46.104
G01 F60 X50.250 Y46.104
G01 F60 X50.250 Y46.154
G01 F60 X50.225 Y46.154
G01 F60 X50.225 Y46.180
G01 F60 X50.199 Y46.180
G01 F60 X50.199 Y46.231
G01 F60 X50.174 Y46.231
G01 F60 X50.174 Y46.282
G01 F60 X50.148 Y46.282
G01 F60 X50.148 Y46.332
G01 F60 X50.123 Y46.332
G01 F60 X50.123 Y46.358
G01 F60 X50.098 Y46.358
G01 F60 X50.098 Y46.409
G01 F60 X50.072 Y46.409
G01 F60 X50.072 Y46.459
G01 F60 X50.047 Y46.459
G01 F60 X50.047 Y46.485
G01 F60 X50.021 Y46.485
G01 F60 X50.021 Y46.535
G01 F60 X49.996 Y46.535
G01 F60 X49.996 Y46.586
G01 F60 X49.971 Y46.586
G01 F60 X49.971 Y46.637
G01 F60 X49.945 Y46.637
G01 F60 X49.945 Y46.663
G01 F60 X49.920 Y46.663
G01 F60 X49.920 Y46.713
G01 F60 X49.894 Y46.713
G01 F60 X49.894 Y46.764
G01 F60 X49.869 Y46.764
G01 F60 X49.869 Y46.790
G01 F60 X49.844 Y46.790
G01 F60 X49.844 Y46.840
G01 F60 X49.818 Y46.840
G01 F60 X49.818 Y46.891
G01 F60 X49.793 Y46.891
G01 F60 X49.793 Y46.916
G01 F60 X49.767 Y46.916
G01 F60 X49.767 Y46.967
G01 F60 X49.742 Y46.967
G01 F60 X49.742 Y47.018
G01 F60 X49.717 Y47.018
G01 F60 X49.717 Y47.069
G01 F60 X49.691 Y47.069
G01 F60 X49.691 Y47.094
G01 F60 X49.666 Y47.094
G01 F60 X49.666 Y47.145
G01 F60 X49.640 Y47.145
G01 F60 X49.640 Y47.196
G01 F60 X49.615 Y47.196
G01 F60 X49.615 Y47.221
G01 F60 X49.590 Y47.221
G01 F60 X49.590 Y47.272
G01 F60 X49.564 Y47.272
G01 F60 X49.564 Y47.323
G01 F60 X49.539 Y47.323
G01 F60 X49.539 Y47.348
G01 F60 X49.513 Y47.348
G01 F60 X49.513 Y47.399
G01 F60 X49.488 Y47.399
G01 F60 X49.488 Y47.450
G01 F60 X49.463 Y47.450
G01 F60 X49.463 Y47.501
G01 F60 X49.437 Y47.501
G01 F60 X49.437 Y47.526
G01 F60 X49.412 Y47.526
G01 F60 X49.412 Y47.577
G01 F60 X49.386 Y47.577
G01 F60 X49.386 Y47.628
G01 F60 X49.361 Y47.628
G01 F60 X49.361 Y47.653
G01 F60 X49.336 Y47.653
G01 F60 X49.336 Y47.704
G01 F60 X49.310 Y47.704
G01 F60 X49.310 Y47.755
G01 F60 X49.285 Y47.755
G01 F60 X49.285 Y47.806
G01 F60 X49.259 Y47.806
G01 F60 X49.259 Y47.831
G01 F60 X49.234 Y47.831
G01 F60 X49.234 Y47.882
G01 F60 X49.209 Y47.882
G01 F60 X49.209 Y47.907
G01 F60 X49.183 Y47.907
G01 F60 X49.183 Y47.933
G01 F60 X49.132 Y47.933
G01 F60 X49.132 Y47.958
G01 F60 X49.082 Y47.958
G01 F60 X49.082 Y47.983
G01 F60 X48.365 Y47.983
G00 F3000 Z3.000
G00 F3000 X53.886 Y47.715
G00 F1500 Z0
G01 F60 Z-0.200
G01 F60 X53.800 Y47.697
G01 F60 X53.719 Y47.661
G01 F60 X53.648 Y47.609
G01 F60 X53.589 Y47.543
G01 F60 X53.544 Y47.467
G01 F60 X53.517 Y47.383
G01 F60 X53.509 Y47.301
G01 F60 X53.509 Y6.829
G01 F60 X51.214 Y4.535
G01 F60 X36.301 Y4.535
G01 F60 X34.588 Y6.274
G01 F60 X34.632 Y6.407
G01 F60 X34.655 Y6.629
G01 F60 X34.632 Y6.852
G01 F60 X34.563 Y7.065
G01 F60 X34.451 Y7.258
G01 F60 X34.301 Y7.425
G01 F60 X34.120 Y7.556
G01 F60 X33.916 Y7.647
G01 F60 X33.697 Y7.694
G01 F60 X33.473 Y7.694
G01 F60 X33.254 Y7.647
G01 F60 X33.050 Y7.556
G01 F60 X32.869 Y7.425
G01 F60 X32.719 Y7.258
G01 F60 X32.607 Y7.065
G01 F60 X32.538 Y6.852
G01 F60 X32.515 Y6.629
G01 F60 X32.538 Y6.407
G01 F60 X32.607 Y6.194
G01 F60 X32.719 Y6.000
G01 F60 X32.869 Y5.834
G01 F60 X33.050 Y5.703
G01 F60 X33.254 Y5.612
G01 F60 X33.473 Y5.565
G01 F60 X33.697 Y5.565
G01 F60 X33.916 Y5.612
G01 F60 X33.996 Y5.647
G01 F60 X35.845 Y3.799
G01 F60 X35.914 Y3.749
G01 F60 X35.994 Y3.713
G01 F60 X36.081 Y3.695
G01 F60 X51.434 Y3.695
G01 F60 X51.521 Y3.713
G01 F60 X51.602 Y3.749
G01 F60 X51.671 Y3.799
G01 F60 X54.219 Y6.348
G01 F60 X54.272 Y6.407
G01 F60 X54.316 Y6.483
G01 F60 X54.344 Y6.567
G01 F60 X54.352 Y6.649
G01 F60 X54.352 Y16.388
G01 F60 X55.530 Y16.371
G01 F60 X55.631 Y16.198
G01 F60 X55.771 Y16.041
G01 F60 X55.942 Y15.918
G01 F60 X56.134 Y15.832
G01 F60 X56.340 Y15.788
G01 F60 X56.550 Y15.788
G01 F60 X56.756 Y15.832
G01 F60 X56.948 Y15.918
G01 F60 X57.119 Y16.041
G01 F60 X57.259 Y16.198
G01 F60 X57.364 Y16.380
G01 F60 X57.430 Y16.580
G01 F60 X57.452 Y16.789
G01 F60 X57.430 Y16.999
G01 F60 X57.364 Y17.199
G01 F60 X57.259 Y17.381
G01 F60 X57.119 Y17.538
G01 F60 X56.948 Y17.661
G01 F60 X56.756 Y17.747
G01 F60 X56.550 Y17.791
G01 F60 X56.340 Y17.791
G01 F60 X56.134 Y17.747
G01 F60 X55.942 Y17.661
G01 F60 X55.771 Y17.538
G01 F60 X55.631 Y17.381
G01 F60 X55.533 Y17.213
G01 F60 X54.937 Y17.221
G01 F60 X54.352 Y17.229
G01 F60 X54.352 Y46.875
G01 F60 X58.563 Y46.875
G01 F60 X58.563 Y34.538
G01 F60 X58.572 Y34.456
G01 F60 X58.599 Y34.372
G01 F60 X58.643 Y34.296
G01 F60 X58.696 Y34.237
G01 F60 X60.504 Y32.452
G01 F60 X60.441 Y32.260
G01 F60 X60.417 Y32.029
G01 F60 X60.441 Y31.799
G01 F60 X60.513 Y31.579
G01 F60 X60.628 Y31.378
G01 F60 X60.783 Y31.206
G01 F60 X60.971 Y31.070
G01 F60 X61.182 Y30.975
G01 F60 X61.409 Y30.927
G01 F60 X61.641 Y30.927
G01 F60 X61.867 Y30.975
G01 F60 X62.079 Y31.070
G01 F60 X62.267 Y31.206
G01 F60 X62.422 Y31.378
G01 F60 X62.537 Y31.579
G01 F60 X62.609 Y31.799
G01 F60 X62.633 Y32.029
G01 F60 X62.609 Y32.260
G01 F60 X62.537 Y32.480
G01 F60 X62.422 Y32.681
G01 F60 X62.267 Y32.853
G01 F60 X62.079 Y32.989
G01 F60 X61.867 Y33.083
G01 F60 X61.641 Y33.132
G01 F60 X61.409 Y33.132
G01 F60 X61.182 Y33.083
G01 F60 X61.101 Y33.047
G01 F60 X59.407 Y34.720
G01 F60 X59.407 Y47.301
G01 F60 X59.398 Y47.383
G01 F60 X59.371 Y47.467
G01 F60 X59.327 Y47.543
G01 F60 X59.268 Y47.609
G01 F60 X59.196 Y47.661
G01 F60 X59.115 Y47.697
G01 F60 X59.029 Y47.715
G01 F60 X53.886 Y47.715
G00 F3000 Z3.000
G00 F3000 X5.371 Y47.333
G00 F1500 Z0
G01 F60 Z-0.200
G01 F60 X4.836 Y47.219
G01 F60 X4.336 Y46.996
G01 F60 X3.893 Y46.675
G01 F60 X3.527 Y46.268
G01 F60 X3.254 Y45.794
G01 F60 X3.084 Y45.274
G01 F60 X3.027 Y44.729
G01 F60 X3.084 Y44.185
G01 F60 X3.254 Y43.665
G01 F60 X3.527 Y43.191
G01 F60 X3.893 Y42.784
G01 F60 X4.336 Y42.462
G01 F60 X4.836 Y42.240
G01 F60 X5.371 Y42.126
G01 F60 X5.918 Y42.126
G01 F60 X6.454 Y42.240
G01 F60 X6.954 Y42.462
G01 F60 X7.397 Y42.784
G01 F60 X7.763 Y43.191
G01 F60 X8.036 Y43.665
G01 F60 X8.205 Y44.185
G01 F60 X8.263 Y44.729
G01 F60 X8.205 Y45.274
G01 F60 X8.036 Y45.794
G01 F60 X7.763 Y46.268
G01 F60 X7.397 Y46.675
G01 F60 X6.954 Y46.996
G01 F60 X6.454 Y47.219
G01 F60 X5.918 Y47.333
G01 F60 X5.371 Y47.333
G00 F3000 Z3.000
G00 F3000 X63.791 Y47.333
G00 F1500 Z0
G01 F60 Z-0.200
G01 F60 X63.256 Y47.219
G01 F60 X62.756 Y46.996
G01 F60 X62.313 Y46.675
G01 F60 X61.947 Y46.268
G01 F60 X61.674 Y45.794
G01 F60 X61.504 Y45.274
G01 F60 X61.447 Y44.729
G01 F60 X61.504 Y44.185
G01 F60 X61.674 Y43.665
G01 F60 X61.947 Y43.191
G01 F60 X62.313 Y42.784
G01 F60 X62.756 Y42.462
G01 F60 X63.256 Y42.240
G01 F60 X63.791 Y42.126
G01 F60 X64.338 Y42.126
G01 F60 X64.874 Y42.240
G01 F60 X65.374 Y42.462
G01 F60 X65.817 Y42.784
G01 F60 X66.183 Y43.191
G01 F60 X66.456 Y43.665
G01 F60 X66.625 Y44.185
G01 F60 X66.683 Y44.729
G01 F60 X66.625 Y45.274
G01 F60 X66.456 Y45.794
G01 F60 X66.183 Y46.268
G01 F60 X65.817 Y46.675
G01 F60 X65.374 Y46.996
G01 F60 X64.874 Y47.219
G01 F60 X64.338 Y47.333
G01 F60 X63.791 Y47.333
G00 F3000 Z3.000
G00 F3000 X30.929 Y45.832
G00 F1500 Z0
G01 F60 Z-0.200
G01 F60 X30.702 Y45.783
G01 F60 X30.491 Y45.689
G01 F60 X30.303 Y45.553
G01 F60 X30.148 Y45.381
G01 F60 X30.033 Y45.180
G01 F60 X29.961 Y44.960
G01 F60 X29.937 Y44.729
G01 F60 X29.961 Y44.499
G01 F60 X30.033 Y44.279
G01 F60 X30.148 Y44.078
G01 F60 X30.303 Y43.906
G01 F60 X30.491 Y43.770
G01 F60 X30.623 Y43.711
G01 F60 X30.623 Y43.297
G01 F60 X29.937 Y43.297
G01 F60 X29.937 Y41.082
G01 F60 X32.153 Y41.082
G01 F60 X32.153 Y41.841
G01 F60 X35.780 Y42.081
G01 F60 X35.889 Y41.894
G01 F60 X36.044 Y41.721
G01 F60 X36.231 Y41.585
G01 F60 X36.443 Y41.491
G01 F60 X36.669 Y41.443
G01 F60 X36.901 Y41.443
G01 F60 X37.128 Y41.491
G01 F60 X37.339 Y41.585
G01 F60 X37.527 Y41.721
G01 F60 X37.682 Y41.894
G01 F60 X37.798 Y42.094
G01 F60 X37.869 Y42.315
G01 F60 X37.894 Y42.545
G01 F60 X37.869 Y42.775
G01 F60 X37.798 Y42.996
G01 F60 X37.682 Y43.196
G01 F60 X37.527 Y43.369
G01 F60 X37.339 Y43.505
G01 F60 X37.128 Y43.599
G01 F60 X36.901 Y43.647
G01 F60 X36.669 Y43.647
G01 F60 X36.443 Y43.599
G01 F60 X36.231 Y43.505
G01 F60 X36.044 Y43.369
G01 F60 X35.889 Y43.196
G01 F60 X35.773 Y42.996
G01 F60 X35.750 Y42.924
G01 F60 X32.153 Y42.686
G01 F60 X32.153 Y43.297
G01 F60 X31.467 Y43.297
G01 F60 X31.468 Y43.711
G01 F60 X31.599 Y43.770
G01 F60 X31.787 Y43.906
G01 F60 X31.942 Y44.078
G01 F60 X32.057 Y44.279
G01 F60 X32.129 Y44.499
G01 F60 X32.153 Y44.729
G01 F60 X32.129 Y44.960
G01 F60 X32.057 Y45.180
G01 F60 X31.942 Y45.381
G01 F60 X31.787 Y45.553
G01 F60 X31.599 Y45.689
G01 F60 X31.387 Y45.783
G01 F60 X31.161 Y45.832
G01 F60 X30.929 Y45.832
G00 F3000 Z3.000
G00 F3000 X56.340 Y45.730
G00 F1500 Z0
G01 F60 Z-0.200
G01 F60 X56.134 Y45.687
G01 F60 X55.942 Y45.601
G01 F60 X55.771 Y45.477
G01 F60 X55.631 Y45.321
G01 F60 X55.525 Y45.139
G01 F60 X55.460 Y44.939
G01 F60 X55.438 Y44.729
G01 F60 X55.460 Y44.520
G01 F60 X55.525 Y44.320
G01 F60 X55.631 Y44.138
G01 F60 X55.771 Y43.981
G01 F60 X55.942 Y43.858
G01 F60 X56.134 Y43.772
G01 F60 X56.340 Y43.728
G01 F60 X56.550 Y43.728
G01 F60 X56.756 Y43.772
G01 F60 X56.948 Y43.858
G01 F60 X57.119 Y43.981
G01 F60 X57.259 Y44.138
G01 F60 X57.364 Y44.320
G01 F60 X57.430 Y44.520
G01 F60 X57.452 Y44.729
G01 F60 X57.430 Y44.939
G01 F60 X57.364 Y45.139
G01 F60 X57.259 Y45.321
G01 F60 X57.119 Y45.477
G01 F60 X56.948 Y45.601
G01 F60 X56.756 Y45.687
G01 F60 X56.550 Y45.730
G01 F60 X56.340 Y45.730
G00 F3000 Z3.000
G00 F3000 X41.100 Y45.730
G00 F1500 Z0
G01 F60 Z-0.200
G01 F60 X40.894 Y45.687
G01 F60 X40.702 Y45.601
G01 F60 X40.531 Y45.477
G01 F60 X40.391 Y45.321
G01 F60 X40.285 Y45.139
G01 F60 X40.220 Y44.939
G01 F60 X40.198 Y44.729
G01 F60 X40.220 Y44.520
G01 F60 X40.285 Y44.320
G01 F60 X40.391 Y44.138
G01 F60 X40.531 Y43.981
G01 F60 X40.702 Y43.858
G01 F60 X40.894 Y43.772
G01 F60 X41.100 Y43.728
G01 F60 X41.310 Y43.728
G01 F60 X41.516 Y43.772
G01 F60 X41.708 Y43.858
G01 F60 X41.879 Y43.981
G01 F60 X42.019 Y44.138
G01 F60 X42.125 Y44.320
G01 F60 X42.190 Y44.520
G01 F60 X42.212 Y44.729
G01 F60 X42.190 Y44.939
G01 F60 X42.125 Y45.139
G01 F60 X42.019 Y45.321
G01 F60 X41.879 Y45.477
G01 F60 X41.708 Y45.601
G01 F60 X41.516 Y45.687
G01 F60 X41.310 Y45.730
G01 F60 X41.100 Y45.730
G00 F3000 Z3.000
G00 F3000 X10.671 Y44.224
G00 F1500 Z0
G01 F60 Z-0.200
G01 F60 X10.671 Y44.199
G01 F60 X10.646 Y44.199
G01 F60 X10.646 Y44.173
G01 F60 X10.621 Y44.173
G01 F60 X10.621 Y44.123
G01 F60 X10.595 Y44.123
G01 F60 X10.595 Y43.742
G01 F60 X10.214 Y43.742
G01 F60 X10.214 Y43.716
G01 F60 X10.163 Y43.716
G01 F60 X10.163 Y43.691
G01 F60 X10.138 Y43.691
G01 F60 X10.138 Y43.665
G01 F60 X10.113 Y43.665
G01 F60 X10.113 Y43.304
G01 F60 X10.138 Y43.304
G01 F60 X10.138 Y43.279
G01 F60 X10.163 Y43.279
G01 F60 X10.163 Y43.254
G01 F60 X10.214 Y43.254
G01 F60 X10.214 Y43.228
G01 F60 X10.595 Y43.228
G01 F60 X10.595 Y42.847
G01 F60 X10.621 Y42.847
G01 F60 X10.621 Y42.796
G01 F60 X10.646 Y42.796
G01 F60 X10.646 Y42.771
G01 F60 X10.671 Y42.771
G01 F60 X10.671 Y42.745
G01 F60 X11.032 Y42.745
G01 F60 X11.032 Y42.771
G01 F60 X11.058 Y42.771
G01 F60 X11.058 Y42.796
G01 F60 X11.083 Y42.796
G01 F60 X11.083 Y42.873
G01 F60 X11.109 Y42.873
G01 F60 X11.109 Y43.228
G01 F60 X11.490 Y43.228
G01 F60 X11.490 Y43.254
G01 F60 X11.540 Y43.254
G01 F60 X11.540 Y43.279
G01 F60 X11.566 Y43.279
G01 F60 X11.566 Y43.304
G01 F60 X11.591 Y43.304
G01 F60 X11.591 Y43.665
G01 F60 X11.566 Y43.665
G01 F60 X11.566 Y43.691
G01 F60 X11.540 Y43.691
G01 F60 X11.540 Y43.716
G01 F60 X11.490 Y43.716
G01 F60 X11.490 Y43.742
G01 F60 X11.109 Y43.742
G01 F60 X11.109 Y44.097
G01 F60 X11.083 Y44.097
G01 F60 X11.083 Y44.173
G01 F60 X11.058 Y44.173
G01 F60 X11.058 Y44.199
G01 F60 X11.032 Y44.199
G01 F60 X11.032 Y44.224
G01 F60 X10.671 Y44.224
G00 F3000 Z3.000
G00 F3000 X67.898 Y43.716
G00 F1500 Z0
G01 F60 Z-0.200
G01 F60 X67.898 Y43.691
G01 F60 X67.872 Y43.691
G01 F60 X67.872 Y43.665
G01 F60 X67.847 Y43.665
G01 F60 X67.847 Y43.640
G01 F60 X67.821 Y43.640
G01 F60 X67.821 Y42.288
G01 F60 X67.847 Y42.288
G01 F60 X67.847 Y42.263
G01 F60 X67.872 Y42.263
G01 F60 X67.872 Y42.238
G01 F60 X67.898 Y42.238
G01 F60 X67.898 Y42.212
G01 F60 X68.335 Y42.212
G01 F60 X68.335 Y42.238
G01 F60 X68.386 Y42.238
G01 F60 X68.386 Y42.288
G01 F60 X68.411 Y42.288
G01 F60 X68.411 Y43.640
G01 F60 X68.386 Y43.640
G01 F60 X68.386 Y43.691
G01 F60 X68.335 Y43.691
G01 F60 X68.335 Y43.716
G01 F60 X67.898 Y43.716
G00 F3000 Z3.000
G00 F3000 X48.594 Y43.361
G00 F1500 Z0
G01 F60 Z-0.200
G01 F60 X48.594 Y43.335
G01 F60 X48.467 Y43.335
G01 F60 X48.467 Y43.310
G01 F60 X48.416 Y43.310
G01 F60 X48.416 Y43.284
G01 F60 X48.390 Y43.284
G01 F60 X48.390 Y43.259
G01 F60 X48.365 Y43.259
G01 F60 X48.365 Y43.233
G01 F60 X48.340 Y43.233
G01 F60 X48.340 Y43.208
G01 F60 X48.314 Y43.208
G01 F60 X48.314 Y43.157
G01 F60 X48.289 Y43.157
G01 F60 X48.289 Y43.030
G01 F60 X48.263 Y43.030
G01 F60 X48.263 Y40.231
G01 F60 X48.289 Y40.231
G01 F60 X48.289 Y40.104
G01 F60 X48.314 Y40.104
G01 F60 X48.314 Y40.079
G01 F60 X48.340 Y40.079
G01 F60 X48.340 Y40.028
G01 F60 X48.365 Y40.028
G01 F60 X48.365 Y40.002
G01 F60 X48.390 Y40.002
G01 F60 X48.390 Y39.977
G01 F60 X48.441 Y39.977
G01 F60 X48.441 Y39.952
G01 F60 X48.492 Y39.952
G01 F60 X48.492 Y39.926
G01 F60 X49.209 Y39.926
G01 F60 X49.209 Y39.952
G01 F60 X49.259 Y39.952
G01 F60 X49.259 Y39.977
G01 F60 X49.310 Y39.977
G01 F60 X49.310 Y40.002
G01 F60 X49.336 Y40.002
G01 F60 X49.336 Y40.028
G01 F60 X49.361 Y40.028
G01 F60 X49.361 Y40.053
G01 F60 X49.386 Y40.053
G01 F60 X49.386 Y40.104
G01 F60 X49.412 Y40.104
G01 F60 X49.412 Y40.180
G01 F60 X49.437 Y40.180
G01 F60 X49.437 Y43.081
G01 F60 X49.412 Y43.081
G01 F60 X49.412 Y43.157
G01 F60 X49.386 Y43.157
G01 F60 X49.386 Y43.208
G01 F60 X49.361 Y43.208
G01 F60 X49.361 Y43.233
G01 F60 X49.336 Y43.233
G01 F60 X49.336 Y43.259
G01 F60 X49.310 Y43.259
G01 F60 X49.310 Y43.284
G01 F60 X49.285 Y43.284
G01 F60 X49.285 Y43.310
G01 F60 X49.234 Y43.310
G01 F60 X49.234 Y43.335
G01 F60 X49.107 Y43.335
G01 F60 X49.107 Y43.361
G01 F60 X48.594 Y43.361
G00 F3000 Z3.000
G00 F3000 X23.711 Y43.194
G00 F1500 Z0
G01 F60 Z-0.200
G01 F60 X23.625 Y43.175
G01 F60 X23.617 Y43.172
G01 F60 X23.530 Y43.191
G01 F60 X23.320 Y43.191
G01 F60 X23.114 Y43.147
G01 F60 X22.922 Y43.061
G01 F60 X22.751 Y42.938
G01 F60 X22.611 Y42.781
G01 F60 X22.505 Y42.599
G01 F60 X22.440 Y42.399
G01 F60 X22.418 Y42.189
G01 F60 X22.440 Y41.980
G01 F60 X22.505 Y41.780
G01 F60 X22.611 Y41.598
G01 F60 X22.751 Y41.441
G01 F60 X22.922 Y41.318
G01 F60 X23.007 Y41.280
G01 F60 X23.014 Y40.742
G01 F60 X23.005 Y39.825
G01 F60 X20.596 Y37.416
G01 F60 X20.543 Y37.358
G01 F60 X20.499 Y37.281
G01 F60 X20.472 Y37.197
G01 F60 X20.463 Y37.116
G01 F60 X20.463 Y32.424
G01 F60 X10.706 Y32.424
G01 F60 X10.620 Y32.406
G01 F60 X10.539 Y32.370
G01 F60 X10.471 Y32.320
G01 F60 X5.356 Y27.282
G01 F60 X5.303 Y27.223
G01 F60 X5.259 Y27.147
G01 F60 X5.232 Y27.063
G01 F60 X5.223 Y26.981
G01 F60 X5.223 Y22.847
G01 F60 X5.110 Y22.796
G01 F60 X4.929 Y22.665
G01 F60 X4.779 Y22.498
G01 F60 X4.667 Y22.305
G01 F60 X4.598 Y22.092
G01 F60 X4.575 Y21.869
G01 F60 X4.598 Y21.647
G01 F60 X4.667 Y21.434
G01 F60 X4.779 Y21.240
G01 F60 X4.929 Y21.074
G01 F60 X5.110 Y20.943
G01 F60 X5.223 Y20.892
G01 F60 X5.223 Y16.758
G01 F60 X5.232 Y16.676
G01 F60 X5.259 Y16.592
G01 F60 X5.303 Y16.516
G01 F60 X5.356 Y16.457
G01 F60 X7.905 Y13.934
G01 F60 X7.974 Y13.884
G01 F60 X8.054 Y13.848
G01 F60 X8.141 Y13.829
G01 F60 X9.742 Y13.829
G01 F60 X9.747 Y13.814
G01 F60 X9.859 Y13.620
G01 F60 X10.009 Y13.454
G01 F60 X10.190 Y13.323
G01 F60 X10.394 Y13.232
G01 F60 X10.613 Y13.185
G01 F60 X10.837 Y13.185
G01 F60 X11.056 Y13.232
G01 F60 X11.260 Y13.323
G01 F60 X11.441 Y13.454
G01 F60 X11.591 Y13.620
G01 F60 X11.703 Y13.814
G01 F60 X11.707 Y13.829
G01 F60 X14.822 Y13.829
G01 F60 X14.827 Y13.814
G01 F60 X14.939 Y13.620
G01 F60 X15.089 Y13.454
G01 F60 X15.270 Y13.323
G01 F60 X15.474 Y13.232
G01 F60 X15.693 Y13.185
G01 F60 X15.917 Y13.185
G01 F60 X16.136 Y13.232
G01 F60 X16.340 Y13.323
G01 F60 X16.521 Y13.454
G01 F60 X16.671 Y13.620
G01 F60 X16.783 Y13.814
G01 F60 X16.852 Y14.027
G01 F60 X16.875 Y14.249
G01 F60 X16.852 Y14.472
G01 F60 X16.783 Y14.685
G01 F60 X16.671 Y14.878
G01 F60 X16.521 Y15.045
G01 F60 X16.340 Y15.176
G01 F60 X16.136 Y15.267
G01 F60 X15.917 Y15.314
G01 F60 X15.693 Y15.314
G01 F60 X15.474 Y15.267
G01 F60 X15.270 Y15.176
G01 F60 X15.089 Y15.045
G01 F60 X14.939 Y14.878
G01 F60 X14.827 Y14.685
G01 F60 X14.822 Y14.670
G01 F60 X11.811 Y14.670
G01 F60 X11.778 Y14.726
G01 F60 X11.719 Y14.792
G01 F60 X11.646 Y14.845
G01 F60 X11.599 Y14.864
G01 F60 X11.591 Y14.878
G01 F60 X11.441 Y15.045
G01 F60 X11.260 Y15.176
G01 F60 X11.056 Y15.267
G01 F60 X10.837 Y15.314
G01 F60 X10.613 Y15.314
G01 F60 X10.394 Y15.267
G01 F60 X10.190 Y15.176
G01 F60 X10.009 Y15.045
G01 F60 X9.859 Y14.878
G01 F60 X9.747 Y14.685
G01 F60 X9.742 Y14.670
G01 F60 X8.360 Y14.670
G01 F60 X6.067 Y16.939
G01 F60 X6.067 Y20.892
G01 F60 X6.180 Y20.943
G01 F60 X6.361 Y21.074
G01 F60 X6.511 Y21.240
G01 F60 X6.623 Y21.434
G01 F60 X6.692 Y21.647
G01 F60 X6.715 Y21.869
G01 F60 X6.692 Y22.092
G01 F60 X6.623 Y22.305
G01 F60 X6.511 Y22.498
G01 F60 X6.361 Y22.665
G01 F60 X6.180 Y22.796
G01 F60 X6.067 Y22.847
G01 F60 X6.067 Y26.774
G01 F60 X8.385 Y29.069
G01 F60 X12.466 Y29.047
G01 F60 X12.523 Y28.950
G01 F60 X12.651 Y28.808
G01 F60 X12.806 Y28.695
G01 F60 X12.981 Y28.617
G01 F60 X13.169 Y28.577
G01 F60 X13.361 Y28.577
G01 F60 X13.549 Y28.617
G01 F60 X13.724 Y28.695
G01 F60 X13.879 Y28.808
G01 F60 X14.007 Y28.950
G01 F60 X14.103 Y29.116
G01 F60 X14.163 Y29.299
G01 F60 X14.183 Y29.489
G01 F60 X14.163 Y29.680
G01 F60 X14.103 Y29.863
G01 F60 X14.007 Y30.029
G01 F60 X13.879 Y30.171
G01 F60 X13.724 Y30.284
G01 F60 X13.549 Y30.362
G01 F60 X13.361 Y30.402
G01 F60 X13.169 Y30.402
G01 F60 X12.981 Y30.362
G01 F60 X12.806 Y30.284
G01 F60 X12.651 Y30.171
G01 F60 X12.522 Y30.028
G01 F60 X12.457 Y29.910
G01 F60 X9.225 Y29.910
G01 F60 X10.925 Y31.584
G01 F60 X20.929 Y31.584
G01 F60 X21.004 Y31.600
G01 F60 X22.694 Y31.973
G01 F60 X22.794 Y31.862
G01 F60 X22.953 Y31.746
G01 F60 X23.134 Y31.666
G01 F60 X23.326 Y31.625
G01 F60 X23.524 Y31.625
G01 F60 X23.716 Y31.666
G01 F60 X23.896 Y31.746
G01 F60 X24.056 Y31.862
G01 F60 X24.188 Y32.008
G01 F60 X24.287 Y32.179
G01 F60 X24.347 Y32.367
G01 F60 X24.368 Y32.563
G01 F60 X24.347 Y32.759
G01 F60 X24.287 Y32.946
G01 F60 X24.188 Y33.117
G01 F60 X24.056 Y33.264
G01 F60 X23.896 Y33.380
G01 F60 X23.716 Y33.460
G01 F60 X23.524 Y33.501
G01 F60 X23.326 Y33.501
G01 F60 X23.134 Y33.460
G01 F60 X22.953 Y33.380
G01 F60 X22.794 Y33.264
G01 F60 X22.662 Y33.117
G01 F60 X22.563 Y32.946
G01 F60 X22.514 Y32.794
G01 F60 X22.417 Y32.773
G01 F60 X22.220 Y32.729
G01 F60 X21.934 Y32.666
G01 F60 X21.695 Y32.613
G01 F60 X21.307 Y32.528
G01 F60 X21.307 Y36.935
G01 F60 X23.626 Y39.255
G01 F60 X28.471 Y39.255
G01 F60 X30.022 Y39.233
G01 F60 X30.033 Y39.199
G01 F60 X30.148 Y38.998
G01 F60 X30.303 Y38.826
G01 F60 X30.491 Y38.690
G01 F60 X30.702 Y38.595
G01 F60 X30.929 Y38.547
G01 F60 X31.161 Y38.547
G01 F60 X31.387 Y38.595
G01 F60 X31.599 Y38.690
G01 F60 X31.787 Y38.826
G01 F60 X31.942 Y38.998
G01 F60 X32.057 Y39.199
G01 F60 X32.129 Y39.419
G01 F60 X32.153 Y39.649
G01 F60 X32.129 Y39.880
G01 F60 X32.057 Y40.100
G01 F60 X31.942 Y40.301
G01 F60 X31.787 Y40.473
G01 F60 X31.599 Y40.609
G01 F60 X31.387 Y40.703
G01 F60 X31.161 Y40.752
G01 F60 X30.929 Y40.752
G01 F60 X30.702 Y40.703
G01 F60 X30.491 Y40.609
G01 F60 X30.303 Y40.473
G01 F60 X30.148 Y40.301
G01 F60 X30.033 Y40.100
G01 F60 X30.024 Y40.074
G01 F60 X28.538 Y40.095
G01 F60 X23.872 Y40.095
G01 F60 X23.872 Y41.293
G01 F60 X23.928 Y41.318
G01 F60 X24.099 Y41.441
G01 F60 X24.239 Y41.598
G01 F60 X24.345 Y41.780
G01 F60 X24.410 Y41.980
G01 F60 X24.431 Y42.189
G01 F60 X24.410 Y42.399
G01 F60 X24.345 Y42.599
G01 F60 X24.239 Y42.781
G01 F60 X24.169 Y42.860
G01 F60 X24.168 Y42.861
G01 F60 X24.141 Y42.945
G01 F60 X24.097 Y43.022
G01 F60 X24.038 Y43.087
G01 F60 X23.966 Y43.139
G01 F60 X23.886 Y43.175
G01 F60 X23.799 Y43.194
G01 F60 X23.711 Y43.194
G00 F3000 Z3.000
G00 F3000 X56.340 Y43.191
G00 F1500 Z0
G01 F60 Z-0.200
G01 F60 X56.134 Y43.147
G01 F60 X55.942 Y43.061
G01 F60 X55.771 Y42.938
G01 F60 X55.631 Y42.781
G01 F60 X55.525 Y42.599
G01 F60 X55.460 Y42.399
G01 F60 X55.438 Y42.189
G01 F60 X55.460 Y41.980
G01 F60 X55.525 Y41.780
G01 F60 X55.631 Y41.598
G01 F60 X55.771 Y41.441
G01 F60 X55.942 Y41.318
G01 F60 X56.134 Y41.232
G01 F60 X56.340 Y41.188
G01 F60 X56.550 Y41.188
G01 F60 X56.756 Y41.232
G01 F60 X56.948 Y41.318
G01 F60 X57.119 Y41.441
G01 F60 X57.259 Y41.598
G01 F60 X57.364 Y41.780
G01 F60 X57.430 Y41.980
G01 F60 X57.452 Y42.189
G01 F60 X57.430 Y42.399
G01 F60 X57.364 Y42.599
G01 F60 X57.259 Y42.781
G01 F60 X57.119 Y42.938
G01 F60 X56.948 Y43.061
G01 F60 X56.756 Y43.147
G01 F60 X56.550 Y43.191
G01 F60 X56.340 Y43.191
G00 F3000 Z3.000
G00 F3000 X41.100 Y43.191
G00 F1500 Z0
G01 F60 Z-0.200
G01 F60 X40.894 Y43.147
G01 F60 X40.702 Y43.061
G01 F60 X40.531 Y42.938
G01 F60 X40.391 Y42.781
G01 F60 X40.285 Y42.599
G01 F60 X40.220 Y42.399
G01 F60 X40.198 Y42.189
G01 F60 X40.220 Y41.980
G01 F60 X40.285 Y41.780
G01 F60 X40.391 Y41.598
G01 F60 X40.531 Y41.441
G01 F60 X40.702 Y41.318
G01 F60 X40.894 Y41.232
G01 F60 X41.100 Y41.188
G01 F60 X41.310 Y41.188
G01 F60 X41.516 Y41.232
G01 F60 X41.708 Y41.318
G01 F60 X41.879 Y41.441
G01 F60 X42.019 Y41.598
G01 F60 X42.125 Y41.780
G01 F60 X42.190 Y41.980
G01 F60 X42.212 Y42.189
G01 F60 X42.190 Y42.399
G01 F60 X42.125 Y42.599
G01 F60 X42.019 Y42.781
G01 F60 X41.879 Y42.938
G01 F60 X41.708 Y43.061
G01 F60 X41.516 Y43.147
G01 F60 X41.310 Y43.191
G01 F60 X41.100 Y43.191
G00 F3000 Z3.000
G00 F3000 X6.379 Y41.430
G00 F1500 Z0
G01 F60 Z-0.200
G01 F60 X6.379 Y41.405
G01 F60 X6.303 Y41.405
G01 F60 X6.303 Y41.379
G01 F60 X6.277 Y41.379
G01 F60 X6.277 Y41.354
G01 F60 X6.226 Y41.354
G01 F60 X6.226 Y41.329
G01 F60 X6.201 Y41.329
G01 F60 X6.201 Y41.303
G01 F60 X6.176 Y41.303
G01 F60 X6.176 Y41.278
G01 F60 X6.150 Y41.278
G01 F60 X6.150 Y41.252
G01 F60 X6.125 Y41.252
G01 F60 X6.125 Y41.202
G01 F60 X6.099 Y41.202
G01 F60 X6.099 Y41.176
G01 F60 X6.074 Y41.176
G01 F60 X6.074 Y41.100
G01 F60 X6.049 Y41.100
G01 F60 X6.049 Y40.002
G01 F60 X6.074 Y40.002
G01 F60 X6.074 Y39.926
G01 F60 X6.099 Y39.926
G01 F60 X6.099 Y39.875
G01 F60 X6.125 Y39.875
G01 F60 X6.125 Y39.850
G01 F60 X6.150 Y39.850
G01 F60 X6.150 Y39.825
G01 F60 X6.176 Y39.825
G01 F60 X6.176 Y39.799
G01 F60 X6.201 Y39.799
G01 F60 X6.201 Y39.774
G01 F60 X6.226 Y39.774
G01 F60 X6.226 Y39.748
G01 F60 X6.252 Y39.748
G01 F60 X6.252 Y39.723
G01 F60 X6.303 Y39.723
G01 F60 X6.303 Y39.698
G01 F60 X6.328 Y39.698
G01 F60 X6.328 Y39.672
G01 F60 X6.430 Y39.672
G01 F60 X6.430 Y39.647
G01 F60 X7.375 Y39.647
G01 F60 X7.375 Y39.672
G01 F60 X7.400 Y39.672
G01 F60 X7.400 Y40.516
G01 F60 X7.375 Y40.516
G01 F60 X7.375 Y40.592
G01 F60 X7.349 Y40.592
G01 F60 X7.349 Y40.617
G01 F60 X7.324 Y40.617
G01 F60 X7.324 Y40.643
G01 F60 X7.273 Y40.643
G01 F60 X7.273 Y40.668
G01 F60 X6.938 Y40.668
G01 F60 X6.938 Y40.643
G01 F60 X6.912 Y40.643
G01 F60 X6.912 Y40.617
G01 F60 X6.887 Y40.617
G01 F60 X6.887 Y40.592
G01 F60 X6.861 Y40.592
G01 F60 X6.861 Y40.567
G01 F60 X6.836 Y40.567
G01 F60 X6.836 Y40.211
G01 F60 X6.664 Y40.211
G01 F60 X6.664 Y40.236
G01 F60 X6.638 Y40.236
G01 F60 X6.638 Y40.262
G01 F60 X6.613 Y40.262
G01 F60 X6.613 Y40.313
G01 F60 X6.587 Y40.313
G01 F60 X6.587 Y40.790
G01 F60 X6.613 Y40.790
G01 F60 X6.613 Y40.815
G01 F60 X6.638 Y40.815
G01 F60 X6.638 Y40.840
G01 F60 X6.664 Y40.840
G01 F60 X6.664 Y40.866
G01 F60 X6.689 Y40.866
G01 F60 X6.689 Y40.891
G01 F60 X7.446 Y40.891
G01 F60 X7.446 Y40.866
G01 F60 X7.522 Y40.866
G01 F60 X7.522 Y40.840
G01 F60 X7.547 Y40.840
G01 F60 X7.547 Y40.815
G01 F60 X7.573 Y40.815
G01 F60 X7.573 Y40.790
G01 F60 X7.623 Y40.790
G01 F60 X7.623 Y40.764
G01 F60 X7.649 Y40.764
G01 F60 X7.649 Y40.739
G01 F60 X7.674 Y40.739
G01 F60 X7.674 Y40.714
G01 F60 X7.725 Y40.714
G01 F60 X7.725 Y40.688
G01 F60 X7.750 Y40.688
G01 F60 X7.750 Y40.663
G01 F60 X7.776 Y40.663
G01 F60 X7.776 Y40.637
G01 F60 X7.801 Y40.637
G01 F60 X7.801 Y40.612
G01 F60 X7.852 Y40.612
G01 F60 X7.852 Y40.587
G01 F60 X7.877 Y40.587
G01 F60 X7.877 Y40.561
G01 F60 X7.903 Y40.561
G01 F60 X7.903 Y40.536
G01 F60 X7.954 Y40.536
G01 F60 X7.954 Y40.510
G01 F60 X7.979 Y40.510
G01 F60 X7.979 Y40.485
G01 F60 X8.004 Y40.485
G01 F60 X8.004 Y40.459
G01 F60 X8.030 Y40.459
G01 F60 X8.030 Y40.434
G01 F60 X8.081 Y40.434
G01 F60 X8.081 Y40.409
G01 F60 X8.106 Y40.409
G01 F60 X8.106 Y40.383
G01 F60 X8.131 Y40.383
G01 F60 X8.131 Y40.358
G01 F60 X8.157 Y40.358
G01 F60 X8.157 Y39.774
G01 F60 X8.182 Y39.774
G01 F60 X8.182 Y39.723
G01 F60 X8.208 Y39.723
G01 F60 X8.208 Y39.698
G01 F60 X8.233 Y39.698
G01 F60 X8.233 Y39.672
G01 F60 X8.258 Y39.672
G01 F60 X8.258 Y39.647
G01 F60 X8.594 Y39.647
G01 F60 X8.594 Y39.672
G01 F60 X8.645 Y39.672
G01 F60 X8.645 Y39.698
G01 F60 X8.670 Y39.698
G01 F60 X8.670 Y39.723
G01 F60 X8.696 Y39.723
G01 F60 X8.696 Y39.774
G01 F60 X8.721 Y39.774
G01 F60 X8.721 Y40.567
G01 F60 X8.696 Y40.567
G01 F60 X8.696 Y40.668
G01 F60 X8.670 Y40.668
G01 F60 X8.670 Y40.744
G01 F60 X8.645 Y40.744
G01 F60 X8.645 Y40.770
G01 F60 X8.619 Y40.770
G01 F60 X8.619 Y40.821
G01 F60 X8.594 Y40.821
G01 F60 X8.594 Y40.846
G01 F60 X8.543 Y40.846
G01 F60 X8.543 Y40.871
G01 F60 X8.518 Y40.871
G01 F60 X8.518 Y40.897
G01 F60 X8.492 Y40.897
G01 F60 X8.492 Y40.922
G01 F60 X8.467 Y40.922
G01 F60 X8.467 Y40.948
G01 F60 X8.442 Y40.948
G01 F60 X8.442 Y40.973
G01 F60 X8.391 Y40.973
G01 F60 X8.391 Y40.998
G01 F60 X8.365 Y40.998
G01 F60 X8.365 Y41.024
G01 F60 X8.340 Y41.024
G01 F60 X8.340 Y41.049
G01 F60 X8.289 Y41.049
G01 F60 X8.289 Y41.075
G01 F60 X8.264 Y41.075
G01 F60 X8.264 Y41.100
G01 F60 X8.238 Y41.100
G01 F60 X8.238 Y41.125
G01 F60 X8.213 Y41.125
G01 F60 X8.213 Y41.151
G01 F60 X8.162 Y41.151
G01 F60 X8.162 Y41.176
G01 F60 X8.137 Y41.176
G01 F60 X8.137 Y41.202
G01 F60 X8.111 Y41.202
G01 F60 X8.111 Y41.227
G01 F60 X8.061 Y41.227
G01 F60 X8.061 Y41.252
G01 F60 X8.035 Y41.252
G01 F60 X8.035 Y41.278
G01 F60 X8.010 Y41.278
G01 F60 X8.010 Y41.303
G01 F60 X7.959 Y41.303
G01 F60 X7.959 Y41.329
G01 F60 X7.934 Y41.329
G01 F60 X7.934 Y41.354
G01 F60 X7.883 Y41.354
G01 F60 X7.883 Y41.379
G01 F60 X7.832 Y41.379
G01 F60 X7.832 Y41.405
G01 F60 X7.756 Y41.405
G01 F60 X7.756 Y41.430
G01 F60 X6.379 Y41.430
G00 F3000 Z3.000
G00 F3000 X36.669 Y41.107
G00 F1500 Z0
G01 F60 Z-0.200
G01 F60 X36.443 Y41.059
G01 F60 X36.231 Y40.965
G01 F60 X36.044 Y40.829
G01 F60 X35.889 Y40.656
G01 F60 X35.773 Y40.456
G01 F60 X35.701 Y40.235
G01 F60 X35.677 Y40.005
G01 F60 X35.701 Y39.775
G01 F60 X35.773 Y39.554
G01 F60 X35.889 Y39.354
G01 F60 X36.044 Y39.181
G01 F60 X36.231 Y39.045
G01 F60 X36.443 Y38.951
G01 F60 X36.669 Y38.903
G01 F60 X36.901 Y38.903
G01 F60 X36.982 Y38.920
G01 F60 X38.325 Y36.859
G01 F60 X38.382 Y36.796
G01 F60 X38.454 Y36.744
G01 F60 X38.534 Y36.708
G01 F60 X38.621 Y36.689
G01 F60 X40.291 Y36.689
G01 F60 X40.391 Y36.518
G01 F60 X40.531 Y36.361
G01 F60 X40.702 Y36.238
G01 F60 X40.894 Y36.152
G01 F60 X41.100 Y36.108
G01 F60 X41.310 Y36.108
G01 F60 X41.516 Y36.152
G01 F60 X41.708 Y36.238
G01 F60 X41.879 Y36.361
G01 F60 X42.019 Y36.518
G01 F60 X42.125 Y36.700
G01 F60 X42.190 Y36.900
G01 F60 X42.212 Y37.109
G01 F60 X42.190 Y37.319
G01 F60 X42.125 Y37.519
G01 F60 X42.019 Y37.701
G01 F60 X41.879 Y37.858
G01 F60 X41.708 Y37.981
G01 F60 X41.516 Y38.067
G01 F60 X41.310 Y38.111
G01 F60 X41.100 Y38.111
G01 F60 X40.894 Y38.067
G01 F60 X40.702 Y37.981
G01 F60 X40.531 Y37.858
G01 F60 X40.391 Y37.701
G01 F60 X40.291 Y37.529
G01 F60 X38.894 Y37.529
G01 F60 X37.693 Y39.373
G01 F60 X37.798 Y39.554
G01 F60 X37.869 Y39.775
G01 F60 X37.894 Y40.005
G01 F60 X37.869 Y40.235
G01 F60 X37.798 Y40.456
G01 F60 X37.682 Y40.656
G01 F60 X37.527 Y40.829
G01 F60 X37.339 Y40.965
G01 F60 X37.128 Y41.059
G01 F60 X36.901 Y41.107
G01 F60 X36.669 Y41.107
G00 F3000 Z3.000
G00 F3000 X65.472 Y40.782
G00 F1500 Z0
G01 F60 Z-0.200
G01 F60 X65.472 Y40.075
G01 F60 X64.098 Y40.095
G01 F60 X64.021 Y40.095
G01 F60 X63.934 Y40.077
G01 F60 X63.854 Y40.041
G01 F60 X63.782 Y39.989
G01 F60 X63.723 Y39.923
G01 F60 X63.679 Y39.847
G01 F60 X63.652 Y39.763
G01 F60 X63.643 Y39.681
G01 F60 X63.643 Y29.910
G01 F60 X62.547 Y29.910
G01 F60 X62.537 Y29.940
G01 F60 X62.422 Y30.141
G01 F60 X62.267 Y30.313
G01 F60 X62.079 Y30.449
G01 F60 X61.867 Y30.543
G01 F60 X61.641 Y30.592
G01 F60 X61.409 Y30.592
G01 F60 X61.182 Y30.543
G01 F60 X60.971 Y30.449
G01 F60 X60.783 Y30.313
G01 F60 X60.628 Y30.141
G01 F60 X60.513 Y29.940
G01 F60 X60.441 Y29.720
G01 F60 X60.417 Y29.489
G01 F60 X60.441 Y29.259
G01 F60 X60.513 Y29.039
G01 F60 X60.628 Y28.838
G01 F60 X60.783 Y28.666
G01 F60 X60.971 Y28.530
G01 F60 X61.182 Y28.435
G01 F60 X61.409 Y28.387
G01 F60 X61.641 Y28.387
G01 F60 X61.867 Y28.435
G01 F60 X62.079 Y28.530
G01 F60 X62.267 Y28.666
G01 F60 X62.422 Y28.838
G01 F60 X62.537 Y29.039
G01 F60 X62.547 Y29.069
G01 F60 X63.643 Y29.069
G01 F60 X63.643 Y22.264
G01 F60 X58.941 Y22.264
G01 F60 X58.854 Y22.246
G01 F60 X58.774 Y22.210
G01 F60 X58.702 Y22.158
G01 F60 X58.643 Y22.092
G01 F60 X58.599 Y22.016
G01 F60 X58.572 Y21.932
G01 F60 X58.563 Y21.850
G01 F60 X58.563 Y12.149
G01 F60 X57.357 Y12.133
G01 F60 X57.259 Y12.301
G01 F60 X57.119 Y12.458
G01 F60 X56.948 Y12.581
G01 F60 X56.756 Y12.667
G01 F60 X56.550 Y12.711
G01 F60 X56.340 Y12.711
G01 F60 X56.134 Y12.667
G01 F60 X55.942 Y12.581
G01 F60 X55.771 Y12.458
G01 F60 X55.631 Y12.301
G01 F60 X55.525 Y12.119
G01 F60 X55.460 Y11.919
G01 F60 X55.438 Y11.709
G01 F60 X55.460 Y11.500
G01 F60 X55.525 Y11.300
G01 F60 X55.631 Y11.118
G01 F60 X55.771 Y10.961
G01 F60 X55.942 Y10.838
G01 F60 X56.134 Y10.752
G01 F60 X56.340 Y10.708
G01 F60 X56.550 Y10.708
G01 F60 X56.756 Y10.752
G01 F60 X56.948 Y10.838
G01 F60 X57.119 Y10.961
G01 F60 X57.259 Y11.118
G01 F60 X57.360 Y11.291
G01 F60 X59.030 Y11.315
G01 F60 X59.115 Y11.333
G01 F60 X59.196 Y11.369
G01 F60 X59.268 Y11.421
G01 F60 X59.327 Y11.487
G01 F60 X59.371 Y11.563
G01 F60 X59.398 Y11.647
G01 F60 X59.407 Y11.729
G01 F60 X59.407 Y21.424
G01 F60 X64.109 Y21.424
G01 F60 X64.195 Y21.442
G01 F60 X64.276 Y21.478
G01 F60 X64.348 Y21.530
G01 F60 X64.407 Y21.596
G01 F60 X64.451 Y21.672
G01 F60 X64.478 Y21.756
G01 F60 X64.487 Y21.838
G01 F60 X64.487 Y39.248
G01 F60 X65.472 Y39.234
G01 F60 X65.472 Y38.516
G01 F60 X67.738 Y38.516
G01 F60 X67.738 Y40.782
G01 F60 X65.472 Y40.782
G00 F3000 Z3.000
G00 F3000 X56.340 Y40.651
G00 F1500 Z0
G01 F60 Z-0.200
G01 F60 X56.134 Y40.607
G01 F60 X55.942 Y40.521
G01 F60 X55.771 Y40.398
G01 F60 X55.631 Y40.241
G01 F60 X55.525 Y40.059
G01 F60 X55.460 Y39.859
G01 F60 X55.438 Y39.649
G01 F60 X55.460 Y39.440
G01 F60 X55.525 Y39.240
G01 F60 X55.631 Y39.058
G01 F60 X55.771 Y38.901
G01 F60 X55.942 Y38.778
G01 F60 X56.134 Y38.692
G01 F60 X56.340 Y38.648
G01 F60 X56.550 Y38.648
G01 F60 X56.756 Y38.692
G01 F60 X56.948 Y38.778
G01 F60 X57.119 Y38.901
G01 F60 X57.259 Y39.058
G01 F60 X57.364 Y39.240
G01 F60 X57.430 Y39.440
G01 F60 X57.452 Y39.649
G01 F60 X57.430 Y39.859
G01 F60 X57.364 Y40.059
G01 F60 X57.259 Y40.241
G01 F60 X57.119 Y40.398
G01 F60 X56.948 Y40.521
G01 F60 X56.756 Y40.607
G01 F60 X56.550 Y40.651
G01 F60 X56.340 Y40.651
G00 F3000 Z3.000
G00 F3000 X41.100 Y40.651
G00 F1500 Z0
G01 F60 Z-0.200
G01 F60 X40.894 Y40.607
G01 F60 X40.702 Y40.521
G01 F60 X40.531 Y40.398
G01 F60 X40.391 Y40.241
G01 F60 X40.285 Y40.059
G01 F60 X40.220 Y39.859
G01 F60 X40.198 Y39.649
G01 F60 X40.220 Y39.440
G01 F60 X40.285 Y39.240
G01 F60 X40.391 Y39.058
G01 F60 X40.531 Y38.901
G01 F60 X40.702 Y38.778
G01 F60 X40.894 Y38.692
G01 F60 X41.100 Y38.648
G01 F60 X41.310 Y38.648
G01 F60 X41.516 Y38.692
G01 F60 X41.708 Y38.778
G01 F60 X41.879 Y38.901
G01 F60 X42.019 Y39.058
G01 F60 X42.125 Y39.240
G01 F60 X42.190 Y39.440
G01 F60 X42.212 Y39.649
G01 F60 X42.190 Y39.859
G01 F60 X42.125 Y40.059
G01 F60 X42.019 Y40.241
G01 F60 X41.879 Y40.398
G01 F60 X41.708 Y40.521
G01 F60 X41.516 Y40.607
G01 F60 X41.310 Y40.651
G01 F60 X41.100 Y40.651
G00 F3000 Z3.000
G00 F3000 X6.125 Y39.169
G00 F1500 Z0
G01 F60 Z-0.200
G01 F60 X6.125 Y39.144
G01 F60 X6.099 Y39.144
G01 F60 X6.099 Y39.119
G01 F60 X6.074 Y39.119
G01 F60 X6.074 Y39.093
G01 F60 X6.049 Y39.093
G01 F60 X6.049 Y38.732
G01 F60 X6.074 Y38.732
G01 F60 X6.074 Y38.681
G01 F60 X6.099 Y38.681
G01 F60 X6.099 Y38.656
G01 F60 X6.150 Y38.656
G01 F60 X6.150 Y38.631
G01 F60 X7.700 Y38.631
G01 F60 X7.700 Y38.611
G01 F60 X7.649 Y38.611
G01 F60 X7.649 Y38.585
G01 F60 X7.623 Y38.585
G01 F60 X7.623 Y38.560
G01 F60 X7.446 Y38.560
G01 F60 X7.446 Y38.535
G01 F60 X7.420 Y38.535
G01 F60 X7.420 Y38.509
G01 F60 X7.395 Y38.509
G01 F60 X7.395 Y38.458
G01 F60 X7.369 Y38.458
G01 F60 X7.369 Y38.097
G01 F60 X7.395 Y38.097
G01 F60 X7.395 Y38.072
G01 F60 X7.420 Y38.072
G01 F60 X7.420 Y38.047
G01 F60 X7.446 Y38.047
G01 F60 X7.446 Y38.021
G01 F60 X7.623 Y38.021
G01 F60 X7.623 Y37.996
G01 F60 X7.649 Y37.996
G01 F60 X7.649 Y37.970
G01 F60 X7.700 Y37.970
G01 F60 X7.700 Y37.950
G01 F60 X6.176 Y37.950
G01 F60 X6.176 Y37.925
G01 F60 X6.125 Y37.925
G01 F60 X6.125 Y37.900
G01 F60 X6.074 Y37.900
G01 F60 X6.074 Y37.849
G01 F60 X6.049 Y37.849
G01 F60 X6.049 Y37.488
G01 F60 X6.074 Y37.488
G01 F60 X6.074 Y37.437
G01 F60 X6.125 Y37.437
G01 F60 X6.125 Y37.412
G01 F60 X6.150 Y37.412
G01 F60 X6.150 Y37.386
G01 F60 X8.696 Y37.386
G01 F60 X8.696 Y37.412
G01 F60 X8.721 Y37.412
G01 F60 X8.721 Y38.026
G01 F60 X8.696 Y38.026
G01 F60 X8.696 Y38.052
G01 F60 X8.645 Y38.052
G01 F60 X8.645 Y38.077
G01 F60 X8.619 Y38.077
G01 F60 X8.619 Y38.103
G01 F60 X8.569 Y38.103
G01 F60 X8.569 Y38.128
G01 F60 X8.543 Y38.128
G01 F60 X8.543 Y38.154
G01 F60 X8.518 Y38.154
G01 F60 X8.518 Y38.179
G01 F60 X8.467 Y38.179
G01 F60 X8.467 Y38.204
G01 F60 X8.442 Y38.204
G01 F60 X8.442 Y38.230
G01 F60 X8.391 Y38.230
G01 F60 X8.391 Y38.255
G01 F60 X8.365 Y38.255
G01 F60 X8.365 Y38.281
G01 F60 X8.340 Y38.281
G01 F60 X8.340 Y38.300
G01 F60 X8.365 Y38.300
G01 F60 X8.365 Y38.326
G01 F60 X8.416 Y38.326
G01 F60 X8.416 Y38.351
G01 F60 X8.442 Y38.351
G01 F60 X8.442 Y38.377
G01 F60 X8.467 Y38.377
G01 F60 X8.467 Y38.402
G01 F60 X8.518 Y38.402
G01 F60 X8.518 Y38.428
G01 F60 X8.543 Y38.428
G01 F60 X8.543 Y38.453
G01 F60 X8.594 Y38.453
G01 F60 X8.594 Y38.478
G01 F60 X8.619 Y38.478
G01 F60 X8.619 Y38.504
G01 F60 X8.645 Y38.504
G01 F60 X8.645 Y38.529
G01 F60 X8.696 Y38.529
G01 F60 X8.696 Y38.555
G01 F60 X8.721 Y38.555
G01 F60 X8.721 Y39.169
G01 F60 X6.125 Y39.169
G00 F3000 Z3.000
G00 F3000 X12.132 Y38.242
G00 F1500 Z0
G01 F60 Z-0.200
G01 F60 X12.132 Y37.529
G01 F60 X10.706 Y37.529
G01 F60 X10.620 Y37.511
G01 F60 X10.539 Y37.475
G01 F60 X10.470 Y37.425
G01 F60 X2.841 Y29.797
G01 F60 X2.788 Y29.738
G01 F60 X2.744 Y29.661
G01 F60 X2.717 Y29.577
G01 F60 X2.709 Y29.495
G01 F60 X2.709 Y14.243
G01 F60 X2.717 Y14.162
G01 F60 X2.744 Y14.078
G01 F60 X2.788 Y14.001
G01 F60 X2.841 Y13.943
G01 F60 X4.655 Y12.106
G01 F60 X4.598 Y11.932
G01 F60 X4.575 Y11.709
G01 F60 X4.598 Y11.487
G01 F60 X4.667 Y11.274
G01 F60 X4.779 Y11.080
G01 F60 X4.929 Y10.914
G01 F60 X5.110 Y10.783
G01 F60 X5.314 Y10.692
G01 F60 X5.533 Y10.645
G01 F60 X5.757 Y10.645
G01 F60 X5.976 Y10.692
G01 F60 X6.180 Y10.783
G01 F60 X6.361 Y10.914
G01 F60 X6.511 Y11.080
G01 F60 X6.623 Y11.274
G01 F60 X6.629 Y11.294
G01 F60 X10.732 Y11.315
G01 F60 X18.415 Y11.315
G01 F60 X18.501 Y11.333
G01 F60 X18.582 Y11.369
G01 F60 X18.650 Y11.419
G01 F60 X21.199 Y13.942
G01 F60 X21.252 Y14.001
G01 F60 X21.279 Y14.047
G01 F60 X23.576 Y16.344
G01 F60 X30.063 Y16.368
G01 F60 X30.067 Y16.354
G01 F60 X30.179 Y16.160
G01 F60 X30.329 Y15.994
G01 F60 X30.510 Y15.863
G01 F60 X30.714 Y15.772
G01 F60 X30.933 Y15.725
G01 F60 X31.157 Y15.725
G01 F60 X31.376 Y15.772
G01 F60 X31.580 Y15.863
G01 F60 X31.761 Y15.994
G01 F60 X31.911 Y16.160
G01 F60 X32.023 Y16.354
G01 F60 X32.092 Y16.567
G01 F60 X32.115 Y16.789
G01 F60 X32.092 Y17.012
G01 F60 X32.023 Y17.225
G01 F60 X31.911 Y17.418
G01 F60 X31.761 Y17.585
G01 F60 X31.580 Y17.716
G01 F60 X31.376 Y17.807
G01 F60 X31.157 Y17.854
G01 F60 X30.933 Y17.854
G01 F60 X30.714 Y17.807
G01 F60 X30.510 Y17.716
G01 F60 X30.329 Y17.585
G01 F60 X30.179 Y17.418
G01 F60 X30.067 Y17.225
G01 F60 X30.062 Y17.209
G01 F60 X23.355 Y17.184
G01 F60 X23.269 Y17.166
G01 F60 X23.188 Y17.130
G01 F60 X23.119 Y17.080
G01 F60 X18.195 Y12.155
G01 F60 X10.667 Y12.155
G01 F60 X6.626 Y12.135
G01 F60 X6.623 Y12.145
G01 F60 X6.511 Y12.338
G01 F60 X6.361 Y12.505
G01 F60 X6.180 Y12.636
G01 F60 X5.976 Y12.727
G01 F60 X5.757 Y12.774
G01 F60 X5.532 Y12.774
G01 F60 X5.332 Y12.729
G01 F60 X5.283 Y12.739
G01 F60 X5.214 Y12.739
G01 F60 X3.552 Y14.422
G01 F60 X3.552 Y29.315
G01 F60 X10.926 Y36.689
G01 F60 X12.132 Y36.689
G01 F60 X12.132 Y35.976
G01 F60 X14.398 Y35.976
G01 F60 X14.398 Y38.242
G01 F60 X12.132 Y38.242
G00 F3000 Z3.000
G00 F3000 X56.340 Y38.111
G00 F1500 Z0
G01 F60 Z-0.200
G01 F60 X56.134 Y38.067
G01 F60 X55.942 Y37.981
G01 F60 X55.771 Y37.858
G01 F60 X55.631 Y37.701
G01 F60 X55.525 Y37.519
G01 F60 X55.460 Y37.319
G01 F60 X55.438 Y37.109
G01 F60 X55.460 Y36.900
G01 F60 X55.525 Y36.700
G01 F60 X55.631 Y36.518
G01 F60 X55.771 Y36.361
G01 F60 X55.942 Y36.238
G01 F60 X56.134 Y36.152
G01 F60 X56.340 Y36.108
G01 F60 X56.550 Y36.108
G01 F60 X56.756 Y36.152
G01 F60 X56.948 Y36.238
G01 F60 X57.119 Y36.361
G01 F60 X57.259 Y36.518
G01 F60 X57.364 Y36.700
G01 F60 X57.430 Y36.900
G01 F60 X57.452 Y37.109
G01 F60 X57.430 Y37.319
G01 F60 X57.364 Y37.519
G01 F60 X57.259 Y37.701
G01 F60 X57.119 Y37.858
G01 F60 X56.948 Y37.981
G01 F60 X56.756 Y38.067
G01 F60 X56.550 Y38.111
G01 F60 X56.340 Y38.111
G00 F3000 Z3.000
G00 F3000 X47.705 Y37.722
G00 F1500 Z0
G01 F60 Z-0.200
G01 F60 X47.705 Y37.696
G01 F60 X47.603 Y37.696
G01 F60 X47.603 Y37.671
G01 F60 X47.527 Y37.671
G01 F60 X47.527 Y37.645
G01 F60 X47.476 Y37.645
G01 F60 X47.476 Y37.620
G01 F60 X47.425 Y37.620
G01 F60 X47.425 Y37.595
G01 F60 X47.400 Y37.595
G01 F60 X47.400 Y37.569
G01 F60 X47.349 Y37.569
G01 F60 X47.349 Y37.544
G01 F60 X47.324 Y37.544
G01 F60 X47.324 Y37.519
G01 F60 X47.273 Y37.519
G01 F60 X47.273 Y37.493
G01 F60 X47.247 Y37.493
G01 F60 X47.247 Y37.468
G01 F60 X47.222 Y37.468
G01 F60 X47.222 Y37.442
G01 F60 X47.197 Y37.442
G01 F60 X47.197 Y37.417
G01 F60 X47.171 Y37.417
G01 F60 X47.171 Y37.392
G01 F60 X47.146 Y37.392
G01 F60 X47.146 Y37.366
G01 F60 X47.120 Y37.366
G01 F60 X47.120 Y37.315
G01 F60 X47.095 Y37.315
G01 F60 X47.095 Y37.290
G01 F60 X47.070 Y37.290
G01 F60 X47.070 Y37.239
G01 F60 X47.044 Y37.239
G01 F60 X47.044 Y37.214
G01 F60 X47.019 Y37.214
G01 F60 X47.019 Y37.163
G01 F60 X46.993 Y37.163
G01 F60 X46.993 Y37.087
G01 F60 X46.968 Y37.087
G01 F60 X46.968 Y37.036
G01 F60 X46.943 Y37.036
G01 F60 X46.943 Y36.934
G01 F60 X46.917 Y36.934
G01 F60 X46.917 Y35.735
G01 F60 X46.943 Y35.735
G01 F60 X46.943 Y35.684
G01 F60 X46.968 Y35.684
G01 F60 X46.968 Y35.634
G01 F60 X46.993 Y35.634
G01 F60 X46.993 Y35.608
G01 F60 X47.019 Y35.608
G01 F60 X47.019 Y35.583
G01 F60 X47.044 Y35.583
G01 F60 X47.044 Y35.557
G01 F60 X47.070 Y35.557
G01 F60 X47.070 Y35.532
G01 F60 X47.095 Y35.532
G01 F60 X47.095 Y35.507
G01 F60 X47.120 Y35.507
G01 F60 X47.120 Y35.456
G01 F60 X47.146 Y35.456
G01 F60 X47.146 Y35.430
G01 F60 X47.171 Y35.430
G01 F60 X47.171 Y35.405
G01 F60 X47.197 Y35.405
G01 F60 X47.197 Y35.380
G01 F60 X47.222 Y35.380
G01 F60 X47.222 Y35.354
G01 F60 X47.247 Y35.354
G01 F60 X47.247 Y35.329
G01 F60 X47.273 Y35.329
G01 F60 X47.273 Y35.278
G01 F60 X47.298 Y35.278
G01 F60 X47.298 Y35.253
G01 F60 X47.324 Y35.253
G01 F60 X47.324 Y35.227
G01 F60 X47.349 Y35.227
G01 F60 X47.349 Y35.202
G01 F60 X47.374 Y35.202
G01 F60 X47.374 Y35.176
G01 F60 X47.400 Y35.176
G01 F60 X47.400 Y35.151
G01 F60 X47.425 Y35.151
G01 F60 X47.425 Y35.105
G01 F60 X47.146 Y35.105
G01 F60 X47.146 Y35.080
G01 F60 X47.095 Y35.080
G01 F60 X47.095 Y35.055
G01 F60 X47.044 Y35.055
G01 F60 X47.044 Y35.029
G01 F60 X47.019 Y35.029
G01 F60 X47.019 Y35.004
G01 F60 X46.993 Y35.004
G01 F60 X46.993 Y34.979
G01 F60 X46.968 Y34.979
G01 F60 X46.968 Y34.928
G01 F60 X46.943 Y34.928
G01 F60 X46.943 Y34.877
G01 F60 X46.917 Y34.877
G01 F60 X46.917 Y34.440
G01 F60 X46.943 Y34.440
G01 F60 X46.943 Y34.389
G01 F60 X46.968 Y34.389
G01 F60 X46.968 Y34.338
G01 F60 X46.993 Y34.338
G01 F60 X46.993 Y34.313
G01 F60 X47.019 Y34.313
G01 F60 X47.019 Y34.287
G01 F60 X47.044 Y34.287
G01 F60 X47.044 Y34.262
G01 F60 X47.095 Y34.262
G01 F60 X47.095 Y34.236
G01 F60 X47.171 Y34.236
G01 F60 X47.171 Y34.211
G01 F60 X50.631 Y34.211
G01 F60 X50.631 Y34.236
G01 F60 X50.707 Y34.236
G01 F60 X50.707 Y34.262
G01 F60 X50.758 Y34.262
G01 F60 X50.758 Y34.287
G01 F60 X50.783 Y34.287
G01 F60 X50.783 Y34.313
G01 F60 X50.809 Y34.313
G01 F60 X50.809 Y34.338
G01 F60 X50.834 Y34.338
G01 F60 X50.834 Y34.389
G01 F60 X50.860 Y34.389
G01 F60 X50.860 Y34.440
G01 F60 X50.885 Y34.440
G01 F60 X50.885 Y34.877
G01 F60 X50.860 Y34.877
G01 F60 X50.860 Y34.928
G01 F60 X50.834 Y34.928
G01 F60 X50.834 Y34.979
G01 F60 X50.809 Y34.979
G01 F60 X50.809 Y35.004
G01 F60 X50.783 Y35.004
G01 F60 X50.783 Y35.029
G01 F60 X50.758 Y35.029
G01 F60 X50.758 Y35.055
G01 F60 X50.733 Y35.055
G01 F60 X50.733 Y35.080
G01 F60 X50.656 Y35.080
G01 F60 X50.656 Y35.105
G01 F60 X48.751 Y35.105
G01 F60 X48.751 Y35.131
G01 F60 X48.726 Y35.131
G01 F60 X48.726 Y35.156
G01 F60 X48.701 Y35.156
G01 F60 X48.701 Y35.182
G01 F60 X48.675 Y35.182
G01 F60 X48.675 Y35.233
G01 F60 X48.650 Y35.233
G01 F60 X48.650 Y35.258
G01 F60 X48.624 Y35.258
G01 F60 X48.624 Y35.283
G01 F60 X48.599 Y35.283
G01 F60 X48.599 Y35.309
G01 F60 X48.574 Y35.309
G01 F60 X48.574 Y35.334
G01 F60 X48.548 Y35.334
G01 F60 X48.548 Y35.360
G01 F60 X48.523 Y35.360
G01 F60 X48.523 Y35.385
G01 F60 X48.497 Y35.385
G01 F60 X48.497 Y35.436
G01 F60 X48.472 Y35.436
G01 F60 X48.472 Y35.461
G01 F60 X48.447 Y35.461
G01 F60 X48.447 Y35.486
G01 F60 X48.421 Y35.486
G01 F60 X48.421 Y35.512
G01 F60 X48.396 Y35.512
G01 F60 X48.396 Y35.537
G01 F60 X48.370 Y35.537
G01 F60 X48.370 Y35.563
G01 F60 X48.345 Y35.563
G01 F60 X48.345 Y35.614
G01 F60 X48.320 Y35.614
G01 F60 X48.320 Y35.639
G01 F60 X48.294 Y35.639
G01 F60 X48.294 Y35.664
G01 F60 X48.269 Y35.664
G01 F60 X48.269 Y35.690
G01 F60 X48.243 Y35.690
G01 F60 X48.243 Y35.715
G01 F60 X48.218 Y35.715
G01 F60 X48.218 Y35.741
G01 F60 X48.193 Y35.741
G01 F60 X48.193 Y35.791
G01 F60 X48.167 Y35.791
G01 F60 X48.167 Y35.817
G01 F60 X48.142 Y35.817
G01 F60 X48.142 Y35.842
G01 F60 X48.116 Y35.842
G01 F60 X48.116 Y35.867
G01 F60 X48.091 Y35.867
G01 F60 X48.091 Y35.893
G01 F60 X48.066 Y35.893
G01 F60 X48.066 Y35.918
G01 F60 X48.040 Y35.918
G01 F60 X48.040 Y35.969
G01 F60 X48.015 Y35.969
G01 F60 X48.015 Y35.995
G01 F60 X47.989 Y35.995
G01 F60 X47.989 Y36.020
G01 F60 X47.964 Y36.020
G01 F60 X47.964 Y36.045
G01 F60 X47.939 Y36.045
G01 F60 X47.939 Y36.071
G01 F60 X47.913 Y36.071
G01 F60 X47.913 Y36.096
G01 F60 X47.888 Y36.096
G01 F60 X47.888 Y36.147
G01 F60 X47.862 Y36.147
G01 F60 X47.862 Y36.172
G01 F60 X47.837 Y36.172
G01 F60 X47.837 Y36.198
G01 F60 X47.812 Y36.198
G01 F60 X47.812 Y36.599
G01 F60 X47.837 Y36.599
G01 F60 X47.837 Y36.650
G01 F60 X47.862 Y36.650
G01 F60 X47.862 Y36.700
G01 F60 X47.888 Y36.700
G01 F60 X47.888 Y36.726
G01 F60 X47.913 Y36.726
G01 F60 X47.913 Y36.751
G01 F60 X47.939 Y36.751
G01 F60 X47.939 Y36.776
G01 F60 X47.989 Y36.776
G01 F60 X47.989 Y36.802
G01 F60 X48.040 Y36.802
G01 F60 X48.040 Y36.827
G01 F60 X48.396 Y36.827
G01 F60 X48.396 Y36.853
G01 F60 X48.472 Y36.853
G01 F60 X48.472 Y36.878
G01 F60 X48.523 Y36.878
G01 F60 X48.523 Y36.904
G01 F60 X48.548 Y36.904
G01 F60 X48.548 Y36.929
G01 F60 X48.574 Y36.929
G01 F60 X48.574 Y36.954
G01 F60 X48.599 Y36.954
G01 F60 X48.599 Y37.005
G01 F60 X48.624 Y37.005
G01 F60 X48.624 Y37.081
G01 F60 X48.650 Y37.081
G01 F60 X48.650 Y37.493
G01 F60 X48.624 Y37.493
G01 F60 X48.624 Y37.544
G01 F60 X48.599 Y37.544
G01 F60 X48.599 Y37.595
G01 F60 X48.574 Y37.595
G01 F60 X48.574 Y37.620
G01 F60 X48.548 Y37.620
G01 F60 X48.548 Y37.645
G01 F60 X48.523 Y37.645
G01 F60 X48.523 Y37.671
G01 F60 X48.497 Y37.671
G01 F60 X48.497 Y37.696
G01 F60 X48.447 Y37.696
G01 F60 X48.447 Y37.722
G01 F60 X47.705 Y37.722
G00 F3000 Z3.000
G00 F3000 X66.486 Y37.272
G00 F1500 Z0
G01 F60 Z-0.200
G01 F60 X66.255 Y37.222
G01 F60 X66.038 Y37.126
G01 F60 X65.846 Y36.987
G01 F60 X65.688 Y36.811
G01 F60 X65.569 Y36.605
G01 F60 X65.496 Y36.380
G01 F60 X65.471 Y36.144
G01 F60 X65.496 Y35.909
G01 F60 X65.569 Y35.683
G01 F60 X65.688 Y35.478
G01 F60 X65.846 Y35.302
G01 F60 X66.038 Y35.162
G01 F60 X66.183 Y35.099
G01 F60 X66.183 Y19.750
G01 F60 X61.481 Y19.750
G01 F60 X61.394 Y19.731
G01 F60 X61.314 Y19.695
G01 F60 X61.242 Y19.643
G01 F60 X61.183 Y19.578
G01 F60 X61.139 Y19.501
G01 F60 X61.112 Y19.417
G01 F60 X61.103 Y19.335
G01 F60 X61.103 Y9.590
G01 F60 X57.358 Y9.590
G01 F60 X57.259 Y9.761
G01 F60 X57.119 Y9.918
G01 F60 X56.948 Y10.041
G01 F60 X56.756 Y10.127
G01 F60 X56.550 Y10.171
G01 F60 X56.340 Y10.171
G01 F60 X56.134 Y10.127
G01 F60 X55.942 Y10.041
G01 F60 X55.771 Y9.918
G01 F60 X55.631 Y9.761
G01 F60 X55.525 Y9.579
G01 F60 X55.460 Y9.379
G01 F60 X55.438 Y9.169
G01 F60 X55.460 Y8.960
G01 F60 X55.525 Y8.760
G01 F60 X55.631 Y8.578
G01 F60 X55.771 Y8.421
G01 F60 X55.942 Y8.298
G01 F60 X56.134 Y8.212
G01 F60 X56.340 Y8.168
G01 F60 X56.550 Y8.168
G01 F60 X56.756 Y8.212
G01 F60 X56.948 Y8.298
G01 F60 X57.119 Y8.421
G01 F60 X57.259 Y8.578
G01 F60 X57.358 Y8.749
G01 F60 X61.569 Y8.749
G01 F60 X61.655 Y8.768
G01 F60 X61.736 Y8.804
G01 F60 X61.808 Y8.856
G01 F60 X61.867 Y8.921
G01 F60 X61.911 Y8.998
G01 F60 X61.938 Y9.082
G01 F60 X61.947 Y9.163
G01 F60 X61.947 Y18.909
G01 F60 X66.649 Y18.909
G01 F60 X66.735 Y18.928
G01 F60 X66.816 Y18.964
G01 F60 X66.888 Y19.015
G01 F60 X66.947 Y19.081
G01 F60 X66.991 Y19.158
G01 F60 X67.018 Y19.242
G01 F60 X67.027 Y19.323
G01 F60 X67.036 Y35.102
G01 F60 X67.172 Y35.162
G01 F60 X67.364 Y35.302
G01 F60 X67.522 Y35.478
G01 F60 X67.641 Y35.683
G01 F60 X67.714 Y35.909
G01 F60 X67.739 Y36.144
G01 F60 X67.714 Y36.380
G01 F60 X67.641 Y36.605
G01 F60 X67.522 Y36.811
G01 F60 X67.364 Y36.987
G01 F60 X67.172 Y37.126
G01 F60 X66.955 Y37.222
G01 F60 X66.723 Y37.272
G01 F60 X66.486 Y37.272
G00 F3000 Z3.000
G00 F3000 X28.393 Y35.634
G00 F1500 Z0
G01 F60 Z-0.200
G01 F60 X28.174 Y35.587
G01 F60 X27.970 Y35.496
G01 F60 X27.789 Y35.365
G01 F60 X27.639 Y35.198
G01 F60 X27.527 Y35.005
G01 F60 X27.522 Y34.989
G01 F60 X24.265 Y34.989
G01 F60 X24.188 Y35.124
G01 F60 X24.056 Y35.270
G01 F60 X23.896 Y35.386
G01 F60 X23.716 Y35.466
G01 F60 X23.524 Y35.507
G01 F60 X23.326 Y35.507
G01 F60 X23.134 Y35.466
G01 F60 X22.953 Y35.386
G01 F60 X22.794 Y35.270
G01 F60 X22.662 Y35.124
G01 F60 X22.563 Y34.953
G01 F60 X22.502 Y34.766
G01 F60 X22.482 Y34.569
G01 F60 X22.502 Y34.373
G01 F60 X22.563 Y34.186
G01 F60 X22.662 Y34.015
G01 F60 X22.794 Y33.869
G01 F60 X22.953 Y33.753
G01 F60 X23.134 Y33.672
G01 F60 X23.326 Y33.631
G01 F60 X23.524 Y33.631
G01 F60 X23.716 Y33.672
G01 F60 X23.896 Y33.753
G01 F60 X24.056 Y33.869
G01 F60 X24.188 Y34.015
G01 F60 X24.265 Y34.149
G01 F60 X27.522 Y34.149
G01 F60 X27.527 Y34.134
G01 F60 X27.639 Y33.940
G01 F60 X27.789 Y33.774
G01 F60 X27.970 Y33.643
G01 F60 X28.174 Y33.552
G01 F60 X28.393 Y33.505
G01 F60 X28.617 Y33.505
G01 F60 X28.836 Y33.552
G01 F60 X29.040 Y33.643
G01 F60 X29.221 Y33.774
G01 F60 X29.371 Y33.940
G01 F60 X29.483 Y34.134
G01 F60 X29.552 Y34.347
G01 F60 X29.575 Y34.569
G01 F60 X29.552 Y34.792
G01 F60 X29.483 Y35.005
G01 F60 X29.371 Y35.198
G01 F60 X29.221 Y35.365
G01 F60 X29.040 Y35.496
G01 F60 X28.836 Y35.587
G01 F60 X28.617 Y35.634
G01 F60 X28.393 Y35.634
G00 F3000 Z3.000
G00 F3000 X38.553 Y35.634
G00 F1500 Z0
G01 F60 Z-0.200
G01 F60 X38.334 Y35.587
G01 F60 X38.130 Y35.496
G01 F60 X37.949 Y35.365
G01 F60 X37.799 Y35.198
G01 F60 X37.687 Y35.005
G01 F60 X37.618 Y34.792
G01 F60 X37.595 Y34.569
G01 F60 X37.618 Y34.347
G01 F60 X37.687 Y34.134
G01 F60 X37.799 Y33.940
G01 F60 X37.949 Y33.774
G01 F60 X38.130 Y33.643
G01 F60 X38.334 Y33.552
G01 F60 X38.553 Y33.505
G01 F60 X38.777 Y33.505
G01 F60 X38.996 Y33.552
G01 F60 X39.200 Y33.643
G01 F60 X39.381 Y33.774
G01 F60 X39.531 Y33.940
G01 F60 X39.643 Y34.134
G01 F60 X39.647 Y34.149
G01 F60 X40.291 Y34.149
G01 F60 X40.391 Y33.978
G01 F60 X40.531 Y33.821
G01 F60 X40.702 Y33.698
G01 F60 X40.894 Y33.612
G01 F60 X41.100 Y33.568
G01 F60 X41.310 Y33.568
G01 F60 X41.516 Y33.612
G01 F60 X41.708 Y33.698
G01 F60 X41.879 Y33.821
G01 F60 X42.019 Y33.978
G01 F60 X42.125 Y34.160
G01 F60 X42.190 Y34.360
G01 F60 X42.212 Y34.569
G01 F60 X42.190 Y34.779
G01 F60 X42.125 Y34.979
G01 F60 X42.019 Y35.161
G01 F60 X41.879 Y35.318
G01 F60 X41.708 Y35.441
G01 F60 X41.516 Y35.527
G01 F60 X41.310 Y35.571
G01 F60 X41.100 Y35.571
G01 F60 X40.894 Y35.527
G01 F60 X40.702 Y35.441
G01 F60 X40.531 Y35.318
G01 F60 X40.391 Y35.161
G01 F60 X40.291 Y34.989
G01 F60 X39.647 Y34.989
G01 F60 X39.643 Y35.005
G01 F60 X39.531 Y35.198
G01 F60 X39.381 Y35.365
G01 F60 X39.200 Y35.496
G01 F60 X38.996 Y35.587
G01 F60 X38.777 Y35.634
G01 F60 X38.553 Y35.634
G00 F3000 Z3.000
G00 F3000 X56.340 Y35.571
G00 F1500 Z0
G01 F60 Z-0.200
G01 F60 X56.134 Y35.527
G01 F60 X55.942 Y35.441
G01 F60 X55.771 Y35.318
G01 F60 X55.631 Y35.161
G01 F60 X55.525 Y34.979
G01 F60 X55.460 Y34.779
G01 F60 X55.438 Y34.569
G01 F60 X55.460 Y34.360
G01 F60 X55.525 Y34.160
G01 F60 X55.631 Y33.978
G01 F60 X55.771 Y33.821
G01 F60 X55.942 Y33.698
G01 F60 X56.134 Y33.612
G01 F60 X56.340 Y33.568
G01 F60 X56.550 Y33.568
G01 F60 X56.756 Y33.612
G01 F60 X56.948 Y33.698
G01 F60 X57.119 Y33.821
G01 F60 X57.259 Y33.978
G01 F60 X57.364 Y34.160
G01 F60 X57.430 Y34.360
G01 F60 X57.452 Y34.569
G01 F60 X57.430 Y34.779
G01 F60 X57.364 Y34.979
G01 F60 X57.259 Y35.161
G01 F60 X57.119 Y35.318
G01 F60 X56.948 Y35.441
G01 F60 X56.756 Y35.527
G01 F60 X56.550 Y35.571
G01 F60 X56.340 Y35.571
G00 F3000 Z3.000
G00 F3000 X67.898 Y33.353
G00 F1500 Z0
G01 F60 Z-0.200
G01 F60 X67.898 Y33.328
G01 F60 X67.847 Y33.328
G01 F60 X67.847 Y33.302
G01 F60 X67.821 Y33.302
G01 F60 X67.821 Y33.226
G01 F60 X67.796 Y33.226
G01 F60 X67.796 Y32.845
G01 F60 X67.390 Y32.845
G01 F60 X67.390 Y32.820
G01 F60 X67.339 Y32.820
G01 F60 X67.339 Y32.769
G01 F60 X67.313 Y32.769
G01 F60 X67.313 Y32.408
G01 F60 X67.339 Y32.408
G01 F60 X67.339 Y32.382
G01 F60 X67.364 Y32.382
G01 F60 X67.364 Y32.357
G01 F60 X67.796 Y32.357
G01 F60 X67.796 Y31.976
G01 F60 X67.821 Y31.976
G01 F60 X67.821 Y31.900
G01 F60 X67.847 Y31.900
G01 F60 X67.847 Y31.874
G01 F60 X67.872 Y31.874
G01 F60 X67.872 Y31.849
G01 F60 X68.233 Y31.849
G01 F60 X68.233 Y31.874
G01 F60 X68.259 Y31.874
G01 F60 X68.259 Y31.900
G01 F60 X68.284 Y31.900
G01 F60 X68.284 Y31.976
G01 F60 X68.309 Y31.976
G01 F60 X68.309 Y32.357
G01 F60 X68.741 Y32.357
G01 F60 X68.741 Y32.382
G01 F60 X68.767 Y32.382
G01 F60 X68.767 Y32.408
G01 F60 X68.792 Y32.408
G01 F60 X68.792 Y32.794
G01 F60 X68.767 Y32.794
G01 F60 X68.767 Y32.820
G01 F60 X68.716 Y32.820
G01 F60 X68.716 Y32.845
G01 F60 X68.309 Y32.845
G01 F60 X68.309 Y33.226
G01 F60 X68.284 Y33.226
G01 F60 X68.284 Y33.302
G01 F60 X68.259 Y33.302
G01 F60 X68.259 Y33.328
G01 F60 X68.208 Y33.328
G01 F60 X68.208 Y33.353
G01 F60 X67.898 Y33.353
G00 F3000 Z3.000
G00 F3000 X28.393 Y33.094
G00 F1500 Z0
G01 F60 Z-0.200
G01 F60 X28.174 Y33.047
G01 F60 X27.970 Y32.956
G01 F60 X27.789 Y32.825
G01 F60 X27.639 Y32.658
G01 F60 X27.527 Y32.465
G01 F60 X27.458 Y32.252
G01 F60 X27.447 Y32.143
G01 F60 X24.126 Y31.205
G01 F60 X24.056 Y31.283
G01 F60 X23.896 Y31.398
G01 F60 X23.716 Y31.479
G01 F60 X23.524 Y31.520
G01 F60 X23.326 Y31.520
G01 F60 X23.134 Y31.479
G01 F60 X22.953 Y31.398
G01 F60 X22.794 Y31.283
G01 F60 X22.662 Y31.136
G01 F60 X22.563 Y30.965
G01 F60 X22.502 Y30.778
G01 F60 X22.482 Y30.582
G01 F60 X22.502 Y30.386
G01 F60 X22.563 Y30.198
G01 F60 X22.662 Y30.027
G01 F60 X22.794 Y29.881
G01 F60 X22.953 Y29.765
G01 F60 X23.134 Y29.685
G01 F60 X23.326 Y29.644
G01 F60 X23.524 Y29.644
G01 F60 X23.716 Y29.685
G01 F60 X23.896 Y29.765
G01 F60 X24.056 Y29.881
G01 F60 X24.188 Y30.027
G01 F60 X24.287 Y30.198
G01 F60 X24.347 Y30.386
G01 F60 X24.348 Y30.392
G01 F60 X27.696 Y31.337
G01 F60 X27.789 Y31.234
G01 F60 X27.970 Y31.103
G01 F60 X27.999 Y31.090
G01 F60 X28.011 Y31.070
G01 F60 X28.070 Y31.004
G01 F60 X28.141 Y30.952
G01 F60 X28.222 Y30.916
G01 F60 X28.308 Y30.898
G01 F60 X28.397 Y30.898
G01 F60 X28.483 Y30.916
G01 F60 X28.564 Y30.952
G01 F60 X28.581 Y30.965
G01 F60 X28.617 Y30.965
G01 F60 X28.836 Y31.012
G01 F60 X29.040 Y31.103
G01 F60 X29.221 Y31.234
G01 F60 X29.371 Y31.400
G01 F60 X29.483 Y31.594
G01 F60 X29.552 Y31.807
G01 F60 X29.575 Y32.029
G01 F60 X29.552 Y32.252
G01 F60 X29.483 Y32.465
G01 F60 X29.371 Y32.658
G01 F60 X29.221 Y32.825
G01 F60 X29.040 Y32.956
G01 F60 X28.836 Y33.047
G01 F60 X28.617 Y33.094
G01 F60 X28.393 Y33.094
G00 F3000 Z3.000
G00 F3000 X38.553 Y33.094
G00 F1500 Z0
G01 F60 Z-0.200
G01 F60 X38.334 Y33.047
G01 F60 X38.130 Y32.956
G01 F60 X37.949 Y32.825
G01 F60 X37.799 Y32.658
G01 F60 X37.687 Y32.465
G01 F60 X37.618 Y32.252
G01 F60 X37.595 Y32.029
G01 F60 X37.618 Y31.807
G01 F60 X37.687 Y31.594
G01 F60 X37.799 Y31.400
G01 F60 X37.949 Y31.234
G01 F60 X38.130 Y31.103
G01 F60 X38.334 Y31.012
G01 F60 X38.553 Y30.965
G01 F60 X38.777 Y30.965
G01 F60 X38.996 Y31.012
G01 F60 X39.200 Y31.103
G01 F60 X39.381 Y31.234
G01 F60 X39.531 Y31.400
G01 F60 X39.643 Y31.594
G01 F60 X39.647 Y31.609
G01 F60 X40.291 Y31.609
G01 F60 X40.391 Y31.438
G01 F60 X40.531 Y31.281
G01 F60 X40.702 Y31.158
G01 F60 X40.894 Y31.072
G01 F60 X41.100 Y31.028
G01 F60 X41.310 Y31.028
G01 F60 X41.516 Y31.072
G01 F60 X41.708 Y31.158
G01 F60 X41.879 Y31.281
G01 F60 X42.019 Y31.438
G01 F60 X42.125 Y31.620
G01 F60 X42.190 Y31.820
G01 F60 X42.212 Y32.029
G01 F60 X42.190 Y32.239
G01 F60 X42.125 Y32.439
G01 F60 X42.019 Y32.621
G01 F60 X41.879 Y32.778
G01 F60 X41.708 Y32.901
G01 F60 X41.516 Y32.987
G01 F60 X41.310 Y33.031
G01 F60 X41.100 Y33.031
G01 F60 X40.894 Y32.987
G01 F60 X40.702 Y32.901
G01 F60 X40.531 Y32.778
G01 F60 X40.391 Y32.621
G01 F60 X40.291 Y32.450
G01 F60 X39.647 Y32.450
G01 F60 X39.643 Y32.465
G01 F60 X39.531 Y32.658
G01 F60 X39.381 Y32.825
G01 F60 X39.200 Y32.956
G01 F60 X38.996 Y33.047
G01 F60 X38.777 Y33.094
G01 F60 X38.553 Y33.094
G00 F3000 Z3.000
G00 F3000 X56.340 Y33.031
G00 F1500 Z0
G01 F60 Z-0.200
G01 F60 X56.134 Y32.987
G01 F60 X55.942 Y32.901
G01 F60 X55.771 Y32.778
G01 F60 X55.631 Y32.621
G01 F60 X55.525 Y32.439
G01 F60 X55.460 Y32.239
G01 F60 X55.438 Y32.029
G01 F60 X55.460 Y31.820
G01 F60 X55.525 Y31.620
G01 F60 X55.631 Y31.438
G01 F60 X55.771 Y31.281
G01 F60 X55.942 Y31.158
G01 F60 X56.134 Y31.072
G01 F60 X56.340 Y31.028
G01 F60 X56.550 Y31.028
G01 F60 X56.756 Y31.072
G01 F60 X56.948 Y31.158
G01 F60 X57.119 Y31.281
G01 F60 X57.259 Y31.438
G01 F60 X57.364 Y31.620
G01 F60 X57.430 Y31.820
G01 F60 X57.452 Y32.029
G01 F60 X57.430 Y32.239
G01 F60 X57.364 Y32.439
G01 F60 X57.259 Y32.621
G01 F60 X57.119 Y32.778
G01 F60 X56.948 Y32.901
G01 F60 X56.756 Y32.987
G01 F60 X56.550 Y33.031
G01 F60 X56.340 Y33.031
G00 F3000 Z3.000
G00 F3000 X48.009 Y32.972
G00 F1500 Z0
G01 F60 Z-0.200
G01 F60 X48.009 Y32.947
G01 F60 X47.857 Y32.947
G01 F60 X47.857 Y32.921
G01 F60 X47.781 Y32.921
G01 F60 X47.781 Y32.896
G01 F60 X47.705 Y32.896
G01 F60 X47.705 Y32.870
G01 F60 X47.654 Y32.870
G01 F60 X47.654 Y32.845
G01 F60 X47.603 Y32.845
G01 F60 X47.603 Y32.820
G01 F60 X47.578 Y32.820
G01 F60 X47.578 Y32.794
G01 F60 X47.527 Y32.794
G01 F60 X47.527 Y32.769
G01 F60 X47.501 Y32.769
G01 F60 X47.501 Y32.743
G01 F60 X47.476 Y32.743
G01 F60 X47.476 Y32.718
G01 F60 X47.451 Y32.718
G01 F60 X47.451 Y32.693
G01 F60 X47.425 Y32.693
G01 F60 X47.425 Y32.667
G01 F60 X47.400 Y32.667
G01 F60 X47.400 Y32.642
G01 F60 X47.374 Y32.642
G01 F60 X47.374 Y32.616
G01 F60 X47.349 Y32.616
G01 F60 X47.349 Y32.591
G01 F60 X47.324 Y32.591
G01 F60 X47.324 Y32.566
G01 F60 X47.298 Y32.566
G01 F60 X47.298 Y32.540
G01 F60 X47.273 Y32.540
G01 F60 X47.273 Y32.515
G01 F60 X47.247 Y32.515
G01 F60 X47.247 Y32.489
G01 F60 X47.222 Y32.489
G01 F60 X47.222 Y32.439
G01 F60 X47.197 Y32.439
G01 F60 X47.197 Y32.413
G01 F60 X47.171 Y32.413
G01 F60 X47.171 Y32.388
G01 F60 X47.146 Y32.388
G01 F60 X47.146 Y32.362
G01 F60 X47.120 Y32.362
G01 F60 X47.120 Y32.312
G01 F60 X47.095 Y32.312
G01 F60 X47.095 Y32.286
G01 F60 X47.070 Y32.286
G01 F60 X47.070 Y32.235
G01 F60 X47.044 Y32.235
G01 F60 X47.044 Y32.210
G01 F60 X47.019 Y32.210
G01 F60 X47.019 Y32.159
G01 F60 X46.993 Y32.159
G01 F60 X46.993 Y32.108
G01 F60 X46.968 Y32.108
G01 F60 X46.968 Y32.007
G01 F60 X46.943 Y32.007
G01 F60 X46.943 Y31.931
G01 F60 X46.917 Y31.931
G01 F60 X46.917 Y30.477
G01 F60 X46.943 Y30.477
G01 F60 X46.943 Y30.376
G01 F60 X46.968 Y30.376
G01 F60 X46.968 Y30.300
G01 F60 X46.993 Y30.300
G01 F60 X46.993 Y30.249
G01 F60 X47.019 Y30.249
G01 F60 X47.019 Y30.198
G01 F60 X47.044 Y30.198
G01 F60 X47.044 Y30.173
G01 F60 X47.070 Y30.173
G01 F60 X47.070 Y30.122
G01 F60 X47.095 Y30.122
G01 F60 X47.095 Y30.096
G01 F60 X47.120 Y30.096
G01 F60 X47.120 Y30.046
G01 F60 X47.146 Y30.046
G01 F60 X47.146 Y30.020
G01 F60 X47.171 Y30.020
G01 F60 X47.171 Y29.995
G01 F60 X47.197 Y29.995
G01 F60 X47.197 Y29.969
G01 F60 X47.222 Y29.969
G01 F60 X47.222 Y29.944
G01 F60 X47.247 Y29.944
G01 F60 X47.247 Y29.919
G01 F60 X47.273 Y29.919
G01 F60 X47.273 Y29.868
G01 F60 X47.298 Y29.868
G01 F60 X47.298 Y29.842
G01 F60 X47.324 Y29.842
G01 F60 X47.324 Y29.817
G01 F60 X47.349 Y29.817
G01 F60 X47.349 Y29.792
G01 F60 X47.374 Y29.792
G01 F60 X47.374 Y29.766
G01 F60 X47.400 Y29.766
G01 F60 X47.400 Y29.741
G01 F60 X47.425 Y29.741
G01 F60 X47.425 Y29.715
G01 F60 X47.451 Y29.715
G01 F60 X47.451 Y29.690
G01 F60 X47.476 Y29.690
G01 F60 X47.476 Y29.665
G01 F60 X47.501 Y29.665
G01 F60 X47.501 Y29.639
G01 F60 X47.552 Y29.639
G01 F60 X47.552 Y29.614
G01 F60 X47.603 Y29.614
G01 F60 X47.603 Y29.588
G01 F60 X47.628 Y29.588
G01 F60 X47.628 Y29.563
G01 F60 X47.679 Y29.563
G01 F60 X47.679 Y29.538
G01 F60 X47.730 Y29.538
G01 F60 X47.730 Y29.512
G01 F60 X47.806 Y29.512
G01 F60 X47.806 Y29.487
G01 F60 X47.882 Y29.487
G01 F60 X47.882 Y29.461
G01 F60 X48.086 Y29.461
G01 F60 X48.086 Y29.436
G01 F60 X49.717 Y29.436
G01 F60 X49.717 Y29.461
G01 F60 X49.945 Y29.461
G01 F60 X49.945 Y29.487
G01 F60 X50.021 Y29.487
G01 F60 X50.021 Y29.512
G01 F60 X50.098 Y29.512
G01 F60 X50.098 Y29.538
G01 F60 X50.148 Y29.538
G01 F60 X50.148 Y29.563
G01 F60 X50.199 Y29.563
G01 F60 X50.199 Y29.588
G01 F60 X50.250 Y29.588
G01 F60 X50.250 Y29.614
G01 F60 X50.275 Y29.614
G01 F60 X50.275 Y29.639
G01 F60 X50.301 Y29.639
G01 F60 X50.301 Y29.665
G01 F60 X50.326 Y29.665
G01 F60 X50.326 Y29.690
G01 F60 X50.377 Y29.690
G01 F60 X50.377 Y29.715
G01 F60 X50.402 Y29.715
G01 F60 X50.402 Y29.741
G01 F60 X50.428 Y29.741
G01 F60 X50.428 Y29.792
G01 F60 X50.453 Y29.792
G01 F60 X50.453 Y29.817
G01 F60 X50.479 Y29.817
G01 F60 X50.479 Y29.842
G01 F60 X50.504 Y29.842
G01 F60 X50.504 Y29.868
G01 F60 X50.529 Y29.868
G01 F60 X50.529 Y29.893
G01 F60 X50.555 Y29.893
G01 F60 X50.555 Y29.919
G01 F60 X50.580 Y29.919
G01 F60 X50.580 Y29.944
G01 F60 X50.606 Y29.944
G01 F60 X50.606 Y29.969
G01 F60 X50.631 Y29.969
G01 F60 X50.631 Y30.020
G01 F60 X50.656 Y30.020
G01 F60 X50.656 Y30.046
G01 F60 X50.682 Y30.046
G01 F60 X50.682 Y30.071
G01 F60 X50.707 Y30.071
G01 F60 X50.707 Y30.122
G01 F60 X50.733 Y30.122
G01 F60 X50.733 Y30.147
G01 F60 X50.758 Y30.147
G01 F60 X50.758 Y30.198
G01 F60 X50.783 Y30.198
G01 F60 X50.783 Y30.249
G01 F60 X50.809 Y30.249
G01 F60 X50.809 Y30.300
G01 F60 X50.834 Y30.300
G01 F60 X50.834 Y30.376
G01 F60 X50.860 Y30.376
G01 F60 X50.860 Y30.477
G01 F60 X50.885 Y30.477
G01 F60 X50.885 Y32.743
G01 F60 X50.860 Y32.743
G01 F60 X50.860 Y32.794
G01 F60 X50.834 Y32.794
G01 F60 X50.834 Y32.820
G01 F60 X50.809 Y32.820
G01 F60 X50.809 Y32.870
G01 F60 X50.783 Y32.870
G01 F60 X50.783 Y32.896
G01 F60 X50.733 Y32.896
G01 F60 X50.733 Y32.921
G01 F60 X50.682 Y32.921
G01 F60 X50.682 Y32.947
G01 F60 X50.606 Y32.947
G01 F60 X50.606 Y32.972
G01 F60 X50.270 Y32.972
G01 F60 X50.270 Y32.947
G01 F60 X50.194 Y32.947
G01 F60 X50.194 Y32.921
G01 F60 X50.143 Y32.921
G01 F60 X50.143 Y32.896
G01 F60 X50.118 Y32.896
G01 F60 X50.118 Y32.870
G01 F60 X50.092 Y32.870
G01 F60 X50.092 Y32.845
G01 F60 X50.067 Y32.845
G01 F60 X50.067 Y32.820
G01 F60 X50.041 Y32.820
G01 F60 X50.041 Y32.769
G01 F60 X50.016 Y32.769
G01 F60 X50.016 Y32.718
G01 F60 X49.991 Y32.718
G01 F60 X49.991 Y30.813
G01 F60 X49.965 Y30.813
G01 F60 X49.965 Y30.762
G01 F60 X49.940 Y30.762
G01 F60 X49.940 Y30.711
G01 F60 X49.914 Y30.711
G01 F60 X49.914 Y30.686
G01 F60 X49.889 Y30.686
G01 F60 X49.889 Y30.661
G01 F60 X49.864 Y30.661
G01 F60 X49.864 Y30.610
G01 F60 X49.838 Y30.610
G01 F60 X49.838 Y30.584
G01 F60 X49.813 Y30.584
G01 F60 X49.813 Y30.559
G01 F60 X49.787 Y30.559
G01 F60 X49.787 Y30.534
G01 F60 X49.762 Y30.534
G01 F60 X49.762 Y30.508
G01 F60 X49.737 Y30.508
G01 F60 X49.737 Y30.457
G01 F60 X49.711 Y30.457
G01 F60 X49.711 Y30.432
G01 F60 X49.660 Y30.432
G01 F60 X49.660 Y30.407
G01 F60 X49.635 Y30.407
G01 F60 X49.635 Y30.381
G01 F60 X49.559 Y30.381
G01 F60 X49.559 Y30.356
G01 F60 X49.488 Y30.356
G01 F60 X49.488 Y32.743
G01 F60 X49.463 Y32.743
G01 F60 X49.463 Y32.794
G01 F60 X49.437 Y32.794
G01 F60 X49.437 Y32.820
G01 F60 X49.412 Y32.820
G01 F60 X49.412 Y32.870
G01 F60 X49.386 Y32.870
G01 F60 X49.386 Y32.896
G01 F60 X49.336 Y32.896
G01 F60 X49.336 Y32.921
G01 F60 X49.285 Y32.921
G01 F60 X49.285 Y32.947
G01 F60 X49.209 Y32.947
G01 F60 X49.209 Y32.972
G01 F60 X48.009 Y32.972
G00 F3000 Z3.000
G00 F3000 X48.218 Y32.052
G00 F1500 Z0
G01 F60 Z-0.200
G01 F60 X48.594 Y32.052
G01 F60 X48.594 Y30.356
G01 F60 X48.218 Y30.356
G01 F60 X48.218 Y30.381
G01 F60 X48.167 Y30.381
G01 F60 X48.167 Y30.407
G01 F60 X48.142 Y30.407
G01 F60 X48.142 Y30.432
G01 F60 X48.116 Y30.432
G01 F60 X48.116 Y30.457
G01 F60 X48.091 Y30.457
G01 F60 X48.091 Y30.483
G01 F60 X48.066 Y30.483
G01 F60 X48.066 Y30.508
G01 F60 X48.040 Y30.508
G01 F60 X48.040 Y30.534
G01 F60 X48.015 Y30.534
G01 F60 X48.015 Y30.559
G01 F60 X47.989 Y30.559
G01 F60 X47.989 Y30.584
G01 F60 X47.964 Y30.584
G01 F60 X47.964 Y30.610
G01 F60 X47.939 Y30.610
G01 F60 X47.939 Y30.635
G01 F60 X47.913 Y30.635
G01 F60 X47.913 Y30.686
G01 F60 X47.888 Y30.686
G01 F60 X47.888 Y30.711
G01 F60 X47.862 Y30.711
G01 F60 X47.862 Y30.762
G01 F60 X47.837 Y30.762
G01 F60 X47.837 Y30.813
G01 F60 X47.812 Y30.813
G01 F60 X47.812 Y31.595
G01 F60 X47.837 Y31.595
G01 F60 X47.837 Y31.646
G01 F60 X47.862 Y31.646
G01 F60 X47.862 Y31.697
G01 F60 X47.888 Y31.697
G01 F60 X47.888 Y31.747
G01 F60 X47.913 Y31.747
G01 F60 X47.913 Y31.798
G01 F60 X47.939 Y31.798
G01 F60 X47.939 Y31.824
G01 F60 X47.964 Y31.824
G01 F60 X47.964 Y31.849
G01 F60 X47.989 Y31.849
G01 F60 X47.989 Y31.874
G01 F60 X48.015 Y31.874
G01 F60 X48.015 Y31.900
G01 F60 X48.040 Y31.900
G01 F60 X48.040 Y31.925
G01 F60 X48.066 Y31.925
G01 F60 X48.066 Y31.951
G01 F60 X48.091 Y31.951
G01 F60 X48.091 Y31.976
G01 F60 X48.142 Y31.976
G01 F60 X48.142 Y32.001
G01 F60 X48.167 Y32.001
G01 F60 X48.167 Y32.027
G01 F60 X48.218 Y32.027
G01 F60 X48.218 Y32.052
G00 F3000 Z3.000
G00 F3000 X28.393 Y30.554
G00 F1500 Z0
G01 F60 Z-0.200
G01 F60 X28.174 Y30.507
G01 F60 X27.970 Y30.416
G01 F60 X27.789 Y30.285
G01 F60 X27.639 Y30.118
G01 F60 X27.527 Y29.925
G01 F60 X27.464 Y29.730
G01 F60 X24.186 Y29.132
G01 F60 X24.056 Y29.276
G01 F60 X23.896 Y29.392
G01 F60 X23.716 Y29.472
G01 F60 X23.524 Y29.513
G01 F60 X23.326 Y29.513
G01 F60 X23.134 Y29.472
G01 F60 X22.953 Y29.392
G01 F60 X22.794 Y29.276
G01 F60 X22.662 Y29.129
G01 F60 X22.563 Y28.959
G01 F60 X22.502 Y28.771
G01 F60 X22.482 Y28.575
G01 F60 X22.502 Y28.379
G01 F60 X22.563 Y28.191
G01 F60 X22.662 Y28.021
G01 F60 X22.794 Y27.874
G01 F60 X22.953 Y27.758
G01 F60 X23.134 Y27.678
G01 F60 X23.326 Y27.637
G01 F60 X23.524 Y27.637
G01 F60 X23.716 Y27.678
G01 F60 X23.896 Y27.758
G01 F60 X24.056 Y27.874
G01 F60 X24.188 Y28.021
G01 F60 X24.287 Y28.191
G01 F60 X24.322 Y28.301
G01 F60 X27.615 Y28.902
G01 F60 X27.639 Y28.860
G01 F60 X27.789 Y28.694
G01 F60 X27.970 Y28.563
G01 F60 X28.174 Y28.472
G01 F60 X28.393 Y28.425
G01 F60 X28.617 Y28.425
G01 F60 X28.836 Y28.472
G01 F60 X29.040 Y28.563
G01 F60 X29.221 Y28.694
G01 F60 X29.371 Y28.860
G01 F60 X29.483 Y29.054
G01 F60 X29.552 Y29.267
G01 F60 X29.575 Y29.489
G01 F60 X29.552 Y29.712
G01 F60 X29.483 Y29.925
G01 F60 X29.371 Y30.118
G01 F60 X29.221 Y30.285
G01 F60 X29.040 Y30.416
G01 F60 X28.836 Y30.507
G01 F60 X28.617 Y30.554
G01 F60 X28.393 Y30.554
G00 F3000 Z3.000
G00 F3000 X38.553 Y30.554
G00 F1500 Z0
G01 F60 Z-0.200
G01 F60 X38.334 Y30.507
G01 F60 X38.130 Y30.416
G01 F60 X37.949 Y30.285
G01 F60 X37.799 Y30.118
G01 F60 X37.687 Y29.925
G01 F60 X37.618 Y29.712
G01 F60 X37.595 Y29.489
G01 F60 X37.618 Y29.267
G01 F60 X37.687 Y29.054
G01 F60 X37.799 Y28.860
G01 F60 X37.949 Y28.694
G01 F60 X38.130 Y28.563
G01 F60 X38.334 Y28.472
G01 F60 X38.553 Y28.425
G01 F60 X38.777 Y28.425
G01 F60 X38.996 Y28.472
G01 F60 X39.200 Y28.563
G01 F60 X39.381 Y28.694
G01 F60 X39.531 Y28.860
G01 F60 X39.643 Y29.054
G01 F60 X39.647 Y29.069
G01 F60 X40.291 Y29.069
G01 F60 X40.391 Y28.898
G01 F60 X40.531 Y28.741
G01 F60 X40.702 Y28.618
G01 F60 X40.894 Y28.532
G01 F60 X41.100 Y28.488
G01 F60 X41.310 Y28.488
G01 F60 X41.516 Y28.532
G01 F60 X41.708 Y28.618
G01 F60 X41.879 Y28.741
G01 F60 X42.019 Y28.898
G01 F60 X42.125 Y29.080
G01 F60 X42.190 Y29.280
G01 F60 X42.212 Y29.489
G01 F60 X42.190 Y29.699
G01 F60 X42.125 Y29.899
G01 F60 X42.019 Y30.081
G01 F60 X41.879 Y30.238
G01 F60 X41.708 Y30.361
G01 F60 X41.516 Y30.447
G01 F60 X41.310 Y30.491
G01 F60 X41.100 Y30.491
G01 F60 X40.894 Y30.447
G01 F60 X40.702 Y30.361
G01 F60 X40.531 Y30.238
G01 F60 X40.391 Y30.081
G01 F60 X40.291 Y29.910
G01 F60 X39.647 Y29.910
G01 F60 X39.643 Y29.925
G01 F60 X39.531 Y30.118
G01 F60 X39.381 Y30.285
G01 F60 X39.200 Y30.416
G01 F60 X38.996 Y30.507
G01 F60 X38.777 Y30.554
G01 F60 X38.553 Y30.554
G00 F3000 Z3.000
G00 F3000 X56.340 Y30.491
G00 F1500 Z0
G01 F60 Z-0.200
G01 F60 X56.134 Y30.447
G01 F60 X55.942 Y30.361
G01 F60 X55.771 Y30.238
G01 F60 X55.631 Y30.081
G01 F60 X55.525 Y29.899
G01 F60 X55.460 Y29.699
G01 F60 X55.438 Y29.489
G01 F60 X55.460 Y29.280
G01 F60 X55.525 Y29.080
G01 F60 X55.631 Y28.898
G01 F60 X55.771 Y28.741
G01 F60 X55.942 Y28.618
G01 F60 X56.134 Y28.532
G01 F60 X56.340 Y28.488
G01 F60 X56.550 Y28.488
G01 F60 X56.756 Y28.532
G01 F60 X56.948 Y28.618
G01 F60 X57.119 Y28.741
G01 F60 X57.259 Y28.898
G01 F60 X57.364 Y29.080
G01 F60 X57.430 Y29.280
G01 F60 X57.452 Y29.489
G01 F60 X57.430 Y29.699
G01 F60 X57.364 Y29.899
G01 F60 X57.259 Y30.081
G01 F60 X57.119 Y30.238
G01 F60 X56.948 Y30.361
G01 F60 X56.756 Y30.447
G01 F60 X56.550 Y30.491
G01 F60 X56.340 Y30.491
G00 F3000 Z3.000
G00 F3000 X14.863 Y30.406
G00 F1500 Z0
G01 F60 Z-0.200
G01 F60 X14.863 Y28.572
G01 F60 X16.697 Y28.572
G01 F60 X16.697 Y29.069
G01 F60 X18.194 Y29.069
G01 F60 X23.145 Y24.119
G01 F60 X23.214 Y24.069
G01 F60 X23.294 Y24.033
G01 F60 X23.380 Y24.015
G01 F60 X27.522 Y23.991
G01 F60 X27.527 Y23.974
G01 F60 X27.639 Y23.780
G01 F60 X27.789 Y23.614
G01 F60 X27.970 Y23.483
G01 F60 X28.174 Y23.392
G01 F60 X28.393 Y23.345
G01 F60 X28.617 Y23.345
G01 F60 X28.836 Y23.392
G01 F60 X29.040 Y23.483
G01 F60 X29.221 Y23.614
G01 F60 X29.371 Y23.780
G01 F60 X29.483 Y23.974
G01 F60 X29.552 Y24.187
G01 F60 X29.575 Y24.409
G01 F60 X29.552 Y24.632
G01 F60 X29.483 Y24.845
G01 F60 X29.371 Y25.038
G01 F60 X29.221 Y25.205
G01 F60 X29.040 Y25.336
G01 F60 X28.836 Y25.427
G01 F60 X28.617 Y25.474
G01 F60 X28.393 Y25.474
G01 F60 X28.174 Y25.427
G01 F60 X27.970 Y25.336
G01 F60 X27.789 Y25.205
G01 F60 X27.639 Y25.038
G01 F60 X27.527 Y24.845
G01 F60 X27.523 Y24.831
G01 F60 X23.602 Y24.854
G01 F60 X18.651 Y29.805
G01 F60 X18.582 Y29.855
G01 F60 X18.501 Y29.891
G01 F60 X18.415 Y29.910
G01 F60 X16.697 Y29.910
G01 F60 X16.697 Y30.406
G01 F60 X14.863 Y30.406
G00 F3000 Z3.000
G00 F3000 X47.146 Y28.197
G00 F1500 Z0
G01 F60 Z-0.200
G01 F60 X47.146 Y28.171
G01 F60 X47.095 Y28.171
G01 F60 X47.095 Y28.146
G01 F60 X47.044 Y28.146
G01 F60 X47.044 Y28.120
G01 F60 X47.019 Y28.120
G01 F60 X47.019 Y28.095
G01 F60 X46.993 Y28.095
G01 F60 X46.993 Y28.070
G01 F60 X46.968 Y28.070
G01 F60 X46.968 Y28.019
G01 F60 X46.943 Y28.019
G01 F60 X46.943 Y27.968
G01 F60 X46.917 Y27.968
G01 F60 X46.917 Y27.531
G01 F60 X46.943 Y27.531
G01 F60 X46.943 Y27.480
G01 F60 X46.968 Y27.480
G01 F60 X46.968 Y27.429
G01 F60 X46.993 Y27.429
G01 F60 X46.993 Y27.404
G01 F60 X47.019 Y27.404
G01 F60 X47.019 Y27.379
G01 F60 X47.044 Y27.379
G01 F60 X47.044 Y27.353
G01 F60 X47.095 Y27.353
G01 F60 X47.095 Y27.328
G01 F60 X47.146 Y27.328
G01 F60 X47.146 Y27.302
G01 F60 X47.171 Y27.302
G01 F60 X47.171 Y27.282
G01 F60 X47.146 Y27.282
G01 F60 X47.146 Y27.257
G01 F60 X47.120 Y27.257
G01 F60 X47.120 Y27.206
G01 F60 X47.095 Y27.206
G01 F60 X47.095 Y27.181
G01 F60 X47.070 Y27.181
G01 F60 X47.070 Y27.130
G01 F60 X47.044 Y27.130
G01 F60 X47.044 Y27.105
G01 F60 X47.019 Y27.105
G01 F60 X47.019 Y27.054
G01 F60 X46.993 Y27.054
G01 F60 X46.993 Y27.003
G01 F60 X46.968 Y27.003
G01 F60 X46.968 Y26.901
G01 F60 X46.943 Y26.901
G01 F60 X46.943 Y26.800
G01 F60 X46.917 Y26.800
G01 F60 X46.917 Y25.728
G01 F60 X46.943 Y25.728
G01 F60 X46.943 Y25.626
G01 F60 X46.968 Y25.626
G01 F60 X46.968 Y25.550
G01 F60 X46.993 Y25.550
G01 F60 X46.993 Y25.474
G01 F60 X47.019 Y25.474
G01 F60 X47.019 Y25.448
G01 F60 X47.044 Y25.448
G01 F60 X47.044 Y25.397
G01 F60 X47.070 Y25.397
G01 F60 X47.070 Y25.347
G01 F60 X47.095 Y25.347
G01 F60 X47.095 Y25.321
G01 F60 X47.120 Y25.321
G01 F60 X47.120 Y25.296
G01 F60 X47.146 Y25.296
G01 F60 X47.146 Y25.270
G01 F60 X47.171 Y25.270
G01 F60 X47.171 Y25.220
G01 F60 X47.197 Y25.220
G01 F60 X47.197 Y25.194
G01 F60 X47.222 Y25.194
G01 F60 X47.222 Y25.169
G01 F60 X47.247 Y25.169
G01 F60 X47.247 Y25.143
G01 F60 X47.273 Y25.143
G01 F60 X47.273 Y25.118
G01 F60 X47.298 Y25.118
G01 F60 X47.298 Y25.093
G01 F60 X47.324 Y25.093
G01 F60 X47.324 Y25.042
G01 F60 X47.349 Y25.042
G01 F60 X47.349 Y25.016
G01 F60 X47.374 Y25.016
G01 F60 X47.374 Y24.991
G01 F60 X47.400 Y24.991
G01 F60 X47.400 Y24.966
G01 F60 X47.425 Y24.966
G01 F60 X47.425 Y24.940
G01 F60 X47.451 Y24.940
G01 F60 X47.451 Y24.915
G01 F60 X47.476 Y24.915
G01 F60 X47.476 Y24.889
G01 F60 X47.527 Y24.889
G01 F60 X47.527 Y24.864
G01 F60 X47.552 Y24.864
G01 F60 X47.552 Y24.838
G01 F60 X47.578 Y24.838
G01 F60 X47.578 Y24.813
G01 F60 X47.628 Y24.813
G01 F60 X47.628 Y24.788
G01 F60 X47.679 Y24.788
G01 F60 X47.679 Y24.762
G01 F60 X47.730 Y24.762
G01 F60 X47.730 Y24.737
G01 F60 X47.806 Y24.737
G01 F60 X47.806 Y24.712
G01 F60 X47.933 Y24.712
G01 F60 X47.933 Y24.686
G01 F60 X49.590 Y24.686
G01 F60 X49.590 Y24.712
G01 F60 X49.717 Y24.712
G01 F60 X49.717 Y24.737
G01 F60 X49.793 Y24.737
G01 F60 X49.793 Y24.762
G01 F60 X49.844 Y24.762
G01 F60 X49.844 Y24.788
G01 F60 X49.894 Y24.788
G01 F60 X49.894 Y24.813
G01 F60 X49.945 Y24.813
G01 F60 X49.945 Y24.838
G01 F60 X49.971 Y24.838
G01 F60 X49.971 Y24.864
G01 F60 X49.996 Y24.864
G01 F60 X49.996 Y24.889
G01 F60 X50.047 Y24.889
G01 F60 X50.047 Y24.915
G01 F60 X50.072 Y24.915
G01 F60 X50.072 Y24.940
G01 F60 X50.098 Y24.940
G01 F60 X50.098 Y24.966
G01 F60 X50.123 Y24.966
G01 F60 X50.123 Y24.991
G01 F60 X50.148 Y24.991
G01 F60 X50.148 Y25.016
G01 F60 X50.174 Y25.016
G01 F60 X50.174 Y25.042
G01 F60 X50.199 Y25.042
G01 F60 X50.199 Y25.093
G01 F60 X50.225 Y25.093
G01 F60 X50.225 Y25.118
G01 F60 X50.250 Y25.118
G01 F60 X50.250 Y25.143
G01 F60 X50.275 Y25.143
G01 F60 X50.275 Y25.169
G01 F60 X50.301 Y25.169
G01 F60 X50.301 Y25.194
G01 F60 X50.326 Y25.194
G01 F60 X50.326 Y25.220
G01 F60 X50.352 Y25.220
G01 F60 X50.352 Y25.245
G01 F60 X50.377 Y25.245
G01 F60 X50.377 Y25.296
G01 F60 X50.402 Y25.296
G01 F60 X50.402 Y25.321
G01 F60 X50.428 Y25.321
G01 F60 X50.428 Y25.372
G01 F60 X50.453 Y25.372
G01 F60 X50.453 Y25.397
G01 F60 X50.479 Y25.397
G01 F60 X50.479 Y25.448
G01 F60 X50.504 Y25.448
G01 F60 X50.504 Y25.474
G01 F60 X50.529 Y25.474
G01 F60 X50.529 Y25.524
G01 F60 X50.555 Y25.524
G01 F60 X50.555 Y25.626
G01 F60 X50.580 Y25.626
G01 F60 X50.580 Y25.728
G01 F60 X50.606 Y25.728
G01 F60 X50.606 Y26.825
G01 F60 X50.580 Y26.825
G01 F60 X50.580 Y26.927
G01 F60 X50.555 Y26.927
G01 F60 X50.555 Y27.003
G01 F60 X50.529 Y27.003
G01 F60 X50.529 Y27.054
G01 F60 X50.504 Y27.054
G01 F60 X50.504 Y27.105
G01 F60 X50.479 Y27.105
G01 F60 X50.479 Y27.155
G01 F60 X50.453 Y27.155
G01 F60 X50.453 Y27.206
G01 F60 X50.428 Y27.206
G01 F60 X50.428 Y27.232
G01 F60 X50.402 Y27.232
G01 F60 X50.402 Y27.282
G01 F60 X50.377 Y27.282
G01 F60 X50.377 Y27.302
G01 F60 X50.930 Y27.302
G01 F60 X50.930 Y27.277
G01 F60 X51.007 Y27.277
G01 F60 X51.007 Y27.252
G01 F60 X51.057 Y27.252
G01 F60 X51.057 Y27.226
G01 F60 X51.083 Y27.226
G01 F60 X51.083 Y27.201
G01 F60 X51.108 Y27.201
G01 F60 X51.108 Y27.175
G01 F60 X51.134 Y27.175
G01 F60 X51.134 Y27.125
G01 F60 X51.159 Y27.125
G01 F60 X51.159 Y27.099
G01 F60 X51.184 Y27.099
G01 F60 X51.184 Y27.074
G01 F60 X51.210 Y27.074
G01 F60 X51.210 Y27.048
G01 F60 X51.235 Y27.048
G01 F60 X51.235 Y27.023
G01 F60 X51.261 Y27.023
G01 F60 X51.261 Y26.998
G01 F60 X51.286 Y26.998
G01 F60 X51.286 Y26.972
G01 F60 X51.311 Y26.972
G01 F60 X51.311 Y26.921
G01 F60 X51.337 Y26.921
G01 F60 X51.337 Y26.896
G01 F60 X51.362 Y26.896
G01 F60 X51.362 Y26.820
G01 F60 X51.388 Y26.820
G01 F60 X51.388 Y25.245
G01 F60 X51.413 Y25.245
G01 F60 X51.413 Y25.194
G01 F60 X51.438 Y25.194
G01 F60 X51.438 Y25.143
G01 F60 X51.464 Y25.143
G01 F60 X51.464 Y25.118
G01 F60 X51.489 Y25.118
G01 F60 X51.489 Y25.093
G01 F60 X51.515 Y25.093
G01 F60 X51.515 Y25.067
G01 F60 X51.540 Y25.067
G01 F60 X51.540 Y25.042
G01 F60 X51.591 Y25.042
G01 F60 X51.591 Y25.016
G01 F60 X52.079 Y25.016
G01 F60 X52.079 Y25.042
G01 F60 X52.130 Y25.042
G01 F60 X52.130 Y25.067
G01 F60 X52.155 Y25.067
G01 F60 X52.155 Y25.093
G01 F60 X52.180 Y25.093
G01 F60 X52.180 Y25.118
G01 F60 X52.206 Y25.118
G01 F60 X52.206 Y25.143
G01 F60 X52.231 Y25.143
G01 F60 X52.231 Y25.169
G01 F60 X52.257 Y25.169
G01 F60 X52.257 Y25.220
G01 F60 X52.282 Y25.220
G01 F60 X52.282 Y27.155
G01 F60 X52.257 Y27.155
G01 F60 X52.257 Y27.257
G01 F60 X52.231 Y27.257
G01 F60 X52.231 Y27.333
G01 F60 X52.206 Y27.333
G01 F60 X52.206 Y27.384
G01 F60 X52.180 Y27.384
G01 F60 X52.180 Y27.435
G01 F60 X52.155 Y27.435
G01 F60 X52.155 Y27.486
G01 F60 X52.130 Y27.486
G01 F60 X52.130 Y27.511
G01 F60 X52.104 Y27.511
G01 F60 X52.104 Y27.562
G01 F60 X52.079 Y27.562
G01 F60 X52.079 Y27.587
G01 F60 X52.053 Y27.587
G01 F60 X52.053 Y27.613
G01 F60 X52.028 Y27.613
G01 F60 X52.028 Y27.638
G01 F60 X52.003 Y27.638
G01 F60 X52.003 Y27.689
G01 F60 X51.977 Y27.689
G01 F60 X51.977 Y27.714
G01 F60 X51.952 Y27.714
G01 F60 X51.952 Y27.739
G01 F60 X51.926 Y27.739
G01 F60 X51.926 Y27.765
G01 F60 X51.901 Y27.765
G01 F60 X51.901 Y27.790
G01 F60 X51.876 Y27.790
G01 F60 X51.876 Y27.816
G01 F60 X51.850 Y27.816
G01 F60 X51.850 Y27.841
G01 F60 X51.825 Y27.841
G01 F60 X51.825 Y27.867
G01 F60 X51.799 Y27.867
G01 F60 X51.799 Y27.892
G01 F60 X51.774 Y27.892
G01 F60 X51.774 Y27.917
G01 F60 X51.749 Y27.917
G01 F60 X51.749 Y27.943
G01 F60 X51.723 Y27.943
G01 F60 X51.723 Y27.968
G01 F60 X51.698 Y27.968
G01 F60 X51.698 Y27.994
G01 F60 X51.672 Y27.994
G01 F60 X51.672 Y28.019
G01 F60 X51.647 Y28.019
G01 F60 X51.647 Y28.044
G01 F60 X51.596 Y28.044
G01 F60 X51.596 Y28.070
G01 F60 X51.545 Y28.070
G01 F60 X51.545 Y28.095
G01 F60 X51.495 Y28.095
G01 F60 X51.495 Y28.120
G01 F60 X51.444 Y28.120
G01 F60 X51.444 Y28.146
G01 F60 X51.393 Y28.146
G01 F60 X51.393 Y28.171
G01 F60 X51.291 Y28.171
G01 F60 X51.291 Y28.197
G01 F60 X47.146 Y28.197
G00 F3000 Z3.000
G00 F3000 X61.409 Y28.052
G00 F1500 Z0
G01 F60 Z-0.200
G01 F60 X61.182 Y28.003
G01 F60 X60.971 Y27.909
G01 F60 X60.783 Y27.773
G01 F60 X60.628 Y27.601
G01 F60 X60.513 Y27.400
G01 F60 X60.503 Y27.370
G01 F60 X57.358 Y27.370
G01 F60 X57.259 Y27.541
G01 F60 X57.119 Y27.698
G01 F60 X56.948 Y27.821
G01 F60 X56.756 Y27.907
G01 F60 X56.550 Y27.951
G01 F60 X56.340 Y27.951
G01 F60 X56.134 Y27.907
G01 F60 X55.942 Y27.821
G01 F60 X55.771 Y27.698
G01 F60 X55.631 Y27.541
G01 F60 X55.525 Y27.359
G01 F60 X55.460 Y27.159
G01 F60 X55.438 Y26.949
G01 F60 X55.460 Y26.740
G01 F60 X55.525 Y26.540
G01 F60 X55.631 Y26.358
G01 F60 X55.771 Y26.201
G01 F60 X55.942 Y26.078
G01 F60 X56.134 Y25.992
G01 F60 X56.340 Y25.948
G01 F60 X56.550 Y25.948
G01 F60 X56.756 Y25.992
G01 F60 X56.948 Y26.078
G01 F60 X57.119 Y26.201
G01 F60 X57.259 Y26.358
G01 F60 X57.358 Y26.529
G01 F60 X60.503 Y26.529
G01 F60 X60.513 Y26.499
G01 F60 X60.628 Y26.298
G01 F60 X60.783 Y26.126
G01 F60 X60.971 Y25.990
G01 F60 X61.182 Y25.895
G01 F60 X61.409 Y25.847
G01 F60 X61.641 Y25.847
G01 F60 X61.867 Y25.895
G01 F60 X62.079 Y25.990
G01 F60 X62.267 Y26.126
G01 F60 X62.422 Y26.298
G01 F60 X62.537 Y26.499
G01 F60 X62.609 Y26.719
G01 F60 X62.633 Y26.949
G01 F60 X62.609 Y27.180
G01 F60 X62.537 Y27.400
G01 F60 X62.422 Y27.601
G01 F60 X62.267 Y27.773
G01 F60 X62.079 Y27.909
G01 F60 X61.867 Y28.003
G01 F60 X61.641 Y28.052
G01 F60 X61.409 Y28.052
G00 F3000 Z3.000
G00 F3000 X25.853 Y28.014
G00 F1500 Z0
G01 F60 Z-0.200
G01 F60 X25.634 Y27.967
G01 F60 X25.430 Y27.876
G01 F60 X25.249 Y27.745
G01 F60 X25.099 Y27.578
G01 F60 X24.987 Y27.385
G01 F60 X24.918 Y27.172
G01 F60 X24.895 Y26.949
G01 F60 X24.918 Y26.727
G01 F60 X24.987 Y26.514
G01 F60 X25.099 Y26.320
G01 F60 X25.249 Y26.154
G01 F60 X25.430 Y26.023
G01 F60 X25.634 Y25.932
G01 F60 X25.853 Y25.885
G01 F60 X26.077 Y25.885
G01 F60 X26.296 Y25.932
G01 F60 X26.500 Y26.023
G01 F60 X26.681 Y26.154
G01 F60 X26.831 Y26.320
G01 F60 X26.943 Y26.514
G01 F60 X26.947 Y26.529
G01 F60 X27.522 Y26.529
G01 F60 X27.527 Y26.514
G01 F60 X27.639 Y26.320
G01 F60 X27.789 Y26.154
G01 F60 X27.970 Y26.023
G01 F60 X28.174 Y25.932
G01 F60 X28.393 Y25.885
G01 F60 X28.617 Y25.885
G01 F60 X28.836 Y25.932
G01 F60 X29.040 Y26.023
G01 F60 X29.221 Y26.154
G01 F60 X29.371 Y26.320
G01 F60 X29.483 Y26.514
G01 F60 X29.552 Y26.727
G01 F60 X29.575 Y26.949
G01 F60 X29.552 Y27.172
G01 F60 X29.483 Y27.385
G01 F60 X29.371 Y27.578
G01 F60 X29.221 Y27.745
G01 F60 X29.040 Y27.876
G01 F60 X28.836 Y27.967
G01 F60 X28.617 Y28.014
G01 F60 X28.393 Y28.014
G01 F60 X28.174 Y27.967
G01 F60 X27.970 Y27.876
G01 F60 X27.789 Y27.745
G01 F60 X27.639 Y27.578
G01 F60 X27.527 Y27.385
G01 F60 X27.522 Y27.370
G01 F60 X26.947 Y27.370
G01 F60 X26.943 Y27.385
G01 F60 X26.831 Y27.578
G01 F60 X26.681 Y27.745
G01 F60 X26.500 Y27.876
G01 F60 X26.296 Y27.967
G01 F60 X26.077 Y28.014
G01 F60 X25.853 Y28.014
G00 F3000 Z3.000
G00 F3000 X38.553 Y28.014
G00 F1500 Z0
G01 F60 Z-0.200
G01 F60 X38.334 Y27.967
G01 F60 X38.130 Y27.876
G01 F60 X37.949 Y27.745
G01 F60 X37.799 Y27.578
G01 F60 X37.687 Y27.385
G01 F60 X37.618 Y27.172
G01 F60 X37.595 Y26.949
G01 F60 X37.618 Y26.727
G01 F60 X37.687 Y26.514
G01 F60 X37.799 Y26.320
G01 F60 X37.949 Y26.154
G01 F60 X38.130 Y26.023
G01 F60 X38.334 Y25.932
G01 F60 X38.553 Y25.885
G01 F60 X38.777 Y25.885
G01 F60 X38.996 Y25.932
G01 F60 X39.200 Y26.023
G01 F60 X39.381 Y26.154
G01 F60 X39.531 Y26.320
G01 F60 X39.643 Y26.514
G01 F60 X39.647 Y26.529
G01 F60 X40.291 Y26.529
G01 F60 X40.391 Y26.358
G01 F60 X40.531 Y26.201
G01 F60 X40.702 Y26.078
G01 F60 X40.894 Y25.992
G01 F60 X41.100 Y25.948
G01 F60 X41.310 Y25.948
G01 F60 X41.516 Y25.992
G01 F60 X41.708 Y26.078
G01 F60 X41.879 Y26.201
G01 F60 X42.019 Y26.358
G01 F60 X42.125 Y26.540
G01 F60 X42.190 Y26.740
G01 F60 X42.212 Y26.949
G01 F60 X42.190 Y27.159
G01 F60 X42.125 Y27.359
G01 F60 X42.019 Y27.541
G01 F60 X41.879 Y27.698
G01 F60 X41.708 Y27.821
G01 F60 X41.516 Y27.907
G01 F60 X41.310 Y27.951
G01 F60 X41.100 Y27.951
G01 F60 X40.894 Y27.907
G01 F60 X40.702 Y27.821
G01 F60 X40.531 Y27.698
G01 F60 X40.391 Y27.541
G01 F60 X40.291 Y27.370
G01 F60 X39.647 Y27.370
G01 F60 X39.643 Y27.385
G01 F60 X39.531 Y27.578
G01 F60 X39.381 Y27.745
G01 F60 X39.200 Y27.876
G01 F60 X38.996 Y27.967
G01 F60 X38.777 Y28.014
G01 F60 X38.553 Y28.014
G00 F3000 Z3.000
G00 F3000 X48.548 Y27.302
G00 F1500 Z0
G01 F60 Z-0.200
G01 F60 X48.975 Y27.302
G01 F60 X48.975 Y27.277
G01 F60 X49.051 Y27.277
G01 F60 X49.051 Y27.252
G01 F60 X49.076 Y27.252
G01 F60 X49.076 Y27.226
G01 F60 X49.127 Y27.226
G01 F60 X49.127 Y27.201
G01 F60 X49.152 Y27.201
G01 F60 X49.152 Y27.150
G01 F60 X49.178 Y27.150
G01 F60 X49.178 Y27.125
G01 F60 X49.203 Y27.125
G01 F60 X49.203 Y27.099
G01 F60 X49.229 Y27.099
G01 F60 X49.229 Y27.074
G01 F60 X49.254 Y27.074
G01 F60 X49.254 Y27.048
G01 F60 X49.279 Y27.048
G01 F60 X49.279 Y27.023
G01 F60 X49.305 Y27.023
G01 F60 X49.305 Y26.972
G01 F60 X49.330 Y26.972
G01 F60 X49.330 Y26.947
G01 F60 X49.356 Y26.947
G01 F60 X49.356 Y26.921
G01 F60 X49.381 Y26.921
G01 F60 X49.381 Y26.896
G01 F60 X49.406 Y26.896
G01 F60 X49.406 Y26.870
G01 F60 X49.432 Y26.870
G01 F60 X49.432 Y26.845
G01 F60 X49.457 Y26.845
G01 F60 X49.457 Y26.794
G01 F60 X49.483 Y26.794
G01 F60 X49.483 Y26.769
G01 F60 X49.508 Y26.769
G01 F60 X49.508 Y26.744
G01 F60 X49.533 Y26.744
G01 F60 X49.533 Y26.718
G01 F60 X49.559 Y26.718
G01 F60 X49.559 Y26.693
G01 F60 X49.584 Y26.693
G01 F60 X49.584 Y26.667
G01 F60 X49.610 Y26.667
G01 F60 X49.610 Y26.617
G01 F60 X49.635 Y26.617
G01 F60 X49.635 Y26.591
G01 F60 X49.660 Y26.591
G01 F60 X49.660 Y26.566
G01 F60 X49.686 Y26.566
G01 F60 X49.686 Y26.515
G01 F60 X49.711 Y26.515
G01 F60 X49.711 Y26.038
G01 F60 X49.686 Y26.038
G01 F60 X49.686 Y25.962
G01 F60 X49.660 Y25.962
G01 F60 X49.660 Y25.911
G01 F60 X49.635 Y25.911
G01 F60 X49.635 Y25.885
G01 F60 X49.610 Y25.885
G01 F60 X49.610 Y25.835
G01 F60 X49.584 Y25.835
G01 F60 X49.584 Y25.809
G01 F60 X49.559 Y25.809
G01 F60 X49.559 Y25.784
G01 F60 X49.533 Y25.784
G01 F60 X49.533 Y25.758
G01 F60 X49.508 Y25.758
G01 F60 X49.508 Y25.733
G01 F60 X49.483 Y25.733
G01 F60 X49.483 Y25.707
G01 F60 X49.457 Y25.707
G01 F60 X49.457 Y25.682
G01 F60 X49.432 Y25.682
G01 F60 X49.432 Y25.657
G01 F60 X49.381 Y25.657
G01 F60 X49.381 Y25.631
G01 F60 X49.356 Y25.631
G01 F60 X49.356 Y25.606
G01 F60 X49.279 Y25.606
G01 F60 X49.279 Y25.581
G01 F60 X48.243 Y25.581
G01 F60 X48.243 Y25.606
G01 F60 X48.193 Y25.606
G01 F60 X48.193 Y25.631
G01 F60 X48.142 Y25.631
G01 F60 X48.142 Y25.657
G01 F60 X48.116 Y25.657
G01 F60 X48.116 Y25.682
G01 F60 X48.091 Y25.682
G01 F60 X48.091 Y25.707
G01 F60 X48.066 Y25.707
G01 F60 X48.066 Y25.733
G01 F60 X48.040 Y25.733
G01 F60 X48.040 Y25.758
G01 F60 X48.015 Y25.758
G01 F60 X48.015 Y25.784
G01 F60 X47.989 Y25.784
G01 F60 X47.989 Y25.809
G01 F60 X47.964 Y25.809
G01 F60 X47.964 Y25.860
G01 F60 X47.939 Y25.860
G01 F60 X47.939 Y25.885
G01 F60 X47.913 Y25.885
G01 F60 X47.913 Y25.911
