( PCB Contour )
( Generated by Rapid-PCB.com )
( Material Size)
( X= 70.000, Y= 50.000, Z= 1.580)
()
G00
G17
G21
G40
G49
G54
G80
G90
G94
G00 F3000 Z3.000
M03 S9000
G00 F3000 X23.376 Y-1.716
G00 F1500 Z0
G01 F300 Z-0.200
G01 F300 X23.167 Y-1.760
G01 F300 X22.972 Y-1.847
G01 F300 X22.800 Y-1.972
G01 F300 X22.657 Y-2.131
G01 F300 X22.550 Y-2.316
G01 F300 X22.484 Y-2.518
G01 F300 X22.462 Y-2.731
G01 F300 X22.484 Y-2.943
G01 F300 X22.550 Y-3.146
G01 F300 X22.657 Y-3.330
G01 F300 X22.800 Y-3.489
G01 F300 X22.972 Y-3.614
G01 F300 X23.167 Y-3.701
G01 F300 X23.173 Y-3.702
G01 F300 X23.142 Y-4.380
G01 F300 X23.004 Y-4.442
G01 F300 X22.842 Y-4.559
G01 F300 X22.708 Y-4.708
G01 F300 X22.608 Y-4.881
G01 F300 X22.546 Y-5.072
G01 F300 X22.525 Y-5.271
G01 F300 X22.546 Y-5.470
G01 F300 X22.608 Y-5.660
G01 F300 X22.708 Y-5.833
G01 F300 X22.842 Y-5.982
G01 F300 X23.004 Y-6.099
G01 F300 X23.187 Y-6.181
G01 F300 X23.382 Y-6.222
G01 F300 X23.582 Y-6.222
G01 F300 X23.778 Y-6.181
G01 F300 X23.961 Y-6.099
G01 F300 X24.123 Y-5.982
G01 F300 X24.256 Y-5.833
G01 F300 X24.356 Y-5.660
G01 F300 X24.418 Y-5.470
G01 F300 X24.439 Y-5.271
G01 F300 X24.418 Y-5.072
G01 F300 X24.356 Y-4.881
G01 F300 X24.256 Y-4.708
G01 F300 X24.123 Y-4.559
G01 F300 X23.961 Y-4.442
G01 F300 X23.888 Y-4.410
G01 F300 X23.915 Y-3.762
G01 F300 X24.207 Y-3.762
G01 F300 X24.283 Y-3.745
G01 F300 X24.354 Y-3.714
G01 F300 X24.418 Y-3.668
G01 F300 X24.470 Y-3.610
G01 F300 X24.509 Y-3.543
G01 F300 X24.533 Y-3.469
G01 F300 X24.541 Y-3.391
G01 F300 X24.533 Y-3.314
G01 F300 X24.509 Y-3.239
G01 F300 X24.470 Y-3.172
G01 F300 X24.430 Y-3.128
G01 F300 X24.424 Y-3.115
G01 F300 X24.429 Y-3.101
G01 F300 X43.430 Y-3.101
G01 F300 X43.430 Y-42.978
G01 F300 X38.853 Y-43.023
G01 F300 X37.317 Y-41.440
G01 F300 X37.317 Y-39.722
G01 F300 X35.099 Y-39.722
G01 F300 X35.096 Y-40.610
G01 F300 X35.073 Y-40.831
G01 F300 X35.099 Y-41.059
G01 F300 X35.099 Y-41.940
G01 F300 X36.765 Y-41.940
G01 F300 X38.449 Y-43.674
G01 F300 X38.511 Y-43.719
G01 F300 X38.582 Y-43.750
G01 F300 X38.658 Y-43.767
G01 F300 X38.729 Y-43.767
G01 F300 X43.842 Y-43.716
G01 F300 X43.918 Y-43.700
G01 F300 X43.989 Y-43.668
G01 F300 X44.052 Y-43.622
G01 F300 X44.104 Y-43.564
G01 F300 X44.143 Y-43.497
G01 F300 X44.167 Y-43.423
G01 F300 X44.175 Y-43.349
G01 F300 X44.175 Y-2.727
G01 F300 X44.167 Y-2.653
G01 F300 X44.143 Y-2.579
G01 F300 X44.104 Y-2.512
G01 F300 X44.052 Y-2.454
G01 F300 X43.989 Y-2.408
G01 F300 X43.918 Y-2.376
G01 F300 X43.841 Y-2.360
G01 F300 X24.429 Y-2.360
G01 F300 X24.415 Y-2.316
G01 F300 X24.308 Y-2.131
G01 F300 X24.165 Y-1.972
G01 F300 X23.992 Y-1.847
G01 F300 X23.798 Y-1.760
G01 F300 X23.589 Y-1.716
G01 F300 X23.376 Y-1.716
G00 F3000 Z3.000
G00 F3000 X13.216 Y-1.716
G00 F1500 Z0
G01 F300 Z-0.200
G01 F300 X13.007 Y-1.760
G01 F300 X12.812 Y-1.847
G01 F300 X12.639 Y-1.972
G01 F300 X12.497 Y-2.131
G01 F300 X12.390 Y-2.316
G01 F300 X12.324 Y-2.518
G01 F300 X12.302 Y-2.731
G01 F300 X12.324 Y-2.943
G01 F300 X12.390 Y-3.146
G01 F300 X12.497 Y-3.330
G01 F300 X12.639 Y-3.489
G01 F300 X12.812 Y-3.614
G01 F300 X12.949 Y-3.675
G01 F300 X12.925 Y-7.788
G01 F300 X12.932 Y-7.863
G01 F300 X12.956 Y-7.937
G01 F300 X12.975 Y-7.970
G01 F300 X12.975 Y-15.035
G01 F300 X8.375 Y-15.035
G01 F300 X6.768 Y-14.032
G01 F300 X6.786 Y-13.856
G01 F300 X6.763 Y-13.631
G01 F300 X6.692 Y-13.415
G01 F300 X6.579 Y-13.219
G01 F300 X6.428 Y-13.050
G01 F300 X6.244 Y-12.917
G01 F300 X6.037 Y-12.825
G01 F300 X5.816 Y-12.778
G01 F300 X5.589 Y-12.778
G01 F300 X5.367 Y-12.825
G01 F300 X5.160 Y-12.917
G01 F300 X4.977 Y-13.050
G01 F300 X4.825 Y-13.219
G01 F300 X4.712 Y-13.415
G01 F300 X4.642 Y-13.631
G01 F300 X4.618 Y-13.856
G01 F300 X4.642 Y-14.081
G01 F300 X4.712 Y-14.297
G01 F300 X4.825 Y-14.493
G01 F300 X4.977 Y-14.661
G01 F300 X5.160 Y-14.795
G01 F300 X5.367 Y-14.887
G01 F300 X5.589 Y-14.934
G01 F300 X5.816 Y-14.934
G01 F300 X6.037 Y-14.887
G01 F300 X6.244 Y-14.795
G01 F300 X6.382 Y-14.694
G01 F300 X8.084 Y-15.729
G01 F300 X8.152 Y-15.760
G01 F300 X8.229 Y-15.776
G01 F300 X13.387 Y-15.776
G01 F300 X13.463 Y-15.760
G01 F300 X13.534 Y-15.728
G01 F300 X13.597 Y-15.682
G01 F300 X13.649 Y-15.624
G01 F300 X13.688 Y-15.557
G01 F300 X13.712 Y-15.483
G01 F300 X13.720 Y-15.409
G01 F300 X13.720 Y-3.664
G01 F300 X13.833 Y-3.614
G01 F300 X14.005 Y-3.489
G01 F300 X14.148 Y-3.330
G01 F300 X14.255 Y-3.146
G01 F300 X14.320 Y-2.943
G01 F300 X14.343 Y-2.731
G01 F300 X14.320 Y-2.518
G01 F300 X14.255 Y-2.316
G01 F300 X14.148 Y-2.131
G01 F300 X14.005 Y-1.972
G01 F300 X13.833 Y-1.847
G01 F300 X13.638 Y-1.760
G01 F300 X13.429 Y-1.716
G01 F300 X13.216 Y-1.716
G00 F3000 Z3.000
G00 F3000 X48.472 Y-2.066
G00 F1500 Z0
G01 F300 Z-0.200
G01 F300 X48.472 Y-2.092
G01 F300 X48.421 Y-2.092
G01 F300 X48.421 Y-2.117
G01 F300 X48.370 Y-2.117
G01 F300 X48.370 Y-2.142
G01 F300 X48.345 Y-2.142
G01 F300 X48.345 Y-2.168
G01 F300 X48.320 Y-2.168
G01 F300 X48.320 Y-2.193
G01 F300 X48.294 Y-2.193
G01 F300 X48.294 Y-2.244
G01 F300 X48.269 Y-2.244
G01 F300 X48.269 Y-2.269
G01 F300 X48.243 Y-2.269
G01 F300 X48.243 Y-2.320
G01 F300 X48.218 Y-2.320
G01 F300 X48.218 Y-2.371
G01 F300 X48.193 Y-2.371
G01 F300 X48.193 Y-2.396
G01 F300 X48.167 Y-2.396
G01 F300 X48.167 Y-2.447
G01 F300 X48.142 Y-2.447
G01 F300 X48.142 Y-2.498
G01 F300 X48.116 Y-2.498
G01 F300 X48.116 Y-2.549
G01 F300 X48.091 Y-2.549
G01 F300 X48.091 Y-2.574
G01 F300 X48.066 Y-2.574
G01 F300 X48.066 Y-2.625
G01 F300 X48.040 Y-2.625
G01 F300 X48.040 Y-2.676
G01 F300 X48.015 Y-2.676
G01 F300 X48.015 Y-2.701
G01 F300 X47.989 Y-2.701
G01 F300 X47.989 Y-2.752
G01 F300 X47.964 Y-2.752
G01 F300 X47.964 Y-2.803
G01 F300 X47.939 Y-2.803
G01 F300 X47.939 Y-2.854
G01 F300 X47.913 Y-2.854
G01 F300 X47.913 Y-2.879
G01 F300 X47.888 Y-2.879
G01 F300 X47.888 Y-2.930
G01 F300 X47.862 Y-2.930
G01 F300 X47.862 Y-2.981
G01 F300 X47.837 Y-2.981
G01 F300 X47.837 Y-3.006
G01 F300 X47.812 Y-3.006
G01 F300 X47.812 Y-3.057
G01 F300 X47.786 Y-3.057
G01 F300 X47.786 Y-3.108
G01 F300 X47.761 Y-3.108
G01 F300 X47.761 Y-3.133
G01 F300 X47.735 Y-3.133
G01 F300 X47.735 Y-3.184
G01 F300 X47.710 Y-3.184
G01 F300 X47.710 Y-3.235
G01 F300 X47.684 Y-3.235
G01 F300 X47.684 Y-3.285
G01 F300 X47.659 Y-3.285
G01 F300 X47.659 Y-3.311
G01 F300 X47.634 Y-3.311
G01 F300 X47.634 Y-3.362
G01 F300 X47.608 Y-3.362
G01 F300 X47.608 Y-3.412
G01 F300 X47.583 Y-3.412
G01 F300 X47.583 Y-3.438
G01 F300 X47.558 Y-3.438
G01 F300 X47.558 Y-3.489
G01 F300 X47.532 Y-3.489
G01 F300 X47.532 Y-3.539
G01 F300 X47.507 Y-3.539
G01 F300 X47.507 Y-3.565
G01 F300 X47.481 Y-3.565
G01 F300 X47.481 Y-3.616
G01 F300 X47.456 Y-3.616
G01 F300 X47.456 Y-3.666
G01 F300 X47.431 Y-3.666
G01 F300 X47.431 Y-3.717
G01 F300 X47.405 Y-3.717
G01 F300 X47.405 Y-3.743
G01 F300 X47.380 Y-3.743
G01 F300 X47.380 Y-3.793
G01 F300 X47.354 Y-3.793
G01 F300 X47.354 Y-3.844
G01 F300 X47.329 Y-3.844
G01 F300 X47.329 Y-3.870
G01 F300 X47.303 Y-3.870
G01 F300 X47.303 Y-3.920
G01 F300 X47.278 Y-3.920
G01 F300 X47.278 Y-3.971
G01 F300 X47.253 Y-3.971
G01 F300 X47.253 Y-4.022
G01 F300 X47.227 Y-4.022
G01 F300 X47.227 Y-4.047
G01 F300 X47.202 Y-4.047
G01 F300 X47.202 Y-4.098
G01 F300 X47.177 Y-4.098
G01 F300 X47.177 Y-4.149
G01 F300 X47.151 Y-4.149
G01 F300 X47.151 Y-4.174
G01 F300 X47.126 Y-4.174
G01 F300 X47.126 Y-4.225
G01 F300 X47.100 Y-4.225
G01 F300 X47.100 Y-4.276
G01 F300 X47.075 Y-4.276
G01 F300 X47.075 Y-4.301
G01 F300 X47.050 Y-4.301
G01 F300 X47.050 Y-4.352
G01 F300 X47.024 Y-4.352
G01 F300 X47.024 Y-4.403
G01 F300 X46.999 Y-4.403
G01 F300 X46.999 Y-4.454
G01 F300 X46.973 Y-4.454
G01 F300 X46.973 Y-4.479
G01 F300 X46.948 Y-4.479
G01 F300 X46.948 Y-4.530
G01 F300 X46.922 Y-4.530
G01 F300 X46.922 Y-4.581
G01 F300 X46.897 Y-4.581
G01 F300 X46.897 Y-4.606
G01 F300 X46.872 Y-4.606
G01 F300 X46.872 Y-4.657
G01 F300 X46.846 Y-4.657
G01 F300 X46.846 Y-4.708
G01 F300 X46.821 Y-4.708
G01 F300 X46.821 Y-4.733
G01 F300 X46.796 Y-4.733
G01 F300 X46.796 Y-4.784
G01 F300 X46.770 Y-4.784
G01 F300 X46.770 Y-4.860
G01 F300 X46.745 Y-4.860
G01 F300 X46.745 Y-5.148
G01 F300 X46.770 Y-5.148
G01 F300 X46.770 Y-5.224
G01 F300 X46.796 Y-5.224
G01 F300 X46.796 Y-5.249
G01 F300 X46.821 Y-5.249
G01 F300 X46.821 Y-5.300
G01 F300 X46.846 Y-5.300
G01 F300 X46.846 Y-5.325
G01 F300 X46.897 Y-5.325
G01 F300 X46.897 Y-5.351
G01 F300 X46.922 Y-5.351
G01 F300 X46.922 Y-5.376
G01 F300 X47.024 Y-5.376
G01 F300 X47.024 Y-5.402
G01 F300 X47.235 Y-5.402
G01 F300 X47.235 Y-5.376
G01 F300 X47.337 Y-5.376
G01 F300 X47.337 Y-5.351
G01 F300 X47.388 Y-5.351
G01 F300 X47.388 Y-5.325
G01 F300 X47.413 Y-5.325
G01 F300 X47.413 Y-5.300
G01 F300 X47.439 Y-5.300
G01 F300 X47.439 Y-5.275
G01 F300 X47.464 Y-5.275
G01 F300 X47.464 Y-5.249
G01 F300 X47.489 Y-5.249
G01 F300 X47.489 Y-5.224
G01 F300 X47.515 Y-5.224
G01 F300 X47.515 Y-5.173
G01 F300 X47.540 Y-5.173
G01 F300 X47.540 Y-5.122
G01 F300 X47.566 Y-5.122
G01 F300 X47.566 Y-5.071
G01 F300 X47.591 Y-5.071
G01 F300 X47.591 Y-5.046
G01 F300 X47.616 Y-5.046
G01 F300 X47.616 Y-4.995
G01 F300 X47.642 Y-4.995
G01 F300 X47.642 Y-4.944
G01 F300 X47.667 Y-4.944
G01 F300 X47.667 Y-4.919
G01 F300 X47.693 Y-4.919
G01 F300 X47.693 Y-4.868
G01 F300 X47.718 Y-4.868
G01 F300 X47.718 Y-4.817
G01 F300 X47.743 Y-4.817
G01 F300 X47.743 Y-4.792
G01 F300 X47.769 Y-4.792
G01 F300 X47.769 Y-4.741
G01 F300 X47.794 Y-4.741
G01 F300 X47.794 Y-4.690
G01 F300 X47.820 Y-4.690
G01 F300 X47.820 Y-4.640
G01 F300 X47.845 Y-4.640
G01 F300 X47.845 Y-4.614
G01 F300 X47.870 Y-4.614
G01 F300 X47.870 Y-4.563
G01 F300 X47.896 Y-4.563
G01 F300 X47.896 Y-4.513
G01 F300 X47.921 Y-4.513
G01 F300 X47.921 Y-4.487
G01 F300 X47.947 Y-4.487
G01 F300 X47.947 Y-4.436
G01 F300 X47.972 Y-4.436
G01 F300 X47.972 Y-4.386
G01 F300 X47.997 Y-4.386
G01 F300 X47.997 Y-4.335
G01 F300 X48.023 Y-4.335
G01 F300 X48.023 Y-4.309
G01 F300 X48.048 Y-4.309
G01 F300 X48.048 Y-4.259
G01 F300 X48.074 Y-4.259
G01 F300 X48.074 Y-4.208
G01 F300 X48.099 Y-4.208
G01 F300 X48.099 Y-4.182
G01 F300 X48.124 Y-4.182
G01 F300 X48.124 Y-4.132
G01 F300 X48.150 Y-4.132
G01 F300 X48.150 Y-4.081
G01 F300 X48.175 Y-4.081
G01 F300 X48.175 Y-4.030
G01 F300 X48.201 Y-4.030
G01 F300 X48.201 Y-4.005
G01 F300 X48.226 Y-4.005
G01 F300 X48.226 Y-3.954
G01 F300 X48.251 Y-3.954
G01 F300 X48.251 Y-3.903
G01 F300 X48.277 Y-3.903
G01 F300 X48.277 Y-3.878
G01 F300 X48.302 Y-3.878
G01 F300 X48.302 Y-3.827
G01 F300 X48.328 Y-3.827
G01 F300 X48.328 Y-3.776
G01 F300 X48.353 Y-3.776
G01 F300 X48.353 Y-3.751
G01 F300 X48.378 Y-3.751
G01 F300 X48.378 Y-3.700
G01 F300 X48.404 Y-3.700
G01 F300 X48.404 Y-3.649
G01 F300 X48.429 Y-3.649
G01 F300 X48.429 Y-3.598
G01 F300 X48.455 Y-3.598
G01 F300 X48.455 Y-3.573
G01 F300 X48.480 Y-3.573
G01 F300 X48.480 Y-3.522
G01 F300 X48.505 Y-3.522
G01 F300 X48.505 Y-3.471
G01 F300 X48.531 Y-3.471
G01 F300 X48.531 Y-3.446
G01 F300 X48.556 Y-3.446
G01 F300 X48.556 Y-3.395
G01 F300 X48.582 Y-3.395
G01 F300 X48.582 Y-3.344
G01 F300 X48.607 Y-3.344
G01 F300 X48.607 Y-3.293
G01 F300 X48.632 Y-3.293
G01 F300 X48.632 Y-3.268
G01 F300 X48.658 Y-3.268
G01 F300 X48.658 Y-3.217
G01 F300 X48.683 Y-3.217
G01 F300 X48.683 Y-3.166
G01 F300 X48.709 Y-3.166
G01 F300 X48.709 Y-3.141
G01 F300 X48.734 Y-3.141
G01 F300 X48.734 Y-3.090
G01 F300 X48.759 Y-3.090
G01 F300 X48.759 Y-3.039
G01 F300 X48.777 Y-3.039
G01 F300 X48.777 Y-3.065
G01 F300 X48.802 Y-3.065
G01 F300 X48.802 Y-3.116
G01 F300 X48.828 Y-3.116
G01 F300 X48.828 Y-3.166
G01 F300 X48.853 Y-3.166
G01 F300 X48.853 Y-3.192
G01 F300 X48.878 Y-3.192
G01 F300 X48.878 Y-3.243
G01 F300 X48.904 Y-3.243
G01 F300 X48.904 Y-3.293
G01 F300 X48.929 Y-3.293
G01 F300 X48.929 Y-3.344
G01 F300 X48.955 Y-3.344
G01 F300 X48.955 Y-3.370
G01 F300 X48.980 Y-3.370
G01 F300 X48.980 Y-3.420
G01 F300 X49.005 Y-3.420
G01 F300 X49.005 Y-3.471
G01 F300 X49.031 Y-3.471
G01 F300 X49.031 Y-3.497
G01 F300 X49.056 Y-3.497
G01 F300 X49.056 Y-3.547
G01 F300 X49.082 Y-3.547
G01 F300 X49.082 Y-3.598
G01 F300 X49.107 Y-3.598
G01 F300 X49.107 Y-3.624
G01 F300 X49.132 Y-3.624
G01 F300 X49.132 Y-3.674
G01 F300 X49.158 Y-3.674
G01 F300 X49.158 Y-3.725
G01 F300 X49.183 Y-3.725
G01 F300 X49.183 Y-3.776
G01 F300 X49.209 Y-3.776
G01 F300 X49.209 Y-3.801
G01 F300 X49.234 Y-3.801
G01 F300 X49.234 Y-3.852
G01 F300 X49.259 Y-3.852
G01 F300 X49.259 Y-3.903
G01 F300 X49.285 Y-3.903
G01 F300 X49.285 Y-3.928
G01 F300 X49.310 Y-3.928
G01 F300 X49.310 Y-3.979
G01 F300 X49.336 Y-3.979
G01 F300 X49.336 Y-4.030
G01 F300 X49.361 Y-4.030
G01 F300 X49.361 Y-4.081
G01 F300 X49.386 Y-4.081
G01 F300 X49.386 Y-4.106
G01 F300 X49.412 Y-4.106
G01 F300 X49.412 Y-4.157
G01 F300 X49.437 Y-4.157
G01 F300 X49.437 Y-4.208
G01 F300 X49.463 Y-4.208
G01 F300 X49.463 Y-4.233
G01 F300 X49.488 Y-4.233
G01 F300 X49.488 Y-4.284
G01 F300 X49.513 Y-4.284
G01 F300 X49.513 Y-4.335
G01 F300 X49.539 Y-4.335
G01 F300 X49.539 Y-4.386
G01 F300 X49.564 Y-4.386
G01 F300 X49.564 Y-4.411
G01 F300 X49.590 Y-4.411
G01 F300 X49.590 Y-4.462
G01 F300 X49.615 Y-4.462
G01 F300 X49.615 Y-4.513
G01 F300 X49.640 Y-4.513
G01 F300 X49.640 Y-4.538
G01 F300 X49.666 Y-4.538
G01 F300 X49.666 Y-4.589
G01 F300 X49.691 Y-4.589
G01 F300 X49.691 Y-4.640
G01 F300 X49.717 Y-4.640
G01 F300 X49.717 Y-4.665
G01 F300 X49.742 Y-4.665
G01 F300 X49.742 Y-4.716
G01 F300 X49.767 Y-4.716
G01 F300 X49.767 Y-4.767
G01 F300 X49.793 Y-4.767
G01 F300 X49.793 Y-4.817
G01 F300 X49.818 Y-4.817
G01 F300 X49.818 Y-4.843
G01 F300 X49.844 Y-4.843
G01 F300 X49.844 Y-4.894
G01 F300 X49.869 Y-4.894
G01 F300 X49.869 Y-4.944
G01 F300 X49.894 Y-4.944
G01 F300 X49.894 Y-4.970
G01 F300 X49.920 Y-4.970
G01 F300 X49.920 Y-5.021
G01 F300 X49.945 Y-5.021
G01 F300 X49.945 Y-5.071
G01 F300 X49.971 Y-5.071
G01 F300 X49.971 Y-5.122
G01 F300 X49.996 Y-5.122
G01 F300 X49.996 Y-5.148
G01 F300 X50.021 Y-5.148
G01 F300 X50.021 Y-5.198
G01 F300 X50.047 Y-5.198
G01 F300 X50.047 Y-5.249
G01 F300 X50.072 Y-5.249
G01 F300 X50.072 Y-5.275
G01 F300 X50.098 Y-5.275
G01 F300 X50.098 Y-5.300
G01 F300 X50.123 Y-5.300
G01 F300 X50.123 Y-5.325
G01 F300 X50.148 Y-5.325
G01 F300 X50.148 Y-5.351
G01 F300 X50.199 Y-5.351
G01 F300 X50.199 Y-5.376
G01 F300 X50.301 Y-5.376
G01 F300 X50.301 Y-5.402
G01 F300 X50.512 Y-5.402
G01 F300 X50.512 Y-5.376
G01 F300 X50.614 Y-5.376
G01 F300 X50.614 Y-5.351
G01 F300 X50.664 Y-5.351
G01 F300 X50.664 Y-5.325
G01 F300 X50.690 Y-5.325
G01 F300 X50.690 Y-5.300
G01 F300 X50.715 Y-5.300
G01 F300 X50.715 Y-5.275
G01 F300 X50.741 Y-5.275
G01 F300 X50.741 Y-5.224
G01 F300 X50.766 Y-5.224
G01 F300 X50.766 Y-5.173
G01 F300 X50.791 Y-5.173
G01 F300 X50.791 Y-4.835
G01 F300 X50.766 Y-4.835
G01 F300 X50.766 Y-4.784
G01 F300 X50.741 Y-4.784
G01 F300 X50.741 Y-4.733
G01 F300 X50.715 Y-4.733
G01 F300 X50.715 Y-4.682
G01 F300 X50.690 Y-4.682
G01 F300 X50.690 Y-4.632
G01 F300 X50.664 Y-4.632
G01 F300 X50.664 Y-4.606
G01 F300 X50.639 Y-4.606
G01 F300 X50.639 Y-4.555
G01 F300 X50.614 Y-4.555
G01 F300 X50.614 Y-4.505
G01 F300 X50.588 Y-4.505
G01 F300 X50.588 Y-4.479
G01 F300 X50.563 Y-4.479
G01 F300 X50.563 Y-4.428
G01 F300 X50.537 Y-4.428
G01 F300 X50.537 Y-4.378
G01 F300 X50.512 Y-4.378
G01 F300 X50.512 Y-4.352
G01 F300 X50.486 Y-4.352
G01 F300 X50.486 Y-4.301
G01 F300 X50.461 Y-4.301
G01 F300 X50.461 Y-4.251
G01 F300 X50.436 Y-4.251
G01 F300 X50.436 Y-4.200
G01 F300 X50.410 Y-4.200
G01 F300 X50.410 Y-4.174
G01 F300 X50.385 Y-4.174
G01 F300 X50.385 Y-4.124
G01 F300 X50.360 Y-4.124
G01 F300 X50.360 Y-4.073
G01 F300 X50.334 Y-4.073
G01 F300 X50.334 Y-4.047
G01 F300 X50.309 Y-4.047
G01 F300 X50.309 Y-3.997
G01 F300 X50.283 Y-3.997
G01 F300 X50.283 Y-3.946
G01 F300 X50.258 Y-3.946
G01 F300 X50.258 Y-3.895
G01 F300 X50.233 Y-3.895
G01 F300 X50.233 Y-3.870
G01 F300 X50.207 Y-3.870
G01 F300 X50.207 Y-3.819
G01 F300 X50.182 Y-3.819
G01 F300 X50.182 Y-3.768
G01 F300 X50.156 Y-3.768
G01 F300 X50.156 Y-3.743
G01 F300 X50.131 Y-3.743
G01 F300 X50.131 Y-3.692
G01 F300 X50.105 Y-3.692
G01 F300 X50.105 Y-3.641
G01 F300 X50.080 Y-3.641
G01 F300 X50.080 Y-3.616
G01 F300 X50.055 Y-3.616
G01 F300 X50.055 Y-3.565
G01 F300 X50.029 Y-3.565
G01 F300 X50.029 Y-3.514
G01 F300 X50.004 Y-3.514
G01 F300 X50.004 Y-3.463
G01 F300 X49.979 Y-3.463
G01 F300 X49.979 Y-3.438
G01 F300 X49.953 Y-3.438
G01 F300 X49.953 Y-3.387
G01 F300 X49.928 Y-3.387
G01 F300 X49.928 Y-3.336
G01 F300 X49.902 Y-3.336
G01 F300 X49.902 Y-3.311
G01 F300 X49.877 Y-3.311
G01 F300 X49.877 Y-3.260
G01 F300 X49.852 Y-3.260
G01 F300 X49.852 Y-3.209
G01 F300 X49.826 Y-3.209
G01 F300 X49.826 Y-3.184
G01 F300 X49.801 Y-3.184
G01 F300 X49.801 Y-3.133
G01 F300 X49.775 Y-3.133
G01 F300 X49.775 Y-3.082
G01 F300 X49.750 Y-3.082
G01 F300 X49.750 Y-3.031
G01 F300 X49.724 Y-3.031
G01 F300 X49.724 Y-3.006
G01 F300 X49.699 Y-3.006
G01 F300 X49.699 Y-2.955
G01 F300 X49.674 Y-2.955
G01 F300 X49.674 Y-2.904
G01 F300 X49.648 Y-2.904
G01 F300 X49.648 Y-2.879
G01 F300 X49.623 Y-2.879
G01 F300 X49.623 Y-2.828
G01 F300 X49.598 Y-2.828
G01 F300 X49.598 Y-2.777
G01 F300 X49.572 Y-2.777
G01 F300 X49.572 Y-2.727
G01 F300 X49.547 Y-2.727
G01 F300 X49.547 Y-2.701
G01 F300 X49.521 Y-2.701
G01 F300 X49.521 Y-2.650
G01 F300 X49.496 Y-2.650
G01 F300 X49.496 Y-2.600
G01 F300 X49.471 Y-2.600
G01 F300 X49.471 Y-2.574
G01 F300 X49.445 Y-2.574
G01 F300 X49.445 Y-2.523
G01 F300 X49.420 Y-2.523
G01 F300 X49.420 Y-2.473
G01 F300 X49.394 Y-2.473
G01 F300 X49.394 Y-2.447
G01 F300 X49.369 Y-2.447
G01 F300 X49.369 Y-2.396
G01 F300 X49.344 Y-2.396
G01 F300 X49.344 Y-2.346
G01 F300 X49.318 Y-2.346
G01 F300 X49.318 Y-2.295
G01 F300 X49.293 Y-2.295
G01 F300 X49.293 Y-2.269
G01 F300 X49.267 Y-2.269
G01 F300 X49.267 Y-2.219
G01 F300 X49.242 Y-2.219
G01 F300 X49.242 Y-2.168
G01 F300 X49.217 Y-2.168
G01 F300 X49.217 Y-2.142
G01 F300 X49.191 Y-2.142
G01 F300 X49.191 Y-2.117
G01 F300 X49.140 Y-2.117
G01 F300 X49.140 Y-2.092
G01 F300 X49.090 Y-2.092
G01 F300 X49.090 Y-2.066
G01 F300 X48.472 Y-2.066
G00 F3000 Z3.000
G00 F3000 X53.949 Y-2.335
G00 F1500 Z0
G01 F300 Z-0.200
G01 F300 X53.873 Y-2.351
G01 F300 X53.801 Y-2.383
G01 F300 X53.738 Y-2.428
G01 F300 X53.686 Y-2.486
G01 F300 X53.647 Y-2.554
G01 F300 X53.623 Y-2.628
G01 F300 X53.615 Y-2.702
G01 F300 X53.615 Y-45.782
G01 F300 X51.292 Y-48.105
G01 F300 X26.055 Y-48.105
G01 F300 X24.430 Y-48.083
G01 F300 X24.415 Y-48.036
G01 F300 X24.308 Y-47.851
G01 F300 X24.165 Y-47.692
G01 F300 X23.992 Y-47.567
G01 F300 X23.798 Y-47.480
G01 F300 X23.589 Y-47.436
G01 F300 X23.376 Y-47.436
G01 F300 X23.167 Y-47.480
G01 F300 X22.972 Y-47.567
G01 F300 X22.800 Y-47.692
G01 F300 X22.657 Y-47.851
G01 F300 X22.550 Y-48.036
G01 F300 X22.484 Y-48.239
G01 F300 X22.462 Y-48.451
G01 F300 X22.484 Y-48.663
G01 F300 X22.550 Y-48.866
G01 F300 X22.657 Y-49.050
G01 F300 X22.800 Y-49.209
G01 F300 X22.972 Y-49.334
G01 F300 X23.167 Y-49.421
G01 F300 X23.376 Y-49.465
G01 F300 X23.589 Y-49.465
G01 F300 X23.798 Y-49.421
G01 F300 X23.992 Y-49.334
G01 F300 X24.165 Y-49.209
G01 F300 X24.308 Y-49.050
G01 F300 X24.415 Y-48.866
G01 F300 X24.428 Y-48.825
G01 F300 X25.990 Y-48.847
G01 F300 X51.487 Y-48.847
G01 F300 X51.563 Y-48.830
G01 F300 X51.634 Y-48.799
G01 F300 X51.696 Y-48.754
G01 F300 X54.241 Y-46.209
G01 F300 X54.289 Y-46.155
G01 F300 X54.328 Y-46.088
G01 F300 X54.352 Y-46.014
G01 F300 X54.360 Y-45.940
G01 F300 X54.360 Y-33.562
G01 F300 X55.027 Y-33.571
G01 F300 X55.622 Y-33.580
G01 F300 X55.628 Y-33.600
G01 F300 X55.728 Y-33.773
G01 F300 X55.862 Y-33.922
G01 F300 X56.024 Y-34.039
G01 F300 X56.207 Y-34.121
G01 F300 X56.402 Y-34.162
G01 F300 X56.602 Y-34.162
G01 F300 X56.798 Y-34.121
G01 F300 X56.981 Y-34.039
G01 F300 X57.143 Y-33.922
G01 F300 X57.276 Y-33.773
G01 F300 X57.376 Y-33.600
G01 F300 X57.438 Y-33.410
G01 F300 X57.459 Y-33.211
G01 F300 X57.438 Y-33.012
G01 F300 X57.376 Y-32.821
G01 F300 X57.276 Y-32.648
G01 F300 X57.143 Y-32.500
G01 F300 X56.981 Y-32.382
G01 F300 X56.798 Y-32.301
G01 F300 X56.602 Y-32.259
G01 F300 X56.402 Y-32.259
G01 F300 X56.207 Y-32.301
G01 F300 X56.024 Y-32.382
G01 F300 X55.862 Y-32.500
G01 F300 X55.728 Y-32.648
G01 F300 X55.628 Y-32.821
G01 F300 X55.623 Y-32.837
G01 F300 X54.360 Y-32.819
G01 F300 X54.360 Y-3.076
G01 F300 X58.670 Y-3.076
G01 F300 X58.670 Y-15.460
G01 F300 X58.678 Y-15.534
G01 F300 X58.702 Y-15.608
G01 F300 X58.741 Y-15.675
G01 F300 X58.790 Y-15.729
G01 F300 X60.618 Y-17.535
G01 F300 X60.615 Y-17.540
G01 F300 X60.547 Y-17.751
G01 F300 X60.524 Y-17.971
G01 F300 X60.547 Y-18.191
G01 F300 X60.615 Y-18.401
G01 F300 X60.726 Y-18.593
G01 F300 X60.874 Y-18.757
G01 F300 X61.053 Y-18.887
G01 F300 X61.255 Y-18.977
G01 F300 X61.472 Y-19.023
G01 F300 X61.693 Y-19.023
G01 F300 X61.909 Y-18.977
G01 F300 X62.111 Y-18.887
G01 F300 X62.291 Y-18.757
G01 F300 X62.439 Y-18.593
G01 F300 X62.549 Y-18.401
G01 F300 X62.618 Y-18.191
G01 F300 X62.641 Y-17.971
G01 F300 X62.618 Y-17.751
G01 F300 X62.549 Y-17.540
G01 F300 X62.439 Y-17.348
G01 F300 X62.291 Y-17.184
G01 F300 X62.111 Y-17.054
G01 F300 X61.909 Y-16.964
G01 F300 X61.693 Y-16.918
G01 F300 X61.472 Y-16.918
G01 F300 X61.255 Y-16.964
G01 F300 X61.148 Y-17.012
G01 F300 X59.415 Y-15.301
G01 F300 X59.415 Y-2.702
G01 F300 X59.407 Y-2.628
G01 F300 X59.383 Y-2.554
G01 F300 X59.344 Y-2.486
G01 F300 X59.292 Y-2.428
G01 F300 X59.229 Y-2.383
G01 F300 X59.158 Y-2.351
G01 F300 X59.081 Y-2.335
G01 F300 X53.949 Y-2.335
G00 F3000 Z3.000
G00 F3000 X63.854 Y-2.717
G00 F1500 Z0
G01 F300 Z-0.200
G01 F300 X63.329 Y-2.828
G01 F300 X62.838 Y-3.047
G01 F300 X62.404 Y-3.362
G01 F300 X62.045 Y-3.761
G01 F300 X61.776 Y-4.226
G01 F300 X61.611 Y-4.737
G01 F300 X61.554 Y-5.271
G01 F300 X61.611 Y-5.804
G01 F300 X61.776 Y-6.315
G01 F300 X62.045 Y-6.780
G01 F300 X62.404 Y-7.179
G01 F300 X62.838 Y-7.494
G01 F300 X63.329 Y-7.713
G01 F300 X63.854 Y-7.824
G01 F300 X64.391 Y-7.824
G01 F300 X64.916 Y-7.713
G01 F300 X65.406 Y-7.494
G01 F300 X65.841 Y-7.179
G01 F300 X66.200 Y-6.780
G01 F300 X66.468 Y-6.315
G01 F300 X66.634 Y-5.804
G01 F300 X66.690 Y-5.271
G01 F300 X66.634 Y-4.737
G01 F300 X66.468 Y-4.226
G01 F300 X66.200 Y-3.761
G01 F300 X65.841 Y-3.362
G01 F300 X65.406 Y-3.047
G01 F300 X64.916 Y-2.828
G01 F300 X64.391 Y-2.717
G01 F300 X63.854 Y-2.717
G00 F3000 Z3.000
G00 F3000 X2.894 Y-2.717
G00 F1500 Z0
G01 F300 Z-0.200
G01 F300 X2.369 Y-2.828
G01 F300 X1.878 Y-3.047
G01 F300 X1.444 Y-3.362
G01 F300 X1.085 Y-3.761
G01 F300 X0.816 Y-4.226
G01 F300 X0.651 Y-4.737
G01 F300 X0.594 Y-5.271
G01 F300 X0.651 Y-5.804
G01 F300 X0.816 Y-6.315
G01 F300 X1.085 Y-6.780
G01 F300 X1.444 Y-7.179
G01 F300 X1.878 Y-7.494
G01 F300 X2.369 Y-7.713
G01 F300 X2.894 Y-7.824
G01 F300 X3.431 Y-7.824
G01 F300 X3.956 Y-7.713
G01 F300 X4.446 Y-7.494
G01 F300 X4.881 Y-7.179
G01 F300 X5.240 Y-6.780
G01 F300 X5.508 Y-6.315
G01 F300 X5.674 Y-5.804
G01 F300 X5.730 Y-5.271
G01 F300 X5.674 Y-4.737
G01 F300 X5.508 Y-4.226
G01 F300 X5.240 Y-3.761
G01 F300 X4.881 Y-3.362
G01 F300 X4.446 Y-3.047
G01 F300 X3.956 Y-2.828
G01 F300 X3.431 Y-2.717
G01 F300 X2.894 Y-2.717
G00 F3000 Z3.000
G00 F3000 X30.992 Y-4.218
G00 F1500 Z0
G01 F300 Z-0.200
G01 F300 X30.775 Y-4.264
G01 F300 X30.573 Y-4.354
G01 F300 X30.394 Y-4.484
G01 F300 X30.246 Y-4.648
G01 F300 X30.135 Y-4.840
G01 F300 X30.067 Y-5.051
G01 F300 X30.044 Y-5.271
G01 F300 X30.067 Y-5.491
G01 F300 X30.135 Y-5.701
G01 F300 X30.246 Y-5.893
G01 F300 X30.394 Y-6.057
G01 F300 X30.573 Y-6.187
G01 F300 X30.730 Y-6.257
G01 F300 X30.730 Y-6.753
G01 F300 X30.044 Y-6.753
G01 F300 X30.044 Y-8.869
G01 F300 X32.160 Y-8.869
G01 F300 X32.160 Y-8.178
G01 F300 X33.488 Y-8.159
G01 F300 X38.449 Y-13.194
G01 F300 X38.511 Y-13.239
G01 F300 X38.582 Y-13.270
G01 F300 X38.658 Y-13.287
G01 F300 X38.729 Y-13.287
G01 F300 X40.383 Y-13.264
G01 F300 X40.388 Y-13.280
G01 F300 X40.488 Y-13.453
G01 F300 X40.622 Y-13.602
G01 F300 X40.784 Y-13.719
G01 F300 X40.967 Y-13.801
G01 F300 X41.162 Y-13.842
G01 F300 X41.362 Y-13.842
G01 F300 X41.558 Y-13.801
G01 F300 X41.741 Y-13.719
G01 F300 X41.903 Y-13.602
G01 F300 X42.036 Y-13.453
G01 F300 X42.136 Y-13.280
G01 F300 X42.198 Y-13.090
G01 F300 X42.219 Y-12.891
G01 F300 X42.198 Y-12.692
G01 F300 X42.136 Y-12.501
G01 F300 X42.036 Y-12.328
G01 F300 X41.903 Y-12.180
G01 F300 X41.741 Y-12.062
G01 F300 X41.558 Y-11.981
G01 F300 X41.362 Y-11.939
G01 F300 X41.162 Y-11.939
G01 F300 X40.967 Y-11.981
G01 F300 X40.784 Y-12.062
G01 F300 X40.622 Y-12.180
G01 F300 X40.488 Y-12.328
G01 F300 X40.388 Y-12.501
G01 F300 X40.382 Y-12.522
G01 F300 X38.851 Y-12.543
G01 F300 X33.890 Y-7.507
G01 F300 X33.829 Y-7.463
G01 F300 X33.758 Y-7.431
G01 F300 X33.681 Y-7.415
G01 F300 X33.610 Y-7.415
G01 F300 X32.160 Y-7.435
G01 F300 X32.160 Y-6.753
G01 F300 X31.475 Y-6.753
G01 F300 X31.476 Y-6.257
G01 F300 X31.632 Y-6.187
G01 F300 X31.811 Y-6.057
G01 F300 X31.959 Y-5.893
G01 F300 X32.069 Y-5.701
G01 F300 X32.138 Y-5.491
G01 F300 X32.161 Y-5.271
G01 F300 X32.138 Y-5.051
G01 F300 X32.069 Y-4.840
G01 F300 X31.959 Y-4.648
G01 F300 X31.811 Y-4.484
G01 F300 X31.632 Y-4.354
G01 F300 X31.429 Y-4.264
G01 F300 X31.213 Y-4.218
G01 F300 X30.992 Y-4.218
G00 F3000 Z3.000
G00 F3000 X56.402 Y-4.319
G00 F1500 Z0
G01 F300 Z-0.200
G01 F300 X56.207 Y-4.361
G01 F300 X56.024 Y-4.442
G01 F300 X55.862 Y-4.559
G01 F300 X55.728 Y-4.708
G01 F300 X55.628 Y-4.881
G01 F300 X55.566 Y-5.072
G01 F300 X55.545 Y-5.271
G01 F300 X55.566 Y-5.470
G01 F300 X55.628 Y-5.660
G01 F300 X55.728 Y-5.833
G01 F300 X55.862 Y-5.982
G01 F300 X56.024 Y-6.099
G01 F300 X56.207 Y-6.181
G01 F300 X56.402 Y-6.222
G01 F300 X56.602 Y-6.222
G01 F300 X56.798 Y-6.181
G01 F300 X56.981 Y-6.099
G01 F300 X57.143 Y-5.982
G01 F300 X57.276 Y-5.833
G01 F300 X57.376 Y-5.660
G01 F300 X57.438 Y-5.470
G01 F300 X57.459 Y-5.271
G01 F300 X57.438 Y-5.072
G01 F300 X57.376 Y-4.881
G01 F300 X57.276 Y-4.708
G01 F300 X57.143 Y-4.559
G01 F300 X56.981 Y-4.442
G01 F300 X56.798 Y-4.361
G01 F300 X56.602 Y-4.319
G01 F300 X56.402 Y-4.319
G00 F3000 Z3.000
G00 F3000 X41.162 Y-4.319
G00 F1500 Z0
G01 F300 Z-0.200
G01 F300 X40.967 Y-4.361
G01 F300 X40.784 Y-4.442
G01 F300 X40.622 Y-4.559
G01 F300 X40.488 Y-4.708
G01 F300 X40.388 Y-4.881
G01 F300 X40.326 Y-5.072
G01 F300 X40.305 Y-5.271
G01 F300 X40.326 Y-5.470
G01 F300 X40.388 Y-5.660
G01 F300 X40.488 Y-5.833
G01 F300 X40.622 Y-5.982
G01 F300 X40.784 Y-6.099
G01 F300 X40.967 Y-6.181
G01 F300 X41.162 Y-6.222
G01 F300 X41.362 Y-6.222
G01 F300 X41.558 Y-6.181
G01 F300 X41.741 Y-6.099
G01 F300 X41.903 Y-5.982
G01 F300 X42.036 Y-5.833
G01 F300 X42.136 Y-5.660
G01 F300 X42.198 Y-5.470
G01 F300 X42.219 Y-5.271
G01 F300 X42.198 Y-5.072
G01 F300 X42.136 Y-4.881
G01 F300 X42.036 Y-4.708
G01 F300 X41.903 Y-4.559
G01 F300 X41.741 Y-4.442
G01 F300 X41.558 Y-4.361
G01 F300 X41.362 Y-4.319
G01 F300 X41.162 Y-4.319
G00 F3000 Z3.000
G00 F3000 X68.005 Y-6.333
G00 F1500 Z0
G01 F300 Z-0.200
G01 F300 X68.005 Y-6.359
G01 F300 X67.954 Y-6.359
G01 F300 X67.954 Y-6.410
G01 F300 X67.928 Y-6.410
G01 F300 X67.928 Y-7.662
G01 F300 X67.954 Y-7.662
G01 F300 X67.954 Y-7.688
G01 F300 X67.979 Y-7.688
G01 F300 X67.979 Y-7.713
G01 F300 X68.005 Y-7.713
G01 F300 X68.005 Y-7.738
G01 F300 X68.343 Y-7.738
G01 F300 X68.343 Y-7.713
G01 F300 X68.368 Y-7.713
G01 F300 X68.368 Y-7.688
G01 F300 X68.394 Y-7.688
G01 F300 X68.394 Y-7.662
G01 F300 X68.419 Y-7.662
G01 F300 X68.419 Y-6.410
G01 F300 X68.394 Y-6.410
G01 F300 X68.394 Y-6.359
G01 F300 X68.343 Y-6.359
G01 F300 X68.343 Y-6.333
G01 F300 X68.005 Y-6.333
G00 F3000 Z3.000
G00 F3000 X48.701 Y-6.689
G00 F1500 Z0
G01 F300 Z-0.200
G01 F300 X48.701 Y-6.714
G01 F300 X48.574 Y-6.714
G01 F300 X48.574 Y-6.740
G01 F300 X48.523 Y-6.740
G01 F300 X48.523 Y-6.765
G01 F300 X48.497 Y-6.765
G01 F300 X48.497 Y-6.791
G01 F300 X48.472 Y-6.791
G01 F300 X48.472 Y-6.816
G01 F300 X48.447 Y-6.816
G01 F300 X48.447 Y-6.841
G01 F300 X48.421 Y-6.841
G01 F300 X48.421 Y-6.892
G01 F300 X48.396 Y-6.892
G01 F300 X48.396 Y-6.968
G01 F300 X48.370 Y-6.968
G01 F300 X48.370 Y-9.770
G01 F300 X48.396 Y-9.770
G01 F300 X48.396 Y-9.847
G01 F300 X48.421 Y-9.847
G01 F300 X48.421 Y-9.897
G01 F300 X48.447 Y-9.897
G01 F300 X48.447 Y-9.923
G01 F300 X48.472 Y-9.923
G01 F300 X48.472 Y-9.948
G01 F300 X48.497 Y-9.948
G01 F300 X48.497 Y-9.974
G01 F300 X48.548 Y-9.974
G01 F300 X48.548 Y-9.999
G01 F300 X48.599 Y-9.999
G01 F300 X48.599 Y-10.024
G01 F300 X49.217 Y-10.024
G01 F300 X49.217 Y-9.999
G01 F300 X49.267 Y-9.999
G01 F300 X49.267 Y-9.974
G01 F300 X49.318 Y-9.974
G01 F300 X49.318 Y-9.948
G01 F300 X49.344 Y-9.948
G01 F300 X49.344 Y-9.923
G01 F300 X49.369 Y-9.923
G01 F300 X49.369 Y-9.897
G01 F300 X49.394 Y-9.897
G01 F300 X49.394 Y-9.847
G01 F300 X49.420 Y-9.847
G01 F300 X49.420 Y-9.745
G01 F300 X49.445 Y-9.745
G01 F300 X49.445 Y-6.968
G01 F300 X49.420 Y-6.968
G01 F300 X49.420 Y-6.892
G01 F300 X49.394 Y-6.892
G01 F300 X49.394 Y-6.841
G01 F300 X49.369 Y-6.841
G01 F300 X49.369 Y-6.816
G01 F300 X49.344 Y-6.816
G01 F300 X49.344 Y-6.791
G01 F300 X49.318 Y-6.791
G01 F300 X49.318 Y-6.765
G01 F300 X49.293 Y-6.765
G01 F300 X49.293 Y-6.740
G01 F300 X49.242 Y-6.740
G01 F300 X49.242 Y-6.714
G01 F300 X49.115 Y-6.714
G01 F300 X49.115 Y-6.689
G01 F300 X48.701 Y-6.689
G00 F3000 Z3.000
G00 F3000 X23.774 Y-6.856
G00 F1500 Z0
G01 F300 Z-0.200
G01 F300 X23.697 Y-6.872
G01 F300 X23.680 Y-6.880
G01 F300 X23.582 Y-6.859
G01 F300 X23.382 Y-6.859
G01 F300 X23.187 Y-6.901
G01 F300 X23.004 Y-6.982
G01 F300 X22.842 Y-7.099
G01 F300 X22.708 Y-7.248
G01 F300 X22.608 Y-7.421
G01 F300 X22.546 Y-7.612
G01 F300 X22.525 Y-7.811
G01 F300 X22.546 Y-8.010
G01 F300 X22.608 Y-8.200
G01 F300 X22.708 Y-8.373
G01 F300 X22.842 Y-8.522
G01 F300 X23.004 Y-8.639
G01 F300 X23.113 Y-8.688
G01 F300 X23.121 Y-9.258
G01 F300 X23.111 Y-10.198
G01 F300 X20.811 Y-12.545
G01 F300 X18.389 Y-12.545
G01 F300 X18.313 Y-12.562
G01 F300 X18.241 Y-12.593
G01 F300 X18.180 Y-12.638
G01 F300 X15.635 Y-15.183
G01 F300 X15.586 Y-15.237
G01 F300 X15.547 Y-15.304
G01 F300 X15.523 Y-15.379
G01 F300 X15.515 Y-15.453
G01 F300 X15.515 Y-17.625
G01 F300 X5.663 Y-17.625
G01 F300 X5.587 Y-17.642
G01 F300 X5.516 Y-17.673
G01 F300 X5.455 Y-17.718
G01 F300 X2.909 Y-20.238
G01 F300 X2.861 Y-20.292
G01 F300 X2.822 Y-20.359
G01 F300 X2.798 Y-20.433
G01 F300 X2.790 Y-20.507
G01 F300 X2.790 Y-27.186
G01 F300 X2.652 Y-27.247
G01 F300 X2.480 Y-27.372
G01 F300 X2.337 Y-27.531
G01 F300 X2.230 Y-27.716
G01 F300 X2.164 Y-27.919
G01 F300 X2.142 Y-28.131
G01 F300 X2.164 Y-28.343
G01 F300 X2.230 Y-28.546
G01 F300 X2.337 Y-28.730
G01 F300 X2.480 Y-28.889
G01 F300 X2.652 Y-29.014
G01 F300 X2.790 Y-29.076
G01 F300 X2.790 Y-33.189
G01 F300 X2.798 Y-33.263
G01 F300 X2.822 Y-33.337
G01 F300 X2.861 Y-33.404
G01 F300 X2.909 Y-33.458
G01 F300 X5.454 Y-36.003
G01 F300 X5.516 Y-36.048
G01 F300 X5.587 Y-36.080
G01 F300 X5.663 Y-36.096
G01 F300 X7.295 Y-36.118
G01 F300 X7.310 Y-36.166
G01 F300 X7.417 Y-36.350
G01 F300 X7.560 Y-36.509
G01 F300 X7.732 Y-36.634
G01 F300 X7.927 Y-36.721
G01 F300 X8.136 Y-36.765
G01 F300 X8.349 Y-36.765
G01 F300 X8.558 Y-36.721
G01 F300 X8.753 Y-36.634
G01 F300 X8.925 Y-36.509
G01 F300 X9.068 Y-36.350
G01 F300 X9.175 Y-36.166
G01 F300 X9.195 Y-36.102
G01 F300 X12.375 Y-36.120
G01 F300 X12.390 Y-36.166
G01 F300 X12.497 Y-36.350
G01 F300 X12.639 Y-36.509
G01 F300 X12.812 Y-36.634
G01 F300 X13.007 Y-36.721
G01 F300 X13.216 Y-36.765
G01 F300 X13.429 Y-36.765
G01 F300 X13.638 Y-36.721
G01 F300 X13.833 Y-36.634
G01 F300 X14.005 Y-36.509
G01 F300 X14.148 Y-36.350
G01 F300 X14.255 Y-36.166
G01 F300 X14.320 Y-35.963
G01 F300 X14.343 Y-35.751
G01 F300 X14.320 Y-35.538
G01 F300 X14.255 Y-35.336
G01 F300 X14.148 Y-35.151
G01 F300 X14.005 Y-34.992
G01 F300 X13.833 Y-34.867
G01 F300 X13.638 Y-34.780
G01 F300 X13.429 Y-34.736
G01 F300 X13.216 Y-34.736
G01 F300 X13.007 Y-34.780
G01 F300 X12.812 Y-34.867
G01 F300 X12.639 Y-34.992
G01 F300 X12.497 Y-35.151
G01 F300 X12.390 Y-35.336
G01 F300 X12.377 Y-35.376
G01 F300 X10.789 Y-35.355
G01 F300 X9.181 Y-35.355
G01 F300 X9.175 Y-35.336
G01 F300 X9.068 Y-35.151
G01 F300 X8.925 Y-34.992
G01 F300 X8.752 Y-34.867
G01 F300 X8.589 Y-34.797
G01 F300 X8.589 Y-30.849
G01 F300 X11.008 Y-28.405
G01 F300 X16.140 Y-23.324
G01 F300 X16.189 Y-23.270
G01 F300 X16.228 Y-23.202
G01 F300 X16.252 Y-23.128
G01 F300 X16.260 Y-23.054
G01 F300 X16.260 Y-18.293
G01 F300 X17.689 Y-17.973
G01 F300 X17.805 Y-18.101
G01 F300 X17.956 Y-18.211
G01 F300 X18.126 Y-18.287
G01 F300 X18.309 Y-18.326
G01 F300 X18.496 Y-18.326
G01 F300 X18.678 Y-18.287
G01 F300 X18.849 Y-18.211
G01 F300 X19.000 Y-18.101
G01 F300 X19.125 Y-17.962
G01 F300 X19.218 Y-17.801
G01 F300 X19.276 Y-17.623
G01 F300 X19.296 Y-17.437
G01 F300 X19.276 Y-17.252
G01 F300 X19.218 Y-17.074
G01 F300 X19.125 Y-16.912
G01 F300 X19.000 Y-16.773
G01 F300 X18.849 Y-16.663
G01 F300 X18.678 Y-16.588
G01 F300 X18.496 Y-16.549
G01 F300 X18.309 Y-16.549
G01 F300 X18.126 Y-16.588
G01 F300 X17.956 Y-16.663
G01 F300 X17.805 Y-16.773
G01 F300 X17.680 Y-16.912
G01 F300 X17.586 Y-17.074
G01 F300 X17.529 Y-17.249
G01 F300 X17.426 Y-17.272
G01 F300 X16.260 Y-17.533
G01 F300 X16.260 Y-15.610
G01 F300 X18.583 Y-13.287
G01 F300 X21.007 Y-13.287
G01 F300 X21.083 Y-13.270
G01 F300 X21.154 Y-13.239
G01 F300 X21.216 Y-13.194
G01 F300 X23.665 Y-10.696
G01 F300 X28.530 Y-10.696
G01 F300 X30.115 Y-10.719
G01 F300 X30.135 Y-10.781
G01 F300 X30.246 Y-10.973
G01 F300 X30.394 Y-11.137
G01 F300 X30.573 Y-11.267
G01 F300 X30.775 Y-11.357
G01 F300 X30.992 Y-11.403
G01 F300 X31.213 Y-11.403
G01 F300 X31.429 Y-11.357
G01 F300 X31.632 Y-11.267
G01 F300 X31.811 Y-11.137
G01 F300 X31.959 Y-10.973
G01 F300 X32.069 Y-10.781
G01 F300 X32.138 Y-10.571
G01 F300 X32.161 Y-10.351
G01 F300 X32.138 Y-10.130
G01 F300 X32.069 Y-9.920
G01 F300 X31.959 Y-9.728
G01 F300 X31.811 Y-9.564
G01 F300 X31.632 Y-9.434
G01 F300 X31.429 Y-9.344
G01 F300 X31.213 Y-9.298
G01 F300 X30.992 Y-9.298
G01 F300 X30.775 Y-9.344
G01 F300 X30.573 Y-9.434
G01 F300 X30.394 Y-9.564
G01 F300 X30.246 Y-9.728
G01 F300 X30.135 Y-9.920
G01 F300 X30.117 Y-9.976
G01 F300 X28.595 Y-9.955
G01 F300 X23.880 Y-9.955
G01 F300 X23.880 Y-8.675
G01 F300 X23.961 Y-8.639
G01 F300 X24.123 Y-8.522
G01 F300 X24.256 Y-8.373
G01 F300 X24.356 Y-8.200
G01 F300 X24.418 Y-8.010
G01 F300 X24.439 Y-7.811
G01 F300 X24.418 Y-7.612
G01 F300 X24.356 Y-7.421
G01 F300 X24.256 Y-7.248
G01 F300 X24.178 Y-7.161
G01 F300 X24.177 Y-7.149
G01 F300 X24.153 Y-7.075
G01 F300 X24.114 Y-7.007
G01 F300 X24.062 Y-6.950
G01 F300 X23.999 Y-6.904
G01 F300 X23.928 Y-6.872
G01 F300 X23.852 Y-6.856
G01 F300 X23.774 Y-6.856
G00 F3000 Z3.000
G00 F3000 X56.402 Y-6.859
G00 F1500 Z0
G01 F300 Z-0.200
G01 F300 X56.207 Y-6.901
G01 F300 X56.024 Y-6.982
G01 F300 X55.862 Y-7.099
G01 F300 X55.728 Y-7.248
G01 F300 X55.628 Y-7.421
G01 F300 X55.566 Y-7.612
G01 F300 X55.545 Y-7.811
G01 F300 X55.566 Y-8.010
G01 F300 X55.628 Y-8.200
G01 F300 X55.728 Y-8.373
G01 F300 X55.862 Y-8.522
G01 F300 X56.024 Y-8.639
G01 F300 X56.207 Y-8.721
G01 F300 X56.402 Y-8.762
G01 F300 X56.602 Y-8.762
G01 F300 X56.798 Y-8.721
G01 F300 X56.981 Y-8.639
G01 F300 X57.143 Y-8.522
G01 F300 X57.276 Y-8.373
G01 F300 X57.376 Y-8.200
G01 F300 X57.438 Y-8.010
G01 F300 X57.459 Y-7.811
G01 F300 X57.438 Y-7.612
G01 F300 X57.376 Y-7.421
G01 F300 X57.276 Y-7.248
G01 F300 X57.143 Y-7.099
G01 F300 X56.981 Y-6.982
G01 F300 X56.798 Y-6.901
G01 F300 X56.602 Y-6.859
G01 F300 X56.402 Y-6.859
G00 F3000 Z3.000
G00 F3000 X41.162 Y-6.859
G00 F1500 Z0
G01 F300 Z-0.200
G01 F300 X40.967 Y-6.901
G01 F300 X40.784 Y-6.982
G01 F300 X40.622 Y-7.099
G01 F300 X40.488 Y-7.248
G01 F300 X40.388 Y-7.421
G01 F300 X40.326 Y-7.612
G01 F300 X40.305 Y-7.811
G01 F300 X40.326 Y-8.010
G01 F300 X40.388 Y-8.200
G01 F300 X40.488 Y-8.373
G01 F300 X40.622 Y-8.522
G01 F300 X40.784 Y-8.639
G01 F300 X40.967 Y-8.721
G01 F300 X41.162 Y-8.762
G01 F300 X41.362 Y-8.762
G01 F300 X41.558 Y-8.721
G01 F300 X41.741 Y-8.639
G01 F300 X41.903 Y-8.522
G01 F300 X42.036 Y-8.373
G01 F300 X42.136 Y-8.200
G01 F300 X42.198 Y-8.010
G01 F300 X42.219 Y-7.811
G01 F300 X42.198 Y-7.612
G01 F300 X42.136 Y-7.421
G01 F300 X42.036 Y-7.248
G01 F300 X41.903 Y-7.099
G01 F300 X41.741 Y-6.982
G01 F300 X41.558 Y-6.901
G01 F300 X41.362 Y-6.859
G01 F300 X41.162 Y-6.859
G00 F3000 Z3.000
G00 F3000 X65.579 Y-9.267
G00 F1500 Z0
G01 F300 Z-0.200
G01 F300 X65.579 Y-9.975
G01 F300 X64.155 Y-9.955
G01 F300 X64.083 Y-9.955
G01 F300 X64.007 Y-9.971
G01 F300 X63.936 Y-10.003
G01 F300 X63.873 Y-10.048
G01 F300 X63.821 Y-10.106
G01 F300 X63.782 Y-10.174
G01 F300 X63.758 Y-10.248
G01 F300 X63.750 Y-10.322
G01 F300 X63.750 Y-20.140
G01 F300 X62.569 Y-20.140
G01 F300 X62.549 Y-20.080
G01 F300 X62.439 Y-19.888
G01 F300 X62.291 Y-19.724
G01 F300 X62.111 Y-19.594
G01 F300 X61.909 Y-19.504
G01 F300 X61.693 Y-19.458
G01 F300 X61.472 Y-19.458
G01 F300 X61.255 Y-19.504
G01 F300 X61.053 Y-19.594
G01 F300 X60.874 Y-19.724
G01 F300 X60.726 Y-19.888
G01 F300 X60.615 Y-20.080
G01 F300 X60.547 Y-20.291
G01 F300 X60.524 Y-20.511
G01 F300 X60.547 Y-20.731
G01 F300 X60.615 Y-20.941
G01 F300 X60.726 Y-21.133
G01 F300 X60.874 Y-21.297
G01 F300 X61.053 Y-21.427
G01 F300 X61.255 Y-21.517
G01 F300 X61.472 Y-21.563
G01 F300 X61.693 Y-21.563
G01 F300 X61.909 Y-21.517
G01 F300 X62.111 Y-21.427
G01 F300 X62.291 Y-21.297
G01 F300 X62.439 Y-21.133
G01 F300 X62.549 Y-20.941
G01 F300 X62.569 Y-20.881
G01 F300 X63.750 Y-20.881
G01 F300 X63.750 Y-27.785
G01 F300 X59.003 Y-27.785
G01 F300 X58.927 Y-27.802
G01 F300 X58.856 Y-27.833
G01 F300 X58.793 Y-27.879
G01 F300 X58.741 Y-27.937
G01 F300 X58.702 Y-28.004
G01 F300 X58.678 Y-28.079
G01 F300 X58.670 Y-28.152
G01 F300 X58.670 Y-37.899
G01 F300 X57.382 Y-37.918
G01 F300 X57.376 Y-37.901
G01 F300 X57.276 Y-37.728
G01 F300 X57.143 Y-37.580
G01 F300 X56.981 Y-37.462
G01 F300 X56.798 Y-37.381
G01 F300 X56.602 Y-37.339
G01 F300 X56.402 Y-37.339
G01 F300 X56.207 Y-37.381
G01 F300 X56.024 Y-37.462
G01 F300 X55.862 Y-37.580
G01 F300 X55.728 Y-37.728
G01 F300 X55.628 Y-37.901
G01 F300 X55.566 Y-38.092
G01 F300 X55.545 Y-38.291
G01 F300 X55.566 Y-38.489
G01 F300 X55.628 Y-38.680
G01 F300 X55.728 Y-38.853
G01 F300 X55.862 Y-39.002
G01 F300 X56.024 Y-39.119
G01 F300 X56.207 Y-39.201
G01 F300 X56.402 Y-39.242
G01 F300 X56.602 Y-39.242
G01 F300 X56.798 Y-39.201
G01 F300 X56.981 Y-39.119
G01 F300 X57.143 Y-39.002
G01 F300 X57.276 Y-38.853
G01 F300 X57.377 Y-38.680
G01 F300 X57.383 Y-38.660
G01 F300 X59.082 Y-38.636
G01 F300 X59.158 Y-38.620
G01 F300 X59.229 Y-38.588
G01 F300 X59.292 Y-38.542
G01 F300 X59.344 Y-38.484
G01 F300 X59.383 Y-38.417
G01 F300 X59.407 Y-38.343
G01 F300 X59.415 Y-38.269
G01 F300 X59.415 Y-28.527
G01 F300 X64.161 Y-28.527
G01 F300 X64.237 Y-28.510
G01 F300 X64.309 Y-28.479
G01 F300 X64.372 Y-28.433
G01 F300 X64.424 Y-28.375
G01 F300 X64.463 Y-28.308
G01 F300 X64.487 Y-28.234
G01 F300 X64.495 Y-28.160
G01 F300 X64.495 Y-10.702
G01 F300 X65.579 Y-10.717
G01 F300 X65.579 Y-11.434
G01 F300 X67.746 Y-11.434
G01 F300 X67.746 Y-9.267
G01 F300 X65.579 Y-9.267
G00 F3000 Z3.000
G00 F3000 X4.619 Y-9.267
G00 F1500 Z0
G01 F300 Z-0.200
G01 F300 X4.619 Y-9.975
G01 F300 X3.195 Y-9.955
G01 F300 X3.123 Y-9.955
G01 F300 X3.047 Y-9.971
G01 F300 X2.976 Y-10.003
G01 F300 X2.914 Y-10.047
G01 F300 X0.369 Y-12.643
G01 F300 X0.321 Y-12.697
G01 F300 X0.282 Y-12.764
G01 F300 X0.258 Y-12.838
G01 F300 X0.250 Y-12.913
G01 F300 X0.250 Y-35.729
G01 F300 X0.258 Y-35.803
G01 F300 X0.282 Y-35.877
G01 F300 X0.321 Y-35.944
G01 F300 X0.369 Y-35.998
G01 F300 X2.228 Y-37.881
G01 F300 X2.164 Y-38.079
G01 F300 X2.142 Y-38.291
G01 F300 X2.164 Y-38.503
G01 F300 X2.230 Y-38.706
G01 F300 X2.337 Y-38.890
G01 F300 X2.480 Y-39.049
G01 F300 X2.652 Y-39.174
G01 F300 X2.847 Y-39.261
G01 F300 X3.056 Y-39.305
G01 F300 X3.269 Y-39.305
G01 F300 X3.478 Y-39.261
G01 F300 X3.673 Y-39.174
G01 F300 X3.845 Y-39.049
G01 F300 X3.988 Y-38.890
G01 F300 X4.095 Y-38.706
G01 F300 X4.117 Y-38.636
G01 F300 X15.927 Y-38.636
G01 F300 X16.003 Y-38.620
G01 F300 X16.074 Y-38.588
G01 F300 X16.136 Y-38.543
G01 F300 X18.583 Y-36.096
G01 F300 X23.547 Y-36.096
G01 F300 X23.623 Y-36.080
G01 F300 X23.694 Y-36.048
G01 F300 X23.756 Y-36.003
G01 F300 X26.178 Y-33.557
G01 F300 X30.155 Y-33.580
G01 F300 X30.170 Y-33.626
G01 F300 X30.277 Y-33.810
G01 F300 X30.420 Y-33.969
G01 F300 X30.592 Y-34.094
G01 F300 X30.787 Y-34.181
G01 F300 X30.996 Y-34.225
G01 F300 X31.209 Y-34.225
G01 F300 X31.418 Y-34.181
G01 F300 X31.613 Y-34.094
G01 F300 X31.785 Y-33.969
G01 F300 X31.928 Y-33.810
G01 F300 X32.035 Y-33.626
G01 F300 X32.100 Y-33.423
G01 F300 X32.123 Y-33.211
G01 F300 X32.100 Y-32.998
G01 F300 X32.035 Y-32.796
G01 F300 X31.928 Y-32.611
G01 F300 X31.785 Y-32.452
G01 F300 X31.613 Y-32.327
G01 F300 X31.418 Y-32.240
G01 F300 X31.209 Y-32.196
G01 F300 X30.996 Y-32.196
G01 F300 X30.787 Y-32.240
G01 F300 X30.592 Y-32.327
G01 F300 X30.420 Y-32.452
G01 F300 X30.277 Y-32.611
G01 F300 X30.170 Y-32.796
G01 F300 X30.156 Y-32.838
G01 F300 X26.054 Y-32.815
G01 F300 X25.983 Y-32.815
G01 F300 X25.907 Y-32.831
G01 F300 X25.836 Y-32.863
G01 F300 X25.774 Y-32.907
G01 F300 X23.351 Y-35.355
G01 F300 X18.389 Y-35.355
G01 F300 X18.313 Y-35.371
G01 F300 X18.241 Y-35.403
G01 F300 X18.180 Y-35.447
G01 F300 X15.732 Y-37.895
G01 F300 X4.101 Y-37.895
G01 F300 X4.095 Y-37.876
G01 F300 X3.988 Y-37.691
G01 F300 X3.845 Y-37.532
G01 F300 X3.673 Y-37.407
G01 F300 X3.478 Y-37.320
G01 F300 X3.269 Y-37.276
G01 F300 X3.075 Y-37.273
G01 F300 X3.024 Y-37.250
G01 F300 X2.947 Y-37.234
G01 F300 X2.869 Y-37.234
G01 F300 X2.793 Y-37.250
G01 F300 X2.721 Y-37.283
G01 F300 X2.700 Y-37.299
G01 F300 X0.995 Y-35.573
G01 F300 X0.995 Y-13.067
G01 F300 X3.317 Y-10.699
G01 F300 X4.619 Y-10.717
G01 F300 X4.619 Y-11.434
G01 F300 X6.786 Y-11.434
G01 F300 X6.786 Y-9.267
G01 F300 X4.619 Y-9.267
G00 F3000 Z3.000
G00 F3000 X56.402 Y-9.399
G00 F1500 Z0
G01 F300 Z-0.200
G01 F300 X56.207 Y-9.441
G01 F300 X56.024 Y-9.522
G01 F300 X55.862 Y-9.639
G01 F300 X55.728 Y-9.788
G01 F300 X55.628 Y-9.961
G01 F300 X55.566 Y-10.152
G01 F300 X55.545 Y-10.351
G01 F300 X55.566 Y-10.550
G01 F300 X55.628 Y-10.740
G01 F300 X55.728 Y-10.913
G01 F300 X55.862 Y-11.062
G01 F300 X56.024 Y-11.179
G01 F300 X56.207 Y-11.261
G01 F300 X56.402 Y-11.302
G01 F300 X56.602 Y-11.302
G01 F300 X56.798 Y-11.261
G01 F300 X56.981 Y-11.179
G01 F300 X57.143 Y-11.062
G01 F300 X57.276 Y-10.913
G01 F300 X57.376 Y-10.740
G01 F300 X57.438 Y-10.550
G01 F300 X57.459 Y-10.351
G01 F300 X57.438 Y-10.152
G01 F300 X57.376 Y-9.961
G01 F300 X57.276 Y-9.788
G01 F300 X57.143 Y-9.639
G01 F300 X56.981 Y-9.522
G01 F300 X56.798 Y-9.441
G01 F300 X56.602 Y-9.399
G01 F300 X56.402 Y-9.399
G00 F3000 Z3.000
G00 F3000 X41.162 Y-9.399
G00 F1500 Z0
G01 F300 Z-0.200
G01 F300 X40.967 Y-9.441
G01 F300 X40.784 Y-9.522
G01 F300 X40.622 Y-9.639
G01 F300 X40.488 Y-9.788
G01 F300 X40.388 Y-9.961
G01 F300 X40.326 Y-10.152
G01 F300 X40.305 Y-10.351
G01 F300 X40.326 Y-10.550
G01 F300 X40.388 Y-10.740
G01 F300 X40.488 Y-10.913
G01 F300 X40.622 Y-11.062
G01 F300 X40.784 Y-11.179
G01 F300 X40.967 Y-11.261
G01 F300 X41.162 Y-11.302
G01 F300 X41.362 Y-11.302
G01 F300 X41.558 Y-11.261
G01 F300 X41.741 Y-11.179
G01 F300 X41.903 Y-11.062
G01 F300 X42.036 Y-10.913
G01 F300 X42.136 Y-10.740
G01 F300 X42.198 Y-10.550
G01 F300 X42.219 Y-10.351
G01 F300 X42.198 Y-10.152
G01 F300 X42.136 Y-9.961
G01 F300 X42.036 Y-9.788
G01 F300 X41.903 Y-9.639
G01 F300 X41.741 Y-9.522
G01 F300 X41.558 Y-9.441
G01 F300 X41.362 Y-9.399
G01 F300 X41.162 Y-9.399
G00 F3000 Z3.000
G00 F3000 X8.543 Y-10.093
G00 F1500 Z0
G01 F300 Z-0.200
G01 F300 X8.543 Y-10.118
G01 F300 X8.416 Y-10.118
G01 F300 X8.416 Y-10.143
G01 F300 X8.365 Y-10.143
G01 F300 X8.365 Y-10.169
G01 F300 X8.340 Y-10.169
G01 F300 X8.340 Y-10.194
G01 F300 X8.315 Y-10.194
G01 F300 X8.315 Y-10.220
G01 F300 X8.289 Y-10.220
G01 F300 X8.289 Y-10.245
G01 F300 X8.264 Y-10.245
G01 F300 X8.264 Y-10.270
G01 F300 X8.238 Y-10.270
G01 F300 X8.238 Y-10.321
G01 F300 X8.213 Y-10.321
G01 F300 X8.213 Y-10.372
G01 F300 X8.188 Y-10.372
G01 F300 X8.188 Y-11.218
G01 F300 X8.213 Y-11.218
G01 F300 X8.213 Y-11.294
G01 F300 X8.238 Y-11.294
G01 F300 X8.238 Y-11.320
G01 F300 X8.264 Y-11.320
G01 F300 X8.264 Y-11.371
G01 F300 X8.289 Y-11.371
G01 F300 X8.289 Y-11.396
G01 F300 X8.315 Y-11.396
G01 F300 X8.315 Y-11.421
G01 F300 X8.365 Y-11.421
G01 F300 X8.365 Y-11.447
G01 F300 X8.391 Y-11.447
G01 F300 X8.391 Y-11.472
G01 F300 X8.467 Y-11.472
G01 F300 X8.467 Y-11.498
G01 F300 X9.212 Y-11.498
G01 F300 X9.212 Y-10.778
G01 F300 X9.186 Y-10.778
G01 F300 X9.186 Y-10.753
G01 F300 X9.135 Y-10.753
G01 F300 X9.135 Y-10.728
G01 F300 X8.924 Y-10.728
G01 F300 X8.924 Y-10.753
G01 F300 X8.873 Y-10.753
G01 F300 X8.873 Y-10.778
G01 F300 X8.848 Y-10.778
G01 F300 X8.848 Y-10.829
G01 F300 X8.822 Y-10.829
G01 F300 X8.822 Y-11.109
G01 F300 X8.653 Y-11.109
G01 F300 X8.653 Y-11.083
G01 F300 X8.602 Y-11.083
G01 F300 X8.602 Y-11.032
G01 F300 X8.577 Y-11.032
G01 F300 X8.577 Y-10.558
G01 F300 X8.602 Y-10.558
G01 F300 X8.602 Y-10.532
G01 F300 X8.627 Y-10.532
G01 F300 X8.627 Y-10.507
G01 F300 X9.356 Y-10.507
G01 F300 X9.356 Y-10.532
G01 F300 X9.407 Y-10.532
G01 F300 X9.407 Y-10.558
G01 F300 X9.432 Y-10.558
G01 F300 X9.432 Y-10.583
G01 F300 X9.483 Y-10.583
G01 F300 X9.483 Y-10.609
G01 F300 X9.508 Y-10.609
G01 F300 X9.508 Y-10.634
G01 F300 X9.534 Y-10.634
G01 F300 X9.534 Y-10.659
G01 F300 X9.585 Y-10.659
G01 F300 X9.585 Y-10.685
G01 F300 X9.610 Y-10.685
G01 F300 X9.610 Y-10.710
G01 F300 X9.635 Y-10.710
G01 F300 X9.635 Y-10.736
G01 F300 X9.661 Y-10.736
G01 F300 X9.661 Y-10.761
G01 F300 X9.712 Y-10.761
G01 F300 X9.712 Y-10.786
G01 F300 X9.737 Y-10.786
G01 F300 X9.737 Y-10.812
G01 F300 X9.762 Y-10.812
G01 F300 X9.762 Y-10.837
G01 F300 X9.813 Y-10.837
G01 F300 X9.813 Y-10.863
G01 F300 X9.838 Y-10.863
G01 F300 X9.838 Y-10.888
G01 F300 X9.864 Y-10.888
G01 F300 X9.864 Y-10.913
G01 F300 X9.889 Y-10.913
G01 F300 X9.889 Y-10.964
G01 F300 X9.915 Y-10.964
G01 F300 X9.915 Y-11.447
G01 F300 X9.940 Y-11.447
G01 F300 X9.940 Y-11.472
G01 F300 X9.966 Y-11.472
G01 F300 X9.966 Y-11.498
G01 F300 X10.228 Y-11.498
G01 F300 X10.228 Y-11.472
G01 F300 X10.253 Y-11.472
G01 F300 X10.253 Y-11.447
G01 F300 X10.278 Y-11.447
G01 F300 X10.278 Y-11.421
G01 F300 X10.304 Y-11.421
G01 F300 X10.304 Y-10.778
G01 F300 X10.278 Y-10.778
G01 F300 X10.278 Y-10.702
G01 F300 X10.253 Y-10.702
G01 F300 X10.253 Y-10.651
G01 F300 X10.228 Y-10.651
G01 F300 X10.228 Y-10.626
G01 F300 X10.202 Y-10.626
G01 F300 X10.202 Y-10.601
G01 F300 X10.177 Y-10.601
G01 F300 X10.177 Y-10.575
G01 F300 X10.151 Y-10.575
G01 F300 X10.151 Y-10.550
G01 F300 X10.126 Y-10.550
G01 F300 X10.126 Y-10.524
G01 F300 X10.101 Y-10.524
G01 F300 X10.101 Y-10.499
G01 F300 X10.075 Y-10.499
G01 F300 X10.075 Y-10.474
G01 F300 X10.024 Y-10.474
G01 F300 X10.024 Y-10.448
G01 F300 X9.999 Y-10.448
G01 F300 X9.999 Y-10.423
G01 F300 X9.974 Y-10.423
G01 F300 X9.974 Y-10.397
G01 F300 X9.923 Y-10.397
G01 F300 X9.923 Y-10.372
G01 F300 X9.897 Y-10.372
G01 F300 X9.897 Y-10.347
G01 F300 X9.872 Y-10.347
G01 F300 X9.872 Y-10.321
G01 F300 X9.821 Y-10.321
G01 F300 X9.821 Y-10.296
G01 F300 X9.796 Y-10.296
G01 F300 X9.796 Y-10.270
G01 F300 X9.770 Y-10.270
G01 F300 X9.770 Y-10.245
G01 F300 X9.745 Y-10.245
G01 F300 X9.745 Y-10.220
G01 F300 X9.694 Y-10.220
G01 F300 X9.694 Y-10.194
G01 F300 X9.669 Y-10.194
G01 F300 X9.669 Y-10.169
G01 F300 X9.618 Y-10.169
G01 F300 X9.618 Y-10.143
G01 F300 X9.567 Y-10.143
G01 F300 X9.567 Y-10.118
G01 F300 X9.415 Y-10.118
G01 F300 X9.415 Y-10.093
G01 F300 X8.543 Y-10.093
G00 F3000 Z3.000
G00 F3000 X56.402 Y-11.939
G00 F1500 Z0
G01 F300 Z-0.200
G01 F300 X56.207 Y-11.981
G01 F300 X56.024 Y-12.062
G01 F300 X55.862 Y-12.180
G01 F300 X55.728 Y-12.328
G01 F300 X55.628 Y-12.501
G01 F300 X55.566 Y-12.692
G01 F300 X55.545 Y-12.891
G01 F300 X55.566 Y-13.090
G01 F300 X55.628 Y-13.280
G01 F300 X55.728 Y-13.453
G01 F300 X55.862 Y-13.602
G01 F300 X56.024 Y-13.719
G01 F300 X56.207 Y-13.801
G01 F300 X56.402 Y-13.842
G01 F300 X56.602 Y-13.842
G01 F300 X56.798 Y-13.801
G01 F300 X56.981 Y-13.719
G01 F300 X57.143 Y-13.602
G01 F300 X57.276 Y-13.453
G01 F300 X57.376 Y-13.280
G01 F300 X57.438 Y-13.090
G01 F300 X57.459 Y-12.891
G01 F300 X57.438 Y-12.692
G01 F300 X57.376 Y-12.501
G01 F300 X57.276 Y-12.328
G01 F300 X57.143 Y-12.180
G01 F300 X56.981 Y-12.062
G01 F300 X56.798 Y-11.981
G01 F300 X56.602 Y-11.939
G01 F300 X56.402 Y-11.939
G00 F3000 Z3.000
G00 F3000 X8.238 Y-11.947
G00 F1500 Z0
G01 F300 Z-0.200
G01 F300 X8.238 Y-11.972
G01 F300 X8.213 Y-11.972
G01 F300 X8.213 Y-11.998
G01 F300 X8.188 Y-11.998
G01 F300 X8.188 Y-12.260
G01 F300 X8.213 Y-12.260
G01 F300 X8.213 Y-12.285
G01 F300 X8.238 Y-12.285
G01 F300 X8.238 Y-12.310
G01 F300 X8.264 Y-12.310
G01 F300 X8.264 Y-12.336
G01 F300 X9.610 Y-12.336
G01 F300 X9.610 Y-12.353
G01 F300 X9.559 Y-12.353
G01 F300 X9.559 Y-12.379
G01 F300 X9.534 Y-12.379
G01 F300 X9.534 Y-12.404
G01 F300 X9.483 Y-12.404
G01 F300 X9.483 Y-12.429
G01 F300 X9.407 Y-12.429
G01 F300 X9.407 Y-12.455
G01 F300 X9.305 Y-12.455
G01 F300 X9.305 Y-12.480
G01 F300 X9.280 Y-12.480
G01 F300 X9.280 Y-12.531
G01 F300 X9.254 Y-12.531
G01 F300 X9.254 Y-12.742
G01 F300 X9.280 Y-12.742
G01 F300 X9.280 Y-12.793
G01 F300 X9.305 Y-12.793
G01 F300 X9.305 Y-12.818
G01 F300 X9.381 Y-12.818
G01 F300 X9.381 Y-12.844
G01 F300 X9.483 Y-12.844
G01 F300 X9.483 Y-12.869
G01 F300 X9.534 Y-12.869
G01 F300 X9.534 Y-12.895
G01 F300 X9.559 Y-12.895
G01 F300 X9.559 Y-12.920
G01 F300 X9.610 Y-12.920
G01 F300 X9.610 Y-12.937
G01 F300 X8.289 Y-12.937
G01 F300 X8.289 Y-12.963
G01 F300 X8.238 Y-12.963
G01 F300 X8.238 Y-12.988
G01 F300 X8.213 Y-12.988
G01 F300 X8.213 Y-13.014
G01 F300 X8.188 Y-13.014
G01 F300 X8.188 Y-13.276
G01 F300 X8.213 Y-13.276
G01 F300 X8.213 Y-13.301
G01 F300 X8.238 Y-13.301
G01 F300 X8.238 Y-13.326
G01 F300 X10.304 Y-13.326
G01 F300 X10.304 Y-12.887
G01 F300 X10.278 Y-12.887
G01 F300 X10.278 Y-12.861
G01 F300 X10.253 Y-12.861
G01 F300 X10.253 Y-12.836
G01 F300 X10.228 Y-12.836
G01 F300 X10.228 Y-12.810
G01 F300 X10.177 Y-12.810
G01 F300 X10.177 Y-12.785
G01 F300 X10.151 Y-12.785
G01 F300 X10.151 Y-12.760
G01 F300 X10.101 Y-12.760
G01 F300 X10.101 Y-12.734
G01 F300 X10.075 Y-12.734
G01 F300 X10.075 Y-12.709
G01 F300 X10.024 Y-12.709
G01 F300 X10.024 Y-12.683
G01 F300 X9.999 Y-12.683
G01 F300 X9.999 Y-12.658
G01 F300 X9.974 Y-12.658
G01 F300 X9.974 Y-12.615
G01 F300 X9.999 Y-12.615
G01 F300 X9.999 Y-12.590
G01 F300 X10.050 Y-12.590
G01 F300 X10.050 Y-12.564
G01 F300 X10.075 Y-12.564
G01 F300 X10.075 Y-12.539
G01 F300 X10.101 Y-12.539
G01 F300 X10.101 Y-12.514
G01 F300 X10.151 Y-12.514
G01 F300 X10.151 Y-12.488
G01 F300 X10.177 Y-12.488
G01 F300 X10.177 Y-12.463
G01 F300 X10.228 Y-12.463
G01 F300 X10.228 Y-12.437
G01 F300 X10.253 Y-12.437
G01 F300 X10.253 Y-12.412
G01 F300 X10.278 Y-12.412
G01 F300 X10.278 Y-12.387
G01 F300 X10.304 Y-12.387
G01 F300 X10.304 Y-11.947
G01 F300 X8.238 Y-11.947
G00 F3000 Z3.000
G00 F3000 X66.549 Y-12.778
G00 F1500 Z0
G01 F300 Z-0.200
G01 F300 X66.327 Y-12.825
G01 F300 X66.120 Y-12.917
G01 F300 X65.937 Y-13.050
G01 F300 X65.785 Y-13.219
G01 F300 X65.672 Y-13.415
G01 F300 X65.602 Y-13.631
G01 F300 X65.578 Y-13.856
G01 F300 X65.602 Y-14.081
G01 F300 X65.672 Y-14.297
G01 F300 X65.785 Y-14.493
G01 F300 X65.937 Y-14.661
G01 F300 X66.121 Y-14.795
G01 F300 X66.290 Y-14.868
G01 F300 X66.290 Y-30.300
G01 F300 X61.518 Y-30.300
G01 F300 X61.442 Y-30.316
G01 F300 X61.371 Y-30.348
G01 F300 X61.308 Y-30.394
G01 F300 X61.255 Y-30.452
G01 F300 X61.216 Y-30.519
G01 F300 X61.192 Y-30.593
G01 F300 X61.185 Y-30.667
G01 F300 X61.185 Y-40.460
G01 F300 X57.382 Y-40.460
G01 F300 X57.376 Y-40.441
G01 F300 X57.276 Y-40.268
G01 F300 X57.143 Y-40.120
G01 F300 X56.981 Y-40.002
G01 F300 X56.798 Y-39.921
G01 F300 X56.602 Y-39.879
G01 F300 X56.402 Y-39.879
G01 F300 X56.207 Y-39.921
G01 F300 X56.024 Y-40.002
G01 F300 X55.862 Y-40.120
G01 F300 X55.728 Y-40.268
G01 F300 X55.628 Y-40.441
G01 F300 X55.566 Y-40.632
G01 F300 X55.545 Y-40.831
G01 F300 X55.566 Y-41.029
G01 F300 X55.628 Y-41.220
G01 F300 X55.728 Y-41.393
G01 F300 X55.862 Y-41.542
G01 F300 X56.024 Y-41.659
G01 F300 X56.207 Y-41.741
G01 F300 X56.402 Y-41.782
G01 F300 X56.602 Y-41.782
G01 F300 X56.798 Y-41.741
G01 F300 X56.981 Y-41.659
G01 F300 X57.143 Y-41.542
G01 F300 X57.276 Y-41.393
G01 F300 X57.376 Y-41.220
G01 F300 X57.383 Y-41.201
G01 F300 X61.596 Y-41.201
G01 F300 X61.672 Y-41.185
G01 F300 X61.743 Y-41.153
G01 F300 X61.806 Y-41.108
G01 F300 X61.858 Y-41.050
G01 F300 X61.897 Y-40.982
G01 F300 X61.921 Y-40.908
G01 F300 X61.929 Y-40.834
G01 F300 X61.929 Y-31.041
G01 F300 X66.701 Y-31.041
G01 F300 X66.778 Y-31.025
G01 F300 X66.849 Y-30.993
G01 F300 X66.912 Y-30.948
G01 F300 X66.964 Y-30.890
G01 F300 X67.003 Y-30.822
G01 F300 X67.027 Y-30.748
G01 F300 X67.035 Y-30.674
G01 F300 X67.044 Y-14.866
G01 F300 X67.204 Y-14.795
G01 F300 X67.388 Y-14.661
G01 F300 X67.539 Y-14.493
G01 F300 X67.653 Y-14.297
G01 F300 X67.722 Y-14.081
G01 F300 X67.746 Y-13.856
G01 F300 X67.722 Y-13.631
G01 F300 X67.653 Y-13.415
G01 F300 X67.539 Y-13.219
G01 F300 X67.388 Y-13.050
G01 F300 X67.204 Y-12.917
G01 F300 X66.997 Y-12.825
G01 F300 X66.776 Y-12.778
G01 F300 X66.549 Y-12.778
G00 F3000 Z3.000
G00 F3000 X3.082 Y-13.369
G00 F1500 Z0
G01 F300 Z-0.200
G01 F300 X3.082 Y-13.395
G01 F300 X3.057 Y-13.395
G01 F300 X3.057 Y-13.420
G01 F300 X3.031 Y-13.420
G01 F300 X3.031 Y-13.471
G01 F300 X3.006 Y-13.471
G01 F300 X3.006 Y-13.852
G01 F300 X2.625 Y-13.852
G01 F300 X2.625 Y-13.877
G01 F300 X2.574 Y-13.877
G01 F300 X2.574 Y-13.903
G01 F300 X2.549 Y-13.903
G01 F300 X2.549 Y-13.928
G01 F300 X2.523 Y-13.928
G01 F300 X2.523 Y-14.190
G01 F300 X2.549 Y-14.190
G01 F300 X2.549 Y-14.215
G01 F300 X2.574 Y-14.215
G01 F300 X2.574 Y-14.241
G01 F300 X2.625 Y-14.241
G01 F300 X2.625 Y-14.266
G01 F300 X3.006 Y-14.266
G01 F300 X3.006 Y-14.647
G01 F300 X3.031 Y-14.647
G01 F300 X3.031 Y-14.698
G01 F300 X3.057 Y-14.698
G01 F300 X3.057 Y-14.723
G01 F300 X3.082 Y-14.723
G01 F300 X3.082 Y-14.749
G01 F300 X3.344 Y-14.749
G01 F300 X3.344 Y-14.723
G01 F300 X3.369 Y-14.723
G01 F300 X3.369 Y-14.698
G01 F300 X3.395 Y-14.698
G01 F300 X3.395 Y-14.266
G01 F300 X3.776 Y-14.266
G01 F300 X3.776 Y-14.241
G01 F300 X3.852 Y-14.241
G01 F300 X3.852 Y-14.215
G01 F300 X3.878 Y-14.215
G01 F300 X3.878 Y-14.190
G01 F300 X3.903 Y-14.190
G01 F300 X3.903 Y-13.928
G01 F300 X3.878 Y-13.928
G01 F300 X3.878 Y-13.903
G01 F300 X3.852 Y-13.903
G01 F300 X3.852 Y-13.877
G01 F300 X3.801 Y-13.877
G01 F300 X3.801 Y-13.852
G01 F300 X3.395 Y-13.852
G01 F300 X3.395 Y-13.420
G01 F300 X3.369 Y-13.420
G01 F300 X3.369 Y-13.395
G01 F300 X3.344 Y-13.395
G01 F300 X3.344 Y-13.369
G01 F300 X3.082 Y-13.369
G00 F3000 Z3.000
G00 F3000 X47.380 Y-13.649
G00 F1500 Z0
G01 F300 Z-0.200
G01 F300 X47.380 Y-13.674
G01 F300 X47.253 Y-13.674
G01 F300 X47.253 Y-13.699
G01 F300 X47.202 Y-13.699
G01 F300 X47.202 Y-13.725
G01 F300 X47.151 Y-13.725
G01 F300 X47.151 Y-13.750
G01 F300 X47.126 Y-13.750
G01 F300 X47.126 Y-13.776
G01 F300 X47.100 Y-13.776
G01 F300 X47.100 Y-13.801
G01 F300 X47.075 Y-13.801
G01 F300 X47.075 Y-13.852
G01 F300 X47.050 Y-13.852
G01 F300 X47.050 Y-13.903
G01 F300 X47.024 Y-13.903
G01 F300 X47.024 Y-13.953
G01 F300 X46.999 Y-13.953
G01 F300 X46.999 Y-15.358
G01 F300 X47.024 Y-15.358
G01 F300 X47.024 Y-15.435
G01 F300 X47.050 Y-15.435
G01 F300 X47.050 Y-15.485
G01 F300 X47.075 Y-15.485
G01 F300 X47.075 Y-15.536
G01 F300 X47.100 Y-15.536
G01 F300 X47.100 Y-15.562
G01 F300 X47.126 Y-15.562
G01 F300 X47.126 Y-15.587
G01 F300 X47.177 Y-15.587
G01 F300 X47.177 Y-15.612
G01 F300 X47.202 Y-15.612
G01 F300 X47.202 Y-15.638
G01 F300 X47.253 Y-15.638
G01 F300 X47.253 Y-15.663
G01 F300 X49.826 Y-15.663
G01 F300 X49.826 Y-15.638
G01 F300 X49.877 Y-15.638
G01 F300 X49.877 Y-15.612
G01 F300 X49.928 Y-15.612
G01 F300 X49.928 Y-15.587
G01 F300 X49.953 Y-15.587
G01 F300 X49.953 Y-15.562
G01 F300 X49.979 Y-15.562
G01 F300 X49.979 Y-15.536
G01 F300 X50.004 Y-15.536
G01 F300 X50.004 Y-15.485
G01 F300 X50.029 Y-15.485
G01 F300 X50.029 Y-15.460
G01 F300 X50.055 Y-15.460
G01 F300 X50.055 Y-15.384
G01 F300 X50.080 Y-15.384
G01 F300 X50.080 Y-13.953
G01 F300 X50.055 Y-13.953
G01 F300 X50.055 Y-13.877
G01 F300 X50.029 Y-13.877
G01 F300 X50.029 Y-13.852
G01 F300 X50.004 Y-13.852
G01 F300 X50.004 Y-13.801
G01 F300 X49.979 Y-13.801
G01 F300 X49.979 Y-13.776
G01 F300 X49.953 Y-13.776
G01 F300 X49.953 Y-13.750
G01 F300 X49.928 Y-13.750
G01 F300 X49.928 Y-13.725
G01 F300 X49.877 Y-13.725
G01 F300 X49.877 Y-13.699
G01 F300 X49.826 Y-13.699
G01 F300 X49.826 Y-13.674
G01 F300 X49.699 Y-13.674
G01 F300 X49.699 Y-13.649
G01 F300 X47.380 Y-13.649
G00 F3000 Z3.000
G00 F3000 X47.540 Y-14.165
G00 F1500 Z0
G01 F300 Z-0.200
G01 F300 X49.539 Y-14.165
G01 F300 X49.539 Y-14.190
G01 F300 X49.564 Y-14.190
G01 F300 X49.564 Y-15.147
G01 F300 X47.515 Y-15.147
G01 F300 X47.515 Y-14.190
G01 F300 X47.540 Y-14.190
G01 F300 X47.540 Y-14.165
G00 F3000 Z3.000
G00 F3000 X36.076 Y-14.416
G00 F1500 Z0
G01 F300 Z-0.200
G01 F300 X35.867 Y-14.460
G01 F300 X35.672 Y-14.547
G01 F300 X35.500 Y-14.672
G01 F300 X35.357 Y-14.831
G01 F300 X35.250 Y-15.016
G01 F300 X35.184 Y-15.219
G01 F300 X35.162 Y-15.431
G01 F300 X35.184 Y-15.643
G01 F300 X35.250 Y-15.846
G01 F300 X35.357 Y-16.030
G01 F300 X35.500 Y-16.189
G01 F300 X35.672 Y-16.314
G01 F300 X35.867 Y-16.401
G01 F300 X36.076 Y-16.445
G01 F300 X36.289 Y-16.445
G01 F300 X36.498 Y-16.401
G01 F300 X36.693 Y-16.314
G01 F300 X36.865 Y-16.189
G01 F300 X37.008 Y-16.030
G01 F300 X37.114 Y-15.846
G01 F300 X37.127 Y-15.807
G01 F300 X40.392 Y-15.826
G01 F300 X40.398 Y-15.836
G01 F300 X40.390 Y-15.861
G01 F300 X40.382 Y-15.939
G01 F300 X40.390 Y-16.016
G01 F300 X40.414 Y-16.090
G01 F300 X40.453 Y-16.158
G01 F300 X40.505 Y-16.216
G01 F300 X40.568 Y-16.261
G01 F300 X40.639 Y-16.293
G01 F300 X40.715 Y-16.309
G01 F300 X40.795 Y-16.309
G01 F300 X40.859 Y-16.293
G01 F300 X40.967 Y-16.341
G01 F300 X41.162 Y-16.382
G01 F300 X41.362 Y-16.382
G01 F300 X41.558 Y-16.341
G01 F300 X41.741 Y-16.259
G01 F300 X41.903 Y-16.142
G01 F300 X42.036 Y-15.993
G01 F300 X42.136 Y-15.820
G01 F300 X42.198 Y-15.630
G01 F300 X42.219 Y-15.431
G01 F300 X42.198 Y-15.232
G01 F300 X42.136 Y-15.041
G01 F300 X42.036 Y-14.868
G01 F300 X41.903 Y-14.720
G01 F300 X41.741 Y-14.602
G01 F300 X41.558 Y-14.521
G01 F300 X41.362 Y-14.479
G01 F300 X41.162 Y-14.479
G01 F300 X40.967 Y-14.521
G01 F300 X40.784 Y-14.602
G01 F300 X40.622 Y-14.720
G01 F300 X40.488 Y-14.868
G01 F300 X40.388 Y-15.041
G01 F300 X40.382 Y-15.060
G01 F300 X37.129 Y-15.060
G01 F300 X37.114 Y-15.016
G01 F300 X37.008 Y-14.831
G01 F300 X36.865 Y-14.672
G01 F300 X36.693 Y-14.547
G01 F300 X36.498 Y-14.460
G01 F300 X36.289 Y-14.416
G01 F300 X36.076 Y-14.416
G00 F3000 Z3.000
G00 F3000 X25.916 Y-14.416
G00 F1500 Z0
G01 F300 Z-0.200
G01 F300 X25.707 Y-14.460
G01 F300 X25.512 Y-14.547
G01 F300 X25.340 Y-14.672
G01 F300 X25.197 Y-14.831
G01 F300 X25.090 Y-15.016
G01 F300 X25.075 Y-15.061
G01 F300 X20.980 Y-15.085
G01 F300 X19.216 Y-15.062
G01 F300 X19.125 Y-14.905
G01 F300 X19.000 Y-14.767
G01 F300 X18.849 Y-14.657
G01 F300 X18.678 Y-14.581
G01 F300 X18.496 Y-14.542
G01 F300 X18.309 Y-14.542
G01 F300 X18.126 Y-14.581
G01 F300 X17.956 Y-14.657
G01 F300 X17.805 Y-14.767
G01 F300 X17.680 Y-14.905
G01 F300 X17.586 Y-15.067
G01 F300 X17.529 Y-15.245
G01 F300 X17.509 Y-15.431
G01 F300 X17.529 Y-15.616
G01 F300 X17.586 Y-15.794
G01 F300 X17.680 Y-15.956
G01 F300 X17.805 Y-16.095
G01 F300 X17.956 Y-16.204
G01 F300 X18.126 Y-16.280
G01 F300 X18.309 Y-16.319
G01 F300 X18.496 Y-16.319
G01 F300 X18.678 Y-16.280
G01 F300 X18.849 Y-16.204
G01 F300 X19.000 Y-16.095
G01 F300 X19.125 Y-15.956
G01 F300 X19.213 Y-15.804
G01 F300 X20.935 Y-15.827
G01 F300 X21.000 Y-15.827
G01 F300 X25.076 Y-15.803
G01 F300 X25.090 Y-15.846
G01 F300 X25.197 Y-16.030
G01 F300 X25.340 Y-16.189
G01 F300 X25.512 Y-16.314
G01 F300 X25.707 Y-16.401
G01 F300 X25.916 Y-16.445
G01 F300 X26.129 Y-16.445
G01 F300 X26.338 Y-16.401
G01 F300 X26.533 Y-16.314
G01 F300 X26.705 Y-16.189
G01 F300 X26.848 Y-16.030
G01 F300 X26.955 Y-15.846
G01 F300 X27.020 Y-15.643
G01 F300 X27.043 Y-15.431
G01 F300 X27.020 Y-15.219
G01 F300 X26.955 Y-15.016
G01 F300 X26.848 Y-14.831
G01 F300 X26.705 Y-14.672
G01 F300 X26.533 Y-14.547
G01 F300 X26.338 Y-14.460
G01 F300 X26.129 Y-14.416
G01 F300 X25.916 Y-14.416
G00 F3000 Z3.000
G00 F3000 X56.402 Y-14.479
G00 F1500 Z0
G01 F300 Z-0.200
G01 F300 X56.207 Y-14.521
G01 F300 X56.024 Y-14.602
G01 F300 X55.862 Y-14.720
G01 F300 X55.728 Y-14.868
G01 F300 X55.628 Y-15.041
G01 F300 X55.566 Y-15.232
G01 F300 X55.545 Y-15.431
G01 F300 X55.566 Y-15.630
G01 F300 X55.628 Y-15.820
G01 F300 X55.728 Y-15.993
G01 F300 X55.862 Y-16.142
G01 F300 X56.024 Y-16.259
G01 F300 X56.207 Y-16.341
G01 F300 X56.402 Y-16.382
G01 F300 X56.602 Y-16.382
G01 F300 X56.798 Y-16.341
G01 F300 X56.981 Y-16.259
G01 F300 X57.143 Y-16.142
G01 F300 X57.276 Y-15.993
G01 F300 X57.376 Y-15.820
G01 F300 X57.438 Y-15.630
G01 F300 X57.459 Y-15.431
G01 F300 X57.438 Y-15.232
G01 F300 X57.376 Y-15.041
G01 F300 X57.276 Y-14.868
G01 F300 X57.143 Y-14.720
G01 F300 X56.981 Y-14.602
G01 F300 X56.798 Y-14.521
G01 F300 X56.602 Y-14.479
G01 F300 X56.402 Y-14.479
G00 F3000 Z3.000
G00 F3000 X68.005 Y-16.697
G00 F1500 Z0
G01 F300 Z-0.200
G01 F300 X68.005 Y-16.722
G01 F300 X67.954 Y-16.722
G01 F300 X67.954 Y-16.747
G01 F300 X67.928 Y-16.747
G01 F300 X67.928 Y-16.798
G01 F300 X67.903 Y-16.798
G01 F300 X67.903 Y-17.205
G01 F300 X67.496 Y-17.205
G01 F300 X67.496 Y-17.230
G01 F300 X67.446 Y-17.230
G01 F300 X67.446 Y-17.255
G01 F300 X67.420 Y-17.255
G01 F300 X67.420 Y-17.543
G01 F300 X67.446 Y-17.543
G01 F300 X67.446 Y-17.568
G01 F300 X67.471 Y-17.568
G01 F300 X67.471 Y-17.594
G01 F300 X67.903 Y-17.594
G01 F300 X67.903 Y-18.000
G01 F300 X67.928 Y-18.000
G01 F300 X67.928 Y-18.051
G01 F300 X67.954 Y-18.051
G01 F300 X67.954 Y-18.076
G01 F300 X67.979 Y-18.076
G01 F300 X67.979 Y-18.102
G01 F300 X68.241 Y-18.102
G01 F300 X68.241 Y-18.076
G01 F300 X68.267 Y-18.076
G01 F300 X68.267 Y-18.051
G01 F300 X68.292 Y-18.051
G01 F300 X68.292 Y-17.619
G01 F300 X68.317 Y-17.619
G01 F300 X68.317 Y-17.594
G01 F300 X68.749 Y-17.594
G01 F300 X68.749 Y-17.568
G01 F300 X68.775 Y-17.568
G01 F300 X68.775 Y-17.543
G01 F300 X68.800 Y-17.543
G01 F300 X68.800 Y-17.281
G01 F300 X68.775 Y-17.281
G01 F300 X68.775 Y-17.230
G01 F300 X68.724 Y-17.230
G01 F300 X68.724 Y-17.205
G01 F300 X68.292 Y-17.205
G01 F300 X68.292 Y-16.773
G01 F300 X68.267 Y-16.773
G01 F300 X68.267 Y-16.722
G01 F300 X68.216 Y-16.722
G01 F300 X68.216 Y-16.697
G01 F300 X68.005 Y-16.697
G00 F3000 Z3.000
G00 F3000 X48.878 Y-16.951
G00 F1500 Z0
G01 F300 Z-0.200
G01 F300 X48.878 Y-16.976
G01 F300 X48.828 Y-16.976
G01 F300 X48.828 Y-17.001
G01 F300 X48.802 Y-17.001
G01 F300 X48.802 Y-17.052
G01 F300 X48.777 Y-17.052
G01 F300 X48.777 Y-17.128
G01 F300 X48.751 Y-17.128
G01 F300 X48.751 Y-17.644
G01 F300 X48.777 Y-17.644
G01 F300 X48.777 Y-17.746
G01 F300 X48.802 Y-17.746
G01 F300 X48.802 Y-17.771
G01 F300 X48.828 Y-17.771
G01 F300 X48.828 Y-17.797
G01 F300 X48.853 Y-17.797
G01 F300 X48.853 Y-17.822
G01 F300 X48.904 Y-17.822
G01 F300 X48.904 Y-17.848
G01 F300 X49.445 Y-17.848
G01 F300 X49.445 Y-17.822
G01 F300 X49.496 Y-17.822
G01 F300 X49.496 Y-17.797
G01 F300 X49.547 Y-17.797
G01 F300 X49.547 Y-17.771
G01 F300 X49.572 Y-17.771
G01 F300 X49.572 Y-17.721
G01 F300 X49.598 Y-17.721
G01 F300 X49.598 Y-17.078
G01 F300 X49.572 Y-17.078
G01 F300 X49.572 Y-17.027
G01 F300 X49.547 Y-17.027
G01 F300 X49.547 Y-17.001
G01 F300 X49.521 Y-17.001
G01 F300 X49.521 Y-16.976
G01 F300 X49.496 Y-16.976
G01 F300 X49.496 Y-16.951
G01 F300 X48.878 Y-16.951
G00 F3000 Z3.000
G00 F3000 X25.916 Y-16.956
G00 F1500 Z0
G01 F300 Z-0.200
G01 F300 X25.707 Y-17.000
G01 F300 X25.512 Y-17.087
G01 F300 X25.340 Y-17.212
G01 F300 X25.197 Y-17.371
G01 F300 X25.090 Y-17.556
G01 F300 X25.075 Y-17.601
G01 F300 X20.929 Y-17.625
G01 F300 X20.853 Y-17.642
G01 F300 X20.785 Y-17.672
G01 F300 X18.939 Y-18.710
G01 F300 X18.849 Y-18.645
G01 F300 X18.678 Y-18.569
G01 F300 X18.496 Y-18.530
G01 F300 X18.309 Y-18.530
G01 F300 X18.126 Y-18.569
G01 F300 X17.956 Y-18.645
G01 F300 X17.805 Y-18.755
G01 F300 X17.680 Y-18.893
G01 F300 X17.586 Y-19.055
G01 F300 X17.529 Y-19.233
G01 F300 X17.509 Y-19.418
G01 F300 X17.529 Y-19.604
G01 F300 X17.586 Y-19.782
G01 F300 X17.680 Y-19.944
G01 F300 X17.805 Y-20.082
G01 F300 X17.956 Y-20.192
G01 F300 X18.126 Y-20.268
G01 F300 X18.309 Y-20.307
G01 F300 X18.496 Y-20.307
G01 F300 X18.678 Y-20.268
G01 F300 X18.849 Y-20.192
G01 F300 X19.000 Y-20.082
G01 F300 X19.125 Y-19.944
G01 F300 X19.218 Y-19.782
G01 F300 X19.276 Y-19.604
G01 F300 X19.296 Y-19.418
G01 F300 X19.290 Y-19.367
G01 F300 X21.069 Y-18.366
G01 F300 X25.076 Y-18.343
G01 F300 X25.090 Y-18.386
G01 F300 X25.197 Y-18.570
G01 F300 X25.340 Y-18.729
G01 F300 X25.512 Y-18.854
G01 F300 X25.707 Y-18.941
G01 F300 X25.916 Y-18.985
G01 F300 X26.129 Y-18.985
G01 F300 X26.338 Y-18.941
G01 F300 X26.533 Y-18.854
G01 F300 X26.705 Y-18.729
G01 F300 X26.848 Y-18.570
G01 F300 X26.955 Y-18.386
G01 F300 X27.020 Y-18.183
G01 F300 X27.043 Y-17.971
G01 F300 X27.020 Y-17.759
G01 F300 X26.955 Y-17.556
G01 F300 X26.848 Y-17.371
G01 F300 X26.705 Y-17.212
G01 F300 X26.533 Y-17.087
G01 F300 X26.338 Y-17.000
G01 F300 X26.129 Y-16.956
G01 F300 X25.916 Y-16.956
G00 F3000 Z3.000
G00 F3000 X36.076 Y-16.956
G00 F1500 Z0
G01 F300 Z-0.200
G01 F300 X35.867 Y-17.000
G01 F300 X35.672 Y-17.087
G01 F300 X35.500 Y-17.212
G01 F300 X35.357 Y-17.371
G01 F300 X35.250 Y-17.556
G01 F300 X35.184 Y-17.759
G01 F300 X35.162 Y-17.971
G01 F300 X35.184 Y-18.183
G01 F300 X35.250 Y-18.386
G01 F300 X35.357 Y-18.570
G01 F300 X35.500 Y-18.729
G01 F300 X35.672 Y-18.854
G01 F300 X35.867 Y-18.941
G01 F300 X36.076 Y-18.985
G01 F300 X36.289 Y-18.985
G01 F300 X36.498 Y-18.941
G01 F300 X36.693 Y-18.854
G01 F300 X36.865 Y-18.729
G01 F300 X37.008 Y-18.570
G01 F300 X37.114 Y-18.386
G01 F300 X37.129 Y-18.341
G01 F300 X40.382 Y-18.341
G01 F300 X40.388 Y-18.360
G01 F300 X40.488 Y-18.533
G01 F300 X40.622 Y-18.682
G01 F300 X40.784 Y-18.799
G01 F300 X40.967 Y-18.881
G01 F300 X41.162 Y-18.922
G01 F300 X41.362 Y-18.922
G01 F300 X41.558 Y-18.881
G01 F300 X41.741 Y-18.799
G01 F300 X41.903 Y-18.682
G01 F300 X42.036 Y-18.533
G01 F300 X42.136 Y-18.360
G01 F300 X42.198 Y-18.169
G01 F300 X42.219 Y-17.971
G01 F300 X42.198 Y-17.772
G01 F300 X42.136 Y-17.581
G01 F300 X42.036 Y-17.408
G01 F300 X41.903 Y-17.259
G01 F300 X41.741 Y-17.142
G01 F300 X41.558 Y-17.061
G01 F300 X41.362 Y-17.019
G01 F300 X41.162 Y-17.019
G01 F300 X40.967 Y-17.061
G01 F300 X40.784 Y-17.142
G01 F300 X40.622 Y-17.259
G01 F300 X40.488 Y-17.408
G01 F300 X40.388 Y-17.581
G01 F300 X40.382 Y-17.600
G01 F300 X37.129 Y-17.600
G01 F300 X37.114 Y-17.556
G01 F300 X37.008 Y-17.371
G01 F300 X36.865 Y-17.212
G01 F300 X36.693 Y-17.087
G01 F300 X36.498 Y-17.000
G01 F300 X36.289 Y-16.956
G01 F300 X36.076 Y-16.956
G00 F3000 Z3.000
G00 F3000 X56.402 Y-17.019
G00 F1500 Z0
G01 F300 Z-0.200
G01 F300 X56.207 Y-17.061
G01 F300 X56.024 Y-17.142
G01 F300 X55.862 Y-17.259
G01 F300 X55.728 Y-17.408
G01 F300 X55.628 Y-17.581
G01 F300 X55.566 Y-17.772
G01 F300 X55.545 Y-17.971
G01 F300 X55.566 Y-18.169
G01 F300 X55.628 Y-18.360
G01 F300 X55.728 Y-18.533
G01 F300 X55.862 Y-18.682
G01 F300 X56.024 Y-18.799
G01 F300 X56.207 Y-18.881
G01 F300 X56.402 Y-18.922
G01 F300 X56.602 Y-18.922
G01 F300 X56.798 Y-18.881
G01 F300 X56.981 Y-18.799
G01 F300 X57.143 Y-18.682
G01 F300 X57.276 Y-18.533
G01 F300 X57.376 Y-18.360
G01 F300 X57.438 Y-18.169
G01 F300 X57.459 Y-17.971
G01 F300 X57.438 Y-17.772
G01 F300 X57.376 Y-17.581
G01 F300 X57.276 Y-17.408
G01 F300 X57.143 Y-17.259
G01 F300 X56.981 Y-17.142
G01 F300 X56.798 Y-17.061
G01 F300 X56.602 Y-17.019
G01 F300 X56.402 Y-17.019
G00 F3000 Z3.000
G00 F3000 X5.857 Y-18.367
G00 F1500 Z0
G01 F300 Z-0.200
G01 F300 X15.515 Y-18.367
G01 F300 X15.515 Y-22.896
G01 F300 X10.505 Y-27.857
G01 F300 X8.020 Y-30.355
G01 F300 X7.968 Y-30.394
G01 F300 X7.915 Y-30.452
G01 F300 X7.876 Y-30.519
G01 F300 X7.852 Y-30.593
G01 F300 X7.845 Y-30.667
G01 F300 X7.845 Y-34.817
G01 F300 X7.732 Y-34.867
G01 F300 X7.690 Y-34.897
G01 F300 X7.670 Y-34.897
G01 F300 X7.594 Y-34.914
G01 F300 X7.523 Y-34.945
G01 F300 X7.460 Y-34.991
G01 F300 X7.407 Y-35.049
G01 F300 X7.368 Y-35.116
G01 F300 X7.344 Y-35.191
G01 F300 X7.336 Y-35.268
G01 F300 X7.338 Y-35.287
G01 F300 X7.310 Y-35.336
G01 F300 X7.297 Y-35.376
G01 F300 X5.859 Y-35.356
G01 F300 X3.535 Y-33.032
G01 F300 X3.535 Y-29.076
G01 F300 X3.673 Y-29.014
G01 F300 X3.845 Y-28.889
G01 F300 X3.988 Y-28.730
G01 F300 X4.095 Y-28.546
G01 F300 X4.160 Y-28.343
G01 F300 X4.183 Y-28.131
G01 F300 X4.160 Y-27.919
G01 F300 X4.095 Y-27.716
G01 F300 X3.988 Y-27.531
G01 F300 X3.845 Y-27.372
G01 F300 X3.673 Y-27.247
G01 F300 X3.535 Y-27.186
G01 F300 X3.535 Y-20.666
G01 F300 X5.857 Y-18.367
G00 F3000 Z3.000
G00 F3000 X48.726 Y-19.110
G00 F1500 Z0
G01 F300 Z-0.200
G01 F300 X48.726 Y-19.135
G01 F300 X48.675 Y-19.135
G01 F300 X48.675 Y-19.160
G01 F300 X48.650 Y-19.160
G01 F300 X48.650 Y-19.186
G01 F300 X48.624 Y-19.186
G01 F300 X48.624 Y-19.237
G01 F300 X48.599 Y-19.237
G01 F300 X48.599 Y-19.499
G01 F300 X48.624 Y-19.499
G01 F300 X48.624 Y-19.549
G01 F300 X48.650 Y-19.549
G01 F300 X48.650 Y-19.575
G01 F300 X48.675 Y-19.575
G01 F300 X48.675 Y-19.600
G01 F300 X48.726 Y-19.600
G01 F300 X48.726 Y-19.626
G01 F300 X49.564 Y-19.626
G01 F300 X49.564 Y-19.872
G01 F300 X46.999 Y-19.872
G01 F300 X46.999 Y-20.997
G01 F300 X47.024 Y-20.997
G01 F300 X47.024 Y-21.048
G01 F300 X47.050 Y-21.048
G01 F300 X47.050 Y-21.073
G01 F300 X47.075 Y-21.073
G01 F300 X47.075 Y-21.099
G01 F300 X47.126 Y-21.099
G01 F300 X47.126 Y-21.124
G01 F300 X47.388 Y-21.124
G01 F300 X47.388 Y-21.099
G01 F300 X47.439 Y-21.099
G01 F300 X47.439 Y-21.073
G01 F300 X47.464 Y-21.073
G01 F300 X47.464 Y-21.048
G01 F300 X47.489 Y-21.048
G01 F300 X47.489 Y-21.023
G01 F300 X47.515 Y-21.023
G01 F300 X47.515 Y-20.388
G01 F300 X49.564 Y-20.388
G01 F300 X49.564 Y-20.997
G01 F300 X49.590 Y-20.997
G01 F300 X49.590 Y-21.048
G01 F300 X49.615 Y-21.048
G01 F300 X49.615 Y-21.073
G01 F300 X49.640 Y-21.073
G01 F300 X49.640 Y-21.099
G01 F300 X49.691 Y-21.099
G01 F300 X49.691 Y-21.124
G01 F300 X49.953 Y-21.124
G01 F300 X49.953 Y-21.099
G01 F300 X50.004 Y-21.099
G01 F300 X50.004 Y-21.073
G01 F300 X50.029 Y-21.073
G01 F300 X50.029 Y-21.048
G01 F300 X50.055 Y-21.048
G01 F300 X50.055 Y-20.997
G01 F300 X50.080 Y-20.997
G01 F300 X50.080 Y-19.237
G01 F300 X50.055 Y-19.237
G01 F300 X50.055 Y-19.186
G01 F300 X50.029 Y-19.186
G01 F300 X50.029 Y-19.160
G01 F300 X50.004 Y-19.160
G01 F300 X50.004 Y-19.135
G01 F300 X49.953 Y-19.135
G01 F300 X49.953 Y-19.110
G01 F300 X48.726 Y-19.110
G00 F3000 Z3.000
G00 F3000 X36.076 Y-19.496
G00 F1500 Z0
G01 F300 Z-0.200
G01 F300 X35.867 Y-19.540
G01 F300 X35.672 Y-19.627
G01 F300 X35.500 Y-19.752
G01 F300 X35.357 Y-19.911
G01 F300 X35.250 Y-20.096
G01 F300 X35.184 Y-20.299
G01 F300 X35.162 Y-20.511
G01 F300 X35.184 Y-20.723
G01 F300 X35.250 Y-20.926
G01 F300 X35.357 Y-21.110
G01 F300 X35.500 Y-21.269
G01 F300 X35.672 Y-21.394
G01 F300 X35.867 Y-21.481
G01 F300 X36.076 Y-21.525
G01 F300 X36.289 Y-21.525
G01 F300 X36.498 Y-21.481
G01 F300 X36.693 Y-21.394
G01 F300 X36.865 Y-21.269
G01 F300 X37.008 Y-21.110
G01 F300 X37.114 Y-20.926
G01 F300 X37.129 Y-20.881
G01 F300 X40.256 Y-20.881
G01 F300 X40.263 Y-20.944
G01 F300 X40.287 Y-21.018
G01 F300 X40.326 Y-21.085
G01 F300 X40.378 Y-21.143
G01 F300 X40.441 Y-21.189
G01 F300 X40.512 Y-21.221
G01 F300 X40.587 Y-21.237
G01 F300 X40.645 Y-21.238
G01 F300 X40.784 Y-21.339
G01 F300 X40.967 Y-21.421
G01 F300 X41.162 Y-21.462
G01 F300 X41.362 Y-21.462
G01 F300 X41.558 Y-21.421
G01 F300 X41.741 Y-21.339
G01 F300 X41.903 Y-21.222
G01 F300 X42.036 Y-21.073
G01 F300 X42.136 Y-20.900
G01 F300 X42.198 Y-20.710
G01 F300 X42.219 Y-20.511
G01 F300 X42.198 Y-20.312
G01 F300 X42.136 Y-20.121
G01 F300 X42.036 Y-19.948
G01 F300 X41.903 Y-19.800
G01 F300 X41.741 Y-19.682
G01 F300 X41.558 Y-19.601
G01 F300 X41.362 Y-19.559
G01 F300 X41.162 Y-19.559
G01 F300 X40.967 Y-19.601
G01 F300 X40.784 Y-19.682
G01 F300 X40.622 Y-19.800
G01 F300 X40.488 Y-19.948
G01 F300 X40.388 Y-20.121
G01 F300 X40.382 Y-20.140
G01 F300 X37.129 Y-20.140
G01 F300 X37.114 Y-20.096
G01 F300 X37.008 Y-19.911
G01 F300 X36.865 Y-19.752
G01 F300 X36.693 Y-19.627
G01 F300 X36.498 Y-19.540
G01 F300 X36.289 Y-19.496
G01 F300 X36.076 Y-19.496
G00 F3000 Z3.000
G00 F3000 X25.916 Y-19.496
G00 F1500 Z0
G01 F300 Z-0.200
G01 F300 X25.707 Y-19.540
G01 F300 X25.512 Y-19.627
G01 F300 X25.340 Y-19.752
G01 F300 X25.197 Y-19.911
G01 F300 X25.090 Y-20.096
G01 F300 X25.076 Y-20.140
G01 F300 X20.929 Y-20.140
G01 F300 X20.855 Y-20.156
G01 F300 X19.036 Y-20.800
G01 F300 X19.000 Y-20.761
G01 F300 X18.849 Y-20.651
G01 F300 X18.678 Y-20.575
G01 F300 X18.496 Y-20.537
G01 F300 X18.309 Y-20.537
G01 F300 X18.126 Y-20.575
G01 F300 X17.956 Y-20.651
G01 F300 X17.805 Y-20.761
G01 F300 X17.680 Y-20.900
G01 F300 X17.586 Y-21.062
G01 F300 X17.529 Y-21.239
G01 F300 X17.509 Y-21.425
G01 F300 X17.529 Y-21.611
G01 F300 X17.586 Y-21.788
G01 F300 X17.680 Y-21.950
G01 F300 X17.805 Y-22.089
G01 F300 X17.956 Y-22.199
G01 F300 X18.126 Y-22.275
G01 F300 X18.309 Y-22.314
G01 F300 X18.496 Y-22.314
G01 F300 X18.678 Y-22.275
G01 F300 X18.849 Y-22.199
G01 F300 X19.000 Y-22.089
G01 F300 X19.125 Y-21.950
G01 F300 X19.218 Y-21.788
G01 F300 X19.276 Y-21.611
G01 F300 X19.288 Y-21.501
G01 F300 X21.036 Y-20.881
G01 F300 X25.076 Y-20.881
G01 F300 X25.090 Y-20.926
G01 F300 X25.197 Y-21.110
G01 F300 X25.340 Y-21.269
G01 F300 X25.512 Y-21.394
G01 F300 X25.707 Y-21.481
G01 F300 X25.916 Y-21.525
G01 F300 X26.129 Y-21.525
G01 F300 X26.338 Y-21.481
G01 F300 X26.533 Y-21.394
G01 F300 X26.705 Y-21.269
G01 F300 X26.848 Y-21.110
G01 F300 X26.955 Y-20.926
G01 F300 X27.020 Y-20.723
G01 F300 X27.043 Y-20.511
G01 F300 X27.020 Y-20.299
G01 F300 X26.955 Y-20.096
G01 F300 X26.848 Y-19.911
G01 F300 X26.705 Y-19.752
G01 F300 X26.533 Y-19.627
G01 F300 X26.338 Y-19.540
G01 F300 X26.129 Y-19.496
G01 F300 X25.916 Y-19.496
G00 F3000 Z3.000
G00 F3000 X56.402 Y-19.559
G00 F1500 Z0
G01 F300 Z-0.200
G01 F300 X56.207 Y-19.601
G01 F300 X56.024 Y-19.682
G01 F300 X55.862 Y-19.800
G01 F300 X55.728 Y-19.948
G01 F300 X55.628 Y-20.121
G01 F300 X55.566 Y-20.312
G01 F300 X55.545 Y-20.511
G01 F300 X55.566 Y-20.710
G01 F300 X55.628 Y-20.900
G01 F300 X55.728 Y-21.073
G01 F300 X55.862 Y-21.222
G01 F300 X56.024 Y-21.339
G01 F300 X56.207 Y-21.421
G01 F300 X56.402 Y-21.462
G01 F300 X56.602 Y-21.462
G01 F300 X56.798 Y-21.421
G01 F300 X56.981 Y-21.339
G01 F300 X57.143 Y-21.222
G01 F300 X57.276 Y-21.073
G01 F300 X57.376 Y-20.900
G01 F300 X57.438 Y-20.710
G01 F300 X57.459 Y-20.511
G01 F300 X57.438 Y-20.312
G01 F300 X57.376 Y-20.121
G01 F300 X57.276 Y-19.948
G01 F300 X57.143 Y-19.800
G01 F300 X56.981 Y-19.682
G01 F300 X56.798 Y-19.601
G01 F300 X56.602 Y-19.559
G01 F300 X56.402 Y-19.559
G00 F3000 Z3.000
G00 F3000 X47.151 Y-21.827
G00 F1500 Z0
G01 F300 Z-0.200
G01 F300 X47.151 Y-21.853
G01 F300 X47.100 Y-21.853
G01 F300 X47.100 Y-21.878
G01 F300 X47.050 Y-21.878
G01 F300 X47.050 Y-21.929
G01 F300 X47.024 Y-21.929
G01 F300 X47.024 Y-21.980
G01 F300 X46.999 Y-21.980
G01 F300 X46.999 Y-22.216
G01 F300 X47.024 Y-22.216
G01 F300 X47.024 Y-22.267
G01 F300 X47.050 Y-22.267
G01 F300 X47.050 Y-22.293
G01 F300 X47.075 Y-22.293
G01 F300 X47.075 Y-22.318
G01 F300 X47.100 Y-22.318
G01 F300 X47.100 Y-22.343
G01 F300 X47.812 Y-22.343
G01 F300 X47.812 Y-22.369
G01 F300 X47.888 Y-22.369
G01 F300 X47.888 Y-22.394
G01 F300 X47.939 Y-22.394
G01 F300 X47.939 Y-22.420
G01 F300 X48.015 Y-22.420
G01 F300 X48.015 Y-22.445
G01 F300 X48.066 Y-22.445
G01 F300 X48.066 Y-22.470
G01 F300 X48.142 Y-22.470
G01 F300 X48.142 Y-22.496
G01 F300 X48.193 Y-22.496
G01 F300 X48.193 Y-22.521
G01 F300 X48.269 Y-22.521
G01 F300 X48.269 Y-22.547
G01 F300 X48.345 Y-22.547
G01 F300 X48.345 Y-22.572
G01 F300 X48.396 Y-22.572
G01 F300 X48.396 Y-22.597
G01 F300 X48.472 Y-22.597
G01 F300 X48.472 Y-22.623
G01 F300 X48.523 Y-22.623
G01 F300 X48.523 Y-22.648
G01 F300 X48.599 Y-22.648
G01 F300 X48.599 Y-22.674
G01 F300 X48.650 Y-22.674
G01 F300 X48.650 Y-22.699
G01 F300 X48.726 Y-22.699
G01 F300 X48.726 Y-22.724
G01 F300 X48.777 Y-22.724
G01 F300 X48.777 Y-22.750
G01 F300 X48.853 Y-22.750
G01 F300 X48.853 Y-22.775
G01 F300 X48.904 Y-22.775
G01 F300 X48.904 Y-22.801
G01 F300 X48.980 Y-22.801
G01 F300 X48.980 Y-22.826
G01 F300 X49.056 Y-22.826
G01 F300 X49.056 Y-22.843
G01 F300 X49.005 Y-22.843
G01 F300 X49.005 Y-22.869
G01 F300 X48.955 Y-22.869
G01 F300 X48.955 Y-22.894
G01 F300 X48.878 Y-22.894
G01 F300 X48.878 Y-22.920
G01 F300 X48.828 Y-22.920
G01 F300 X48.828 Y-22.945
G01 F300 X48.751 Y-22.945
G01 F300 X48.751 Y-22.970
G01 F300 X48.675 Y-22.970
G01 F300 X48.675 Y-22.996
G01 F300 X48.624 Y-22.996
G01 F300 X48.624 Y-23.021
G01 F300 X48.548 Y-23.021
G01 F300 X48.548 Y-23.047
G01 F300 X48.497 Y-23.047
G01 F300 X48.497 Y-23.072
G01 F300 X48.421 Y-23.072
G01 F300 X48.421 Y-23.097
G01 F300 X48.370 Y-23.097
G01 F300 X48.370 Y-23.123
G01 F300 X48.294 Y-23.123
G01 F300 X48.294 Y-23.148
G01 F300 X48.243 Y-23.148
G01 F300 X48.243 Y-23.174
G01 F300 X48.167 Y-23.174
G01 F300 X48.167 Y-23.199
G01 F300 X48.091 Y-23.199
G01 F300 X48.091 Y-23.224
G01 F300 X48.040 Y-23.224
G01 F300 X48.040 Y-23.250
G01 F300 X47.964 Y-23.250
G01 F300 X47.964 Y-23.275
G01 F300 X47.913 Y-23.275
G01 F300 X47.913 Y-23.301
G01 F300 X47.837 Y-23.301
G01 F300 X47.837 Y-23.326
G01 F300 X47.151 Y-23.326
G01 F300 X47.151 Y-23.351
G01 F300 X47.100 Y-23.351
G01 F300 X47.100 Y-23.377
G01 F300 X47.050 Y-23.377
G01 F300 X47.050 Y-23.428
G01 F300 X47.024 Y-23.428
G01 F300 X47.024 Y-23.478
G01 F300 X46.999 Y-23.478
G01 F300 X46.999 Y-23.715
G01 F300 X47.024 Y-23.715
G01 F300 X47.024 Y-23.766
G01 F300 X47.050 Y-23.766
G01 F300 X47.050 Y-23.791
G01 F300 X47.075 Y-23.791
G01 F300 X47.075 Y-23.817
G01 F300 X47.126 Y-23.817
G01 F300 X47.126 Y-23.842
G01 F300 X48.048 Y-23.842
G01 F300 X48.048 Y-23.817
G01 F300 X48.124 Y-23.817
G01 F300 X48.124 Y-23.791
G01 F300 X48.175 Y-23.791
G01 F300 X48.175 Y-23.766
G01 F300 X48.251 Y-23.766
G01 F300 X48.251 Y-23.740
G01 F300 X48.302 Y-23.740
G01 F300 X48.302 Y-23.715
G01 F300 X48.378 Y-23.715
G01 F300 X48.378 Y-23.690
G01 F300 X48.455 Y-23.690
G01 F300 X48.455 Y-23.664
G01 F300 X48.505 Y-23.664
G01 F300 X48.505 Y-23.639
G01 F300 X48.582 Y-23.639
G01 F300 X48.582 Y-23.613
G01 F300 X48.632 Y-23.613
G01 F300 X48.632 Y-23.588
G01 F300 X48.709 Y-23.588
G01 F300 X48.709 Y-23.563
G01 F300 X48.759 Y-23.563
G01 F300 X48.759 Y-23.537
G01 F300 X48.836 Y-23.537
G01 F300 X48.836 Y-23.512
G01 F300 X48.912 Y-23.512
G01 F300 X48.912 Y-23.486
G01 F300 X48.963 Y-23.486
G01 F300 X48.963 Y-23.461
G01 F300 X49.039 Y-23.461
G01 F300 X49.039 Y-23.436
G01 F300 X49.090 Y-23.436
G01 F300 X49.090 Y-23.410
G01 F300 X49.166 Y-23.410
G01 F300 X49.166 Y-23.385
G01 F300 X49.217 Y-23.385
G01 F300 X49.217 Y-23.359
G01 F300 X49.293 Y-23.359
G01 F300 X49.293 Y-23.334
G01 F300 X49.369 Y-23.334
G01 F300 X49.369 Y-23.309
G01 F300 X49.420 Y-23.309
G01 F300 X49.420 Y-23.283
G01 F300 X49.496 Y-23.283
G01 F300 X49.496 Y-23.258
G01 F300 X49.547 Y-23.258
G01 F300 X49.547 Y-23.232
G01 F300 X49.623 Y-23.232
G01 F300 X49.623 Y-23.207
G01 F300 X49.699 Y-23.207
G01 F300 X49.699 Y-23.182
G01 F300 X49.750 Y-23.182
G01 F300 X49.750 Y-23.156
G01 F300 X49.826 Y-23.156
G01 F300 X49.826 Y-23.131
G01 F300 X49.877 Y-23.131
G01 F300 X49.877 Y-23.105
G01 F300 X49.953 Y-23.105
G01 F300 X49.953 Y-23.080
G01 F300 X50.004 Y-23.080
G01 F300 X50.004 Y-23.055
G01 F300 X50.029 Y-23.055
G01 F300 X50.029 Y-23.029
G01 F300 X50.055 Y-23.029
G01 F300 X50.055 Y-22.978
G01 F300 X50.080 Y-22.978
G01 F300 X50.080 Y-22.716
G01 F300 X50.055 Y-22.716
G01 F300 X50.055 Y-22.666
G01 F300 X50.029 Y-22.666
G01 F300 X50.029 Y-22.640
G01 F300 X50.004 Y-22.640
G01 F300 X50.004 Y-22.615
G01 F300 X49.979 Y-22.615
G01 F300 X49.979 Y-22.589
G01 F300 X49.902 Y-22.589
G01 F300 X49.902 Y-22.564
G01 F300 X49.852 Y-22.564
G01 F300 X49.852 Y-22.539
G01 F300 X49.775 Y-22.539
G01 F300 X49.775 Y-22.513
G01 F300 X49.724 Y-22.513
G01 F300 X49.724 Y-22.488
G01 F300 X49.648 Y-22.488
G01 F300 X49.648 Y-22.462
G01 F300 X49.572 Y-22.462
G01 F300 X49.572 Y-22.437
G01 F300 X49.521 Y-22.437
G01 F300 X49.521 Y-22.412
G01 F300 X49.445 Y-22.412
G01 F300 X49.445 Y-22.386
G01 F300 X49.394 Y-22.386
G01 F300 X49.394 Y-22.361
G01 F300 X49.318 Y-22.361
G01 F300 X49.318 Y-22.335
G01 F300 X49.267 Y-22.335
G01 F300 X49.267 Y-22.310
G01 F300 X49.191 Y-22.310
G01 F300 X49.191 Y-22.285
G01 F300 X49.115 Y-22.285
G01 F300 X49.115 Y-22.259
G01 F300 X49.064 Y-22.259
G01 F300 X49.064 Y-22.234
G01 F300 X48.988 Y-22.234
G01 F300 X48.988 Y-22.208
G01 F300 X48.937 Y-22.208
G01 F300 X48.937 Y-22.183
G01 F300 X48.861 Y-22.183
G01 F300 X48.861 Y-22.158
G01 F300 X48.810 Y-22.158
G01 F300 X48.810 Y-22.132
G01 F300 X48.734 Y-22.132
G01 F300 X48.734 Y-22.107
G01 F300 X48.683 Y-22.107
G01 F300 X48.683 Y-22.081
G01 F300 X48.607 Y-22.081
G01 F300 X48.607 Y-22.056
G01 F300 X48.531 Y-22.056
G01 F300 X48.531 Y-22.031
G01 F300 X48.480 Y-22.031
G01 F300 X48.480 Y-22.005
G01 F300 X48.404 Y-22.005
G01 F300 X48.404 Y-21.980
G01 F300 X48.353 Y-21.980
G01 F300 X48.353 Y-21.954
G01 F300 X48.277 Y-21.954
G01 F300 X48.277 Y-21.929
G01 F300 X48.226 Y-21.929
G01 F300 X48.226 Y-21.904
G01 F300 X48.150 Y-21.904
G01 F300 X48.150 Y-21.878
G01 F300 X48.074 Y-21.878
G01 F300 X48.074 Y-21.853
G01 F300 X48.023 Y-21.853
G01 F300 X48.023 Y-21.827
G01 F300 X47.151 Y-21.827
G00 F3000 Z3.000
G00 F3000 X61.472 Y-21.998
G00 F1500 Z0
G01 F300 Z-0.200
G01 F300 X61.255 Y-22.044
G01 F300 X61.053 Y-22.134
G01 F300 X60.874 Y-22.264
G01 F300 X60.726 Y-22.428
G01 F300 X60.615 Y-22.620
G01 F300 X60.596 Y-22.680
G01 F300 X57.382 Y-22.680
G01 F300 X57.376 Y-22.661
G01 F300 X57.276 Y-22.488
G01 F300 X57.143 Y-22.340
G01 F300 X56.981 Y-22.222
G01 F300 X56.798 Y-22.141
G01 F300 X56.602 Y-22.099
G01 F300 X56.402 Y-22.099
G01 F300 X56.207 Y-22.141
G01 F300 X56.024 Y-22.222
G01 F300 X55.862 Y-22.340
G01 F300 X55.728 Y-22.488
G01 F300 X55.628 Y-22.661
G01 F300 X55.566 Y-22.852
G01 F300 X55.545 Y-23.051
G01 F300 X55.566 Y-23.250
G01 F300 X55.628 Y-23.440
G01 F300 X55.728 Y-23.613
G01 F300 X55.862 Y-23.762
G01 F300 X56.024 Y-23.879
G01 F300 X56.207 Y-23.961
G01 F300 X56.402 Y-24.002
G01 F300 X56.602 Y-24.002
G01 F300 X56.798 Y-23.961
G01 F300 X56.981 Y-23.879
G01 F300 X57.143 Y-23.762
G01 F300 X57.276 Y-23.613
G01 F300 X57.376 Y-23.440
G01 F300 X57.383 Y-23.421
G01 F300 X60.596 Y-23.421
G01 F300 X60.615 Y-23.481
G01 F300 X60.726 Y-23.673
G01 F300 X60.874 Y-23.837
G01 F300 X61.053 Y-23.967
G01 F300 X61.255 Y-24.057
G01 F300 X61.472 Y-24.103
G01 F300 X61.693 Y-24.103
G01 F300 X61.909 Y-24.057
G01 F300 X62.111 Y-23.967
G01 F300 X62.291 Y-23.837
G01 F300 X62.439 Y-23.673
G01 F300 X62.549 Y-23.481
G01 F300 X62.618 Y-23.271
G01 F300 X62.641 Y-23.051
G01 F300 X62.618 Y-22.831
G01 F300 X62.549 Y-22.620
G01 F300 X62.439 Y-22.428
G01 F300 X62.291 Y-22.264
G01 F300 X62.111 Y-22.134
G01 F300 X61.909 Y-22.044
G01 F300 X61.693 Y-21.998
G01 F300 X61.472 Y-21.998
G00 F3000 Z3.000
G00 F3000 X36.076 Y-22.036
G00 F1500 Z0
G01 F300 Z-0.200
G01 F300 X35.867 Y-22.080
G01 F300 X35.672 Y-22.167
G01 F300 X35.500 Y-22.292
G01 F300 X35.357 Y-22.451
G01 F300 X35.250 Y-22.636
G01 F300 X35.184 Y-22.838
G01 F300 X35.162 Y-23.051
G01 F300 X35.184 Y-23.263
G01 F300 X35.250 Y-23.466
G01 F300 X35.357 Y-23.650
G01 F300 X35.500 Y-23.809
G01 F300 X35.672 Y-23.934
G01 F300 X35.867 Y-24.021
G01 F300 X36.076 Y-24.065
G01 F300 X36.289 Y-24.065
G01 F300 X36.498 Y-24.021
G01 F300 X36.693 Y-23.934
G01 F300 X36.865 Y-23.809
G01 F300 X37.008 Y-23.650
G01 F300 X37.114 Y-23.466
G01 F300 X37.129 Y-23.421
G01 F300 X40.382 Y-23.421
G01 F300 X40.388 Y-23.440
G01 F300 X40.488 Y-23.613
G01 F300 X40.622 Y-23.762
G01 F300 X40.784 Y-23.879
G01 F300 X40.967 Y-23.961
G01 F300 X41.162 Y-24.002
G01 F300 X41.362 Y-24.002
G01 F300 X41.558 Y-23.961
G01 F300 X41.741 Y-23.879
G01 F300 X41.903 Y-23.762
G01 F300 X42.036 Y-23.613
G01 F300 X42.136 Y-23.440
G01 F300 X42.198 Y-23.250
G01 F300 X42.219 Y-23.051
G01 F300 X42.198 Y-22.852
G01 F300 X42.136 Y-22.661
G01 F300 X42.036 Y-22.488
G01 F300 X41.903 Y-22.340
G01 F300 X41.741 Y-22.222
G01 F300 X41.558 Y-22.141
G01 F300 X41.362 Y-22.099
G01 F300 X41.162 Y-22.099
G01 F300 X40.967 Y-22.141
G01 F300 X40.784 Y-22.222
G01 F300 X40.622 Y-22.340
G01 F300 X40.488 Y-22.488
G01 F300 X40.388 Y-22.661
G01 F300 X40.382 Y-22.680
G01 F300 X37.129 Y-22.680
G01 F300 X37.114 Y-22.636
G01 F300 X37.008 Y-22.451
G01 F300 X36.865 Y-22.292
G01 F300 X36.693 Y-22.167
G01 F300 X36.498 Y-22.080
G01 F300 X36.289 Y-22.036
G01 F300 X36.076 Y-22.036
G00 F3000 Z3.000
G00 F3000 X23.376 Y-22.036
G00 F1500 Z0
G01 F300 Z-0.200
G01 F300 X23.167 Y-22.080
G01 F300 X22.972 Y-22.167
G01 F300 X22.800 Y-22.292
G01 F300 X22.657 Y-22.451
G01 F300 X22.550 Y-22.636
G01 F300 X22.484 Y-22.838
G01 F300 X22.462 Y-23.051
G01 F300 X22.484 Y-23.263
G01 F300 X22.550 Y-23.466
G01 F300 X22.657 Y-23.650
G01 F300 X22.800 Y-23.809
G01 F300 X22.972 Y-23.934
G01 F300 X23.167 Y-24.021
G01 F300 X23.376 Y-24.065
G01 F300 X23.589 Y-24.065
G01 F300 X23.798 Y-24.021
G01 F300 X23.992 Y-23.934
G01 F300 X24.165 Y-23.809
G01 F300 X24.308 Y-23.650
G01 F300 X24.414 Y-23.466
G01 F300 X24.429 Y-23.421
G01 F300 X25.076 Y-23.421
G01 F300 X25.090 Y-23.466
G01 F300 X25.197 Y-23.650
G01 F300 X25.340 Y-23.809
G01 F300 X25.512 Y-23.934
G01 F300 X25.707 Y-24.021
G01 F300 X25.916 Y-24.065
G01 F300 X26.129 Y-24.065
G01 F300 X26.338 Y-24.021
G01 F300 X26.533 Y-23.934
G01 F300 X26.705 Y-23.809
G01 F300 X26.848 Y-23.650
G01 F300 X26.955 Y-23.466
G01 F300 X27.020 Y-23.263
G01 F300 X27.043 Y-23.051
G01 F300 X27.020 Y-22.838
G01 F300 X26.955 Y-22.636
G01 F300 X26.848 Y-22.451
G01 F300 X26.705 Y-22.292
G01 F300 X26.533 Y-22.167
G01 F300 X26.338 Y-22.080
G01 F300 X26.129 Y-22.036
G01 F300 X25.916 Y-22.036
G01 F300 X25.707 Y-22.080
G01 F300 X25.512 Y-22.167
G01 F300 X25.340 Y-22.292
G01 F300 X25.197 Y-22.451
G01 F300 X25.090 Y-22.636
G01 F300 X25.076 Y-22.680
G01 F300 X24.429 Y-22.680
G01 F300 X24.415 Y-22.636
G01 F300 X24.308 Y-22.451
G01 F300 X24.165 Y-22.292
G01 F300 X23.992 Y-22.167
G01 F300 X23.798 Y-22.080
G01 F300 X23.589 Y-22.036
G01 F300 X23.376 Y-22.036
G00 F3000 Z3.000
G00 F3000 X61.472 Y-24.538
G00 F1500 Z0
G01 F300 Z-0.200
G01 F300 X61.255 Y-24.584
G01 F300 X61.053 Y-24.674
G01 F300 X60.874 Y-24.804
G01 F300 X60.726 Y-24.968
G01 F300 X60.615 Y-25.160
G01 F300 X60.596 Y-25.220
G01 F300 X57.382 Y-25.220
G01 F300 X57.376 Y-25.201
G01 F300 X57.276 Y-25.028
G01 F300 X57.143 Y-24.880
G01 F300 X56.981 Y-24.762
G01 F300 X56.798 Y-24.681
G01 F300 X56.602 Y-24.639
G01 F300 X56.402 Y-24.639
G01 F300 X56.207 Y-24.681
G01 F300 X56.024 Y-24.762
G01 F300 X55.862 Y-24.880
G01 F300 X55.728 Y-25.028
G01 F300 X55.628 Y-25.201
G01 F300 X55.566 Y-25.392
G01 F300 X55.545 Y-25.591
G01 F300 X55.566 Y-25.790
G01 F300 X55.628 Y-25.980
G01 F300 X55.728 Y-26.153
G01 F300 X55.862 Y-26.302
G01 F300 X56.024 Y-26.419
G01 F300 X56.207 Y-26.501
G01 F300 X56.402 Y-26.542
G01 F300 X56.602 Y-26.542
G01 F300 X56.798 Y-26.501
G01 F300 X56.981 Y-26.419
G01 F300 X57.143 Y-26.302
G01 F300 X57.276 Y-26.153
G01 F300 X57.376 Y-25.980
G01 F300 X57.383 Y-25.961
G01 F300 X60.596 Y-25.961
G01 F300 X60.615 Y-26.021
G01 F300 X60.726 Y-26.213
G01 F300 X60.874 Y-26.377
G01 F300 X61.053 Y-26.507
G01 F300 X61.255 Y-26.597
G01 F300 X61.472 Y-26.643
G01 F300 X61.693 Y-26.643
G01 F300 X61.909 Y-26.597
G01 F300 X62.111 Y-26.507
G01 F300 X62.291 Y-26.377
G01 F300 X62.439 Y-26.213
G01 F300 X62.549 Y-26.021
G01 F300 X62.618 Y-25.811
G01 F300 X62.641 Y-25.591
G01 F300 X62.618 Y-25.370
G01 F300 X62.549 Y-25.160
G01 F300 X62.439 Y-24.968
G01 F300 X62.291 Y-24.804
G01 F300 X62.111 Y-24.674
G01 F300 X61.909 Y-24.584
G01 F300 X61.693 Y-24.538
G01 F300 X61.472 Y-24.538
G00 F3000 Z3.000
G00 F3000 X18.296 Y-24.576
G00 F1500 Z0
G01 F300 Z-0.200
G01 F300 X18.087 Y-24.620
G01 F300 X17.892 Y-24.707
G01 F300 X17.720 Y-24.832
G01 F300 X17.577 Y-24.991
G01 F300 X17.470 Y-25.176
G01 F300 X17.404 Y-25.379
G01 F300 X17.382 Y-25.591
G01 F300 X17.404 Y-25.803
G01 F300 X17.470 Y-26.006
G01 F300 X17.577 Y-26.190
G01 F300 X17.720 Y-26.349
G01 F300 X17.892 Y-26.474
G01 F300 X18.087 Y-26.561
G01 F300 X18.296 Y-26.605
G01 F300 X18.509 Y-26.605
G01 F300 X18.718 Y-26.561
G01 F300 X18.913 Y-26.474
G01 F300 X19.085 Y-26.349
G01 F300 X19.228 Y-26.190
G01 F300 X19.334 Y-26.006
G01 F300 X19.349 Y-25.961
G01 F300 X28.407 Y-25.961
G01 F300 X30.730 Y-28.284
G01 F300 X30.730 Y-29.690
G01 F300 X30.682 Y-29.690
G01 F300 X30.606 Y-29.707
G01 F300 X30.535 Y-29.738
G01 F300 X30.472 Y-29.784
G01 F300 X30.420 Y-29.842
G01 F300 X30.380 Y-29.911
G01 F300 X30.361 Y-29.977
G01 F300 X30.277 Y-30.071
G01 F300 X30.170 Y-30.256
G01 F300 X30.104 Y-30.459
G01 F300 X30.082 Y-30.671
G01 F300 X30.104 Y-30.883
G01 F300 X30.170 Y-31.086
G01 F300 X30.277 Y-31.270
G01 F300 X30.420 Y-31.429
G01 F300 X30.592 Y-31.554
G01 F300 X30.787 Y-31.641
G01 F300 X30.996 Y-31.685
G01 F300 X31.209 Y-31.685
G01 F300 X31.418 Y-31.641
G01 F300 X31.613 Y-31.554
G01 F300 X31.785 Y-31.429
G01 F300 X31.928 Y-31.270
G01 F300 X32.034 Y-31.086
G01 F300 X32.049 Y-31.041
G01 F300 X40.382 Y-31.041
G01 F300 X40.388 Y-31.060
G01 F300 X40.488 Y-31.233
G01 F300 X40.622 Y-31.382
G01 F300 X40.784 Y-31.499
G01 F300 X40.967 Y-31.581
G01 F300 X41.162 Y-31.622
G01 F300 X41.362 Y-31.622
G01 F300 X41.558 Y-31.581
G01 F300 X41.741 Y-31.499
G01 F300 X41.903 Y-31.382
G01 F300 X42.036 Y-31.233
G01 F300 X42.136 Y-31.060
G01 F300 X42.198 Y-30.870
G01 F300 X42.219 Y-30.671
G01 F300 X42.198 Y-30.472
G01 F300 X42.136 Y-30.281
G01 F300 X42.036 Y-30.108
G01 F300 X41.903 Y-29.960
G01 F300 X41.741 Y-29.842
G01 F300 X41.558 Y-29.761
G01 F300 X41.362 Y-29.719
G01 F300 X41.162 Y-29.719
G01 F300 X40.967 Y-29.761
G01 F300 X40.784 Y-29.842
G01 F300 X40.622 Y-29.960
G01 F300 X40.488 Y-30.108
G01 F300 X40.388 Y-30.281
G01 F300 X40.382 Y-30.300
G01 F300 X32.049 Y-30.300
G01 F300 X32.035 Y-30.256
G01 F300 X31.928 Y-30.071
G01 F300 X31.785 Y-29.912
G01 F300 X31.613 Y-29.787
G01 F300 X31.475 Y-29.726
G01 F300 X31.475 Y-28.127
G01 F300 X31.467 Y-28.053
G01 F300 X31.443 Y-27.979
G01 F300 X31.404 Y-27.912
G01 F300 X31.355 Y-27.858
G01 F300 X28.810 Y-25.313
G01 F300 X28.749 Y-25.268
G01 F300 X28.678 Y-25.236
G01 F300 X28.601 Y-25.220
G01 F300 X19.349 Y-25.220
G01 F300 X19.335 Y-25.176
G01 F300 X19.228 Y-24.991
G01 F300 X19.085 Y-24.832
G01 F300 X18.913 Y-24.707
G01 F300 X18.718 Y-24.620
G01 F300 X18.509 Y-24.576
G01 F300 X18.296 Y-24.576
G00 F3000 Z3.000
G00 F3000 X8.136 Y-24.576
G00 F1500 Z0
G01 F300 Z-0.200
G01 F300 X7.927 Y-24.620
G01 F300 X7.732 Y-24.707
G01 F300 X7.560 Y-24.832
G01 F300 X7.417 Y-24.991
G01 F300 X7.310 Y-25.176
G01 F300 X7.244 Y-25.379
G01 F300 X7.222 Y-25.591
G01 F300 X7.244 Y-25.803
G01 F300 X7.308 Y-25.999
G01 F300 X5.449 Y-27.858
G01 F300 X5.401 Y-27.912
G01 F300 X5.362 Y-27.979
G01 F300 X5.338 Y-28.053
G01 F300 X5.330 Y-28.127
G01 F300 X5.330 Y-29.726
G01 F300 X5.192 Y-29.787
G01 F300 X5.019 Y-29.912
G01 F300 X4.877 Y-30.071
G01 F300 X4.770 Y-30.256
G01 F300 X4.704 Y-30.459
G01 F300 X4.682 Y-30.671
G01 F300 X4.704 Y-30.883
G01 F300 X4.770 Y-31.086
G01 F300 X4.877 Y-31.270
G01 F300 X5.019 Y-31.429
G01 F300 X5.192 Y-31.554
G01 F300 X5.387 Y-31.641
G01 F300 X5.596 Y-31.685
G01 F300 X5.809 Y-31.685
G01 F300 X6.018 Y-31.641
G01 F300 X6.213 Y-31.554
G01 F300 X6.385 Y-31.429
G01 F300 X6.528 Y-31.270
G01 F300 X6.635 Y-31.086
G01 F300 X6.700 Y-30.883
G01 F300 X6.723 Y-30.671
G01 F300 X6.700 Y-30.459
G01 F300 X6.635 Y-30.256
G01 F300 X6.528 Y-30.071
G01 F300 X6.385 Y-29.912
G01 F300 X6.213 Y-29.787
G01 F300 X6.075 Y-29.726
G01 F300 X6.075 Y-28.284
G01 F300 X7.838 Y-26.521
G01 F300 X7.927 Y-26.561
G01 F300 X8.136 Y-26.605
G01 F300 X8.349 Y-26.605
G01 F300 X8.558 Y-26.561
G01 F300 X8.753 Y-26.474
G01 F300 X8.925 Y-26.349
G01 F300 X9.068 Y-26.190
G01 F300 X9.175 Y-26.006
G01 F300 X9.240 Y-25.803
G01 F300 X9.263 Y-25.591
G01 F300 X9.240 Y-25.379
G01 F300 X9.175 Y-25.176
G01 F300 X9.068 Y-24.991
G01 F300 X8.925 Y-24.832
G01 F300 X8.753 Y-24.707
G01 F300 X8.558 Y-24.620
G01 F300 X8.349 Y-24.576
G01 F300 X8.136 Y-24.576
G00 F3000 Z3.000
G00 F3000 X41.162 Y-24.639
G00 F1500 Z0
G01 F300 Z-0.200
G01 F300 X40.967 Y-24.681
G01 F300 X40.784 Y-24.762
G01 F300 X40.622 Y-24.880
G01 F300 X40.488 Y-25.028
G01 F300 X40.388 Y-25.201
G01 F300 X40.326 Y-25.392
G01 F300 X40.305 Y-25.591
G01 F300 X40.326 Y-25.790
G01 F300 X40.388 Y-25.980
G01 F300 X40.488 Y-26.153
G01 F300 X40.622 Y-26.302
G01 F300 X40.784 Y-26.419
G01 F300 X40.967 Y-26.501
G01 F300 X41.162 Y-26.542
G01 F300 X41.362 Y-26.542
G01 F300 X41.558 Y-26.501
G01 F300 X41.741 Y-26.419
G01 F300 X41.903 Y-26.302
G01 F300 X42.036 Y-26.153
G01 F300 X42.136 Y-25.980
G01 F300 X42.198 Y-25.790
G01 F300 X42.219 Y-25.591
G01 F300 X42.198 Y-25.392
G01 F300 X42.136 Y-25.201
G01 F300 X42.036 Y-25.028
G01 F300 X41.903 Y-24.880
G01 F300 X41.741 Y-24.762
G01 F300 X41.558 Y-24.681
G01 F300 X41.362 Y-24.639
G01 F300 X41.162 Y-24.639
G00 F3000 Z3.000
G00 F3000 X20.836 Y-27.116
G00 F1500 Z0
G01 F300 Z-0.200
G01 F300 X20.627 Y-27.160
G01 F300 X20.432 Y-27.247
G01 F300 X20.260 Y-27.372
G01 F300 X20.117 Y-27.531
G01 F300 X20.010 Y-27.716
G01 F300 X19.944 Y-27.919
G01 F300 X19.922 Y-28.131
G01 F300 X19.944 Y-28.343
G01 F300 X20.009 Y-28.541
G01 F300 X18.271 Y-30.300
G01 F300 X14.269 Y-30.300
G01 F300 X14.255 Y-30.256
G01 F300 X14.148 Y-30.071
G01 F300 X14.005 Y-29.912
G01 F300 X13.833 Y-29.787
G01 F300 X13.638 Y-29.700
G01 F300 X13.429 Y-29.656
G01 F300 X13.216 Y-29.656
G01 F300 X13.007 Y-29.700
G01 F300 X12.812 Y-29.787
G01 F300 X12.639 Y-29.912
G01 F300 X12.497 Y-30.071
G01 F300 X12.390 Y-30.256
G01 F300 X12.324 Y-30.459
G01 F300 X12.302 Y-30.671
G01 F300 X12.324 Y-30.883
G01 F300 X12.390 Y-31.086
G01 F300 X12.497 Y-31.270
G01 F300 X12.639 Y-31.429
G01 F300 X12.812 Y-31.554
G01 F300 X13.007 Y-31.641
G01 F300 X13.216 Y-31.685
G01 F300 X13.429 Y-31.685
G01 F300 X13.638 Y-31.641
G01 F300 X13.833 Y-31.554
G01 F300 X14.005 Y-31.429
G01 F300 X14.148 Y-31.270
G01 F300 X14.254 Y-31.086
G01 F300 X14.269 Y-31.041
G01 F300 X18.467 Y-31.041
G01 F300 X18.543 Y-31.025
G01 F300 X18.614 Y-30.993
G01 F300 X18.676 Y-30.949
G01 F300 X20.539 Y-29.062
G01 F300 X20.627 Y-29.101
G01 F300 X20.836 Y-29.145
G01 F300 X21.049 Y-29.145
G01 F300 X21.258 Y-29.101
G01 F300 X21.453 Y-29.014
G01 F300 X21.625 Y-28.889
G01 F300 X21.768 Y-28.730
G01 F300 X21.875 Y-28.546
G01 F300 X21.940 Y-28.343
G01 F300 X21.963 Y-28.131
G01 F300 X21.940 Y-27.919
G01 F300 X21.875 Y-27.716
G01 F300 X21.768 Y-27.531
G01 F300 X21.625 Y-27.372
G01 F300 X21.453 Y-27.247
G01 F300 X21.258 Y-27.160
G01 F300 X21.049 Y-27.116
G01 F300 X20.836 Y-27.116
G00 F3000 Z3.000
G00 F3000 X23.376 Y-27.116
G00 F1500 Z0
G01 F300 Z-0.200
G01 F300 X23.167 Y-27.160
G01 F300 X22.972 Y-27.247
G01 F300 X22.800 Y-27.372
G01 F300 X22.657 Y-27.531
G01 F300 X22.550 Y-27.716
G01 F300 X22.484 Y-27.919
G01 F300 X22.462 Y-28.131
G01 F300 X22.484 Y-28.343
G01 F300 X22.550 Y-28.546
G01 F300 X22.657 Y-28.730
G01 F300 X22.800 Y-28.889
G01 F300 X22.972 Y-29.014
G01 F300 X23.113 Y-29.077
G01 F300 X23.133 Y-30.518
G01 F300 X20.813 Y-32.815
G01 F300 X14.269 Y-32.839
G01 F300 X14.255 Y-32.796
G01 F300 X14.148 Y-32.611
G01 F300 X14.005 Y-32.452
G01 F300 X13.833 Y-32.327
G01 F300 X13.638 Y-32.240
G01 F300 X13.429 Y-32.196
G01 F300 X13.216 Y-32.196
G01 F300 X13.007 Y-32.240
G01 F300 X12.812 Y-32.327
G01 F300 X12.639 Y-32.452
G01 F300 X12.497 Y-32.611
G01 F300 X12.390 Y-32.796
G01 F300 X12.324 Y-32.998
G01 F300 X12.302 Y-33.211
G01 F300 X12.324 Y-33.423
G01 F300 X12.390 Y-33.626
G01 F300 X12.497 Y-33.810
G01 F300 X12.639 Y-33.969
G01 F300 X12.812 Y-34.094
G01 F300 X13.007 Y-34.181
G01 F300 X13.216 Y-34.225
G01 F300 X13.429 Y-34.225
G01 F300 X13.638 Y-34.181
G01 F300 X13.833 Y-34.094
G01 F300 X14.005 Y-33.969
G01 F300 X14.148 Y-33.810
G01 F300 X14.255 Y-33.626
G01 F300 X14.269 Y-33.581
G01 F300 X21.007 Y-33.556
G01 F300 X21.083 Y-33.540
G01 F300 X21.154 Y-33.508
G01 F300 X21.216 Y-33.463
G01 F300 X23.761 Y-30.944
G01 F300 X23.809 Y-30.890
G01 F300 X23.848 Y-30.822
G01 F300 X23.872 Y-30.748
G01 F300 X23.880 Y-30.674
G01 F300 X23.858 Y-29.074
G01 F300 X23.992 Y-29.014
G01 F300 X24.165 Y-28.889
G01 F300 X24.308 Y-28.730
G01 F300 X24.415 Y-28.546
G01 F300 X24.480 Y-28.343
G01 F300 X24.503 Y-28.131
G01 F300 X24.480 Y-27.919
G01 F300 X24.415 Y-27.716
G01 F300 X24.308 Y-27.531
G01 F300 X24.165 Y-27.372
G01 F300 X23.992 Y-27.247
G01 F300 X23.798 Y-27.160
G01 F300 X23.589 Y-27.116
G01 F300 X23.376 Y-27.116
G00 F3000 Z3.000
G00 F3000 X41.162 Y-27.179
G00 F1500 Z0
G01 F300 Z-0.200
G01 F300 X40.967 Y-27.221
G01 F300 X40.784 Y-27.302
G01 F300 X40.622 Y-27.420
G01 F300 X40.488 Y-27.568
G01 F300 X40.388 Y-27.741
G01 F300 X40.326 Y-27.932
G01 F300 X40.305 Y-28.131
G01 F300 X40.326 Y-28.330
G01 F300 X40.388 Y-28.520
G01 F300 X40.488 Y-28.693
G01 F300 X40.622 Y-28.842
G01 F300 X40.784 Y-28.959
G01 F300 X40.967 Y-29.041
G01 F300 X41.162 Y-29.082
G01 F300 X41.362 Y-29.082
G01 F300 X41.558 Y-29.041
