( PCB Contour )
( Generated by Rapid-PCB.com )
( Material Size)
( X= 70.000, Y= 50.000, Z= 1.580)
()
G00
G17
G21
G40
G49
G54
G80
G90
G94
G00 F3000 Z3.000
M03 S9000
G00 F3000 X23.894 Y48.466
G00 F1500 Z0
G01 F180 Z-0.300
G01 F180 X23.794 Y48.445
G01 F180 X23.770 Y48.450
G01 F180 X23.521 Y48.450
G01 F180 X23.279 Y48.398
G01 F180 X23.052 Y48.297
G01 F180 X22.851 Y48.151
G01 F180 X22.685 Y47.967
G01 F180 X22.561 Y47.752
G01 F180 X22.485 Y47.516
G01 F180 X22.459 Y47.269
G01 F180 X22.485 Y47.023
G01 F180 X22.561 Y46.787
G01 F180 X22.685 Y46.572
G01 F180 X22.851 Y46.387
G01 F180 X23.052 Y46.242
G01 F180 X23.166 Y46.191
G01 F180 X23.145 Y45.729
G01 F180 X23.084 Y45.702
G01 F180 X22.894 Y45.564
G01 F180 X22.737 Y45.390
G01 F180 X22.619 Y45.186
G01 F180 X22.547 Y44.963
G01 F180 X22.522 Y44.729
G01 F180 X22.547 Y44.496
G01 F180 X22.619 Y44.273
G01 F180 X22.737 Y44.069
G01 F180 X22.894 Y43.895
G01 F180 X23.084 Y43.757
G01 F180 X23.298 Y43.661
G01 F180 X23.528 Y43.612
G01 F180 X23.763 Y43.612
G01 F180 X23.993 Y43.661
G01 F180 X24.207 Y43.757
G01 F180 X24.397 Y43.895
G01 F180 X24.554 Y44.069
G01 F180 X24.672 Y44.273
G01 F180 X24.744 Y44.496
G01 F180 X24.769 Y44.729
G01 F180 X24.744 Y44.963
G01 F180 X24.672 Y45.186
G01 F180 X24.554 Y45.390
G01 F180 X24.397 Y45.564
G01 F180 X24.222 Y45.692
G01 F180 X24.245 Y46.246
G01 F180 X24.440 Y46.387
G01 F180 X24.606 Y46.572
G01 F180 X24.699 Y46.733
G01 F180 X43.428 Y46.733
G01 F180 X43.428 Y7.186
G01 F180 X39.110 Y7.143
G01 F180 X37.645 Y8.636
G01 F180 X37.645 Y10.444
G01 F180 X35.097 Y10.444
G01 F180 X35.094 Y9.399
G01 F180 X35.070 Y9.168
G01 F180 X35.096 Y8.932
G01 F180 X35.096 Y7.895
G01 F180 X36.867 Y7.895
G01 F180 X38.529 Y6.200
G01 F180 X38.616 Y6.137
G01 F180 X38.719 Y6.091
G01 F180 X38.829 Y6.068
G01 F180 X38.919 Y6.068
G01 F180 X44.023 Y6.119
G01 F180 X44.132 Y6.142
G01 F180 X44.235 Y6.188
G01 F180 X44.326 Y6.254
G01 F180 X44.402 Y6.338
G01 F180 X44.458 Y6.436
G01 F180 X44.493 Y6.543
G01 F180 X44.503 Y6.643
G01 F180 X44.503 Y47.282
G01 F180 X44.493 Y47.382
G01 F180 X44.458 Y47.489
G01 F180 X44.402 Y47.586
G01 F180 X44.326 Y47.670
G01 F180 X44.235 Y47.736
G01 F180 X44.132 Y47.782
G01 F180 X44.022 Y47.806
G01 F180 X24.699 Y47.806
G01 F180 X24.606 Y47.967
G01 F180 X24.443 Y48.147
G01 F180 X24.443 Y48.149
G01 F180 X24.386 Y48.247
G01 F180 X24.311 Y48.330
G01 F180 X24.220 Y48.397
G01 F180 X24.117 Y48.443
G01 F180 X24.007 Y48.466
G01 F180 X23.894 Y48.466
G00 F3000 Z3.000
G00 F3000 X13.362 Y48.450
G00 F1500 Z0
G01 F180 Z-0.300
G01 F180 X13.119 Y48.398
G01 F180 X12.892 Y48.297
G01 F180 X12.691 Y48.151
G01 F180 X12.525 Y47.967
G01 F180 X12.401 Y47.752
G01 F180 X12.325 Y47.516
G01 F180 X12.299 Y47.269
G01 F180 X12.325 Y47.023
G01 F180 X12.401 Y46.787
G01 F180 X12.525 Y46.572
G01 F180 X12.691 Y46.387
G01 F180 X12.894 Y46.241
G01 F180 X12.973 Y46.207
G01 F180 X12.973 Y37.354
G01 F180 X10.749 Y35.085
G01 F180 X8.590 Y35.129
G01 F180 X7.106 Y36.054
G01 F180 X7.116 Y36.144
G01 F180 X7.089 Y36.404
G01 F180 X7.008 Y36.653
G01 F180 X6.877 Y36.879
G01 F180 X6.702 Y37.073
G01 F180 X6.491 Y37.227
G01 F180 X6.252 Y37.333
G01 F180 X5.996 Y37.388
G01 F180 X5.735 Y37.388
G01 F180 X5.479 Y37.333
G01 F180 X5.240 Y37.227
G01 F180 X5.029 Y37.073
G01 F180 X4.854 Y36.879
G01 F180 X4.723 Y36.653
G01 F180 X4.643 Y36.404
G01 F180 X4.615 Y36.144
G01 F180 X4.643 Y35.884
G01 F180 X4.723 Y35.636
G01 F180 X4.854 Y35.409
G01 F180 X5.029 Y35.215
G01 F180 X5.240 Y35.061
G01 F180 X5.479 Y34.955
G01 F180 X5.735 Y34.901
G01 F180 X5.996 Y34.901
G01 F180 X6.252 Y34.955
G01 F180 X6.491 Y35.061
G01 F180 X6.554 Y35.107
G01 F180 X8.170 Y34.124
G01 F180 X8.264 Y34.082
G01 F180 X8.372 Y34.059
G01 F180 X10.937 Y34.008
G01 F180 X11.027 Y34.008
G01 F180 X11.138 Y34.031
G01 F180 X11.240 Y34.077
G01 F180 X11.328 Y34.140
G01 F180 X13.885 Y36.749
G01 F180 X13.947 Y36.818
G01 F180 X14.003 Y36.916
G01 F180 X14.038 Y37.023
G01 F180 X14.049 Y37.123
G01 F180 X14.049 Y46.228
G01 F180 X14.079 Y46.242
G01 F180 X14.280 Y46.387
G01 F180 X14.446 Y46.572
G01 F180 X14.570 Y46.787
G01 F180 X14.646 Y47.023
G01 F180 X14.672 Y47.269
G01 F180 X14.665 Y47.335
G01 F180 X14.699 Y47.437
G01 F180 X14.710 Y47.549
G01 F180 X14.699 Y47.661
G01 F180 X14.664 Y47.768
G01 F180 X14.607 Y47.866
G01 F180 X14.532 Y47.949
G01 F180 X14.436 Y48.019
G01 F180 X14.379 Y48.041
G01 F180 X14.280 Y48.151
G01 F180 X14.079 Y48.297
G01 F180 X13.852 Y48.398
G01 F180 X13.610 Y48.450
G01 F180 X13.362 Y48.450
G00 F3000 Z3.000
G00 F3000 X48.470 Y48.099
G00 F1500 Z0
G01 F180 Z-0.300
G01 F180 X48.470 Y48.074
G01 F180 X48.419 Y48.074
G01 F180 X48.419 Y48.049
G01 F180 X48.368 Y48.049
G01 F180 X48.368 Y48.023
G01 F180 X48.343 Y48.023
G01 F180 X48.343 Y47.998
G01 F180 X48.317 Y47.998
G01 F180 X48.317 Y47.972
G01 F180 X48.292 Y47.972
G01 F180 X48.292 Y47.922
G01 F180 X48.266 Y47.922
G01 F180 X48.266 Y47.871
G01 F180 X48.241 Y47.871
G01 F180 X48.241 Y47.845
G01 F180 X48.216 Y47.845
G01 F180 X48.216 Y47.794
G01 F180 X48.190 Y47.794
G01 F180 X48.190 Y47.744
G01 F180 X48.165 Y47.744
G01 F180 X48.165 Y47.718
G01 F180 X48.139 Y47.718
G01 F180 X48.139 Y47.668
G01 F180 X48.114 Y47.668
G01 F180 X48.114 Y47.617
G01 F180 X48.089 Y47.617
G01 F180 X48.089 Y47.566
G01 F180 X48.063 Y47.566
G01 F180 X48.063 Y47.541
G01 F180 X48.038 Y47.541
G01 F180 X48.038 Y47.490
G01 F180 X48.012 Y47.490
G01 F180 X48.012 Y47.439
G01 F180 X47.987 Y47.439
G01 F180 X47.987 Y47.413
G01 F180 X47.962 Y47.413
G01 F180 X47.962 Y47.363
G01 F180 X47.936 Y47.363
G01 F180 X47.936 Y47.312
G01 F180 X47.911 Y47.312
G01 F180 X47.911 Y47.287
G01 F180 X47.885 Y47.287
G01 F180 X47.885 Y47.236
G01 F180 X47.860 Y47.236
G01 F180 X47.860 Y47.185
G01 F180 X47.835 Y47.185
G01 F180 X47.835 Y47.134
G01 F180 X47.809 Y47.134
G01 F180 X47.809 Y47.109
G01 F180 X47.784 Y47.109
G01 F180 X47.784 Y47.058
G01 F180 X47.758 Y47.058
G01 F180 X47.758 Y47.007
G01 F180 X47.733 Y47.007
G01 F180 X47.733 Y46.982
G01 F180 X47.708 Y46.982
G01 F180 X47.708 Y46.931
G01 F180 X47.682 Y46.931
G01 F180 X47.682 Y46.880
G01 F180 X47.657 Y46.880
G01 F180 X47.657 Y46.855
G01 F180 X47.631 Y46.855
G01 F180 X47.631 Y46.804
G01 F180 X47.606 Y46.804
G01 F180 X47.606 Y46.753
G01 F180 X47.581 Y46.753
G01 F180 X47.581 Y46.702
G01 F180 X47.555 Y46.702
G01 F180 X47.555 Y46.677
G01 F180 X47.530 Y46.677
G01 F180 X47.530 Y46.626
G01 F180 X47.504 Y46.626
G01 F180 X47.504 Y46.575
G01 F180 X47.479 Y46.575
G01 F180 X47.479 Y46.550
G01 F180 X47.454 Y46.550
G01 F180 X47.454 Y46.499
G01 F180 X47.428 Y46.499
G01 F180 X47.428 Y46.448
G01 F180 X47.403 Y46.448
G01 F180 X47.403 Y46.398
G01 F180 X47.377 Y46.398
G01 F180 X47.377 Y46.372
G01 F180 X47.352 Y46.372
G01 F180 X47.352 Y46.321
G01 F180 X47.327 Y46.321
G01 F180 X47.327 Y46.271
G01 F180 X47.301 Y46.271
G01 F180 X47.301 Y46.245
G01 F180 X47.276 Y46.245
G01 F180 X47.276 Y46.194
G01 F180 X47.250 Y46.194
G01 F180 X47.250 Y46.144
G01 F180 X47.225 Y46.144
G01 F180 X47.225 Y46.118
G01 F180 X47.200 Y46.118
G01 F180 X47.200 Y46.067
G01 F180 X47.174 Y46.067
G01 F180 X47.174 Y46.017
G01 F180 X47.149 Y46.017
G01 F180 X47.149 Y45.966
G01 F180 X47.123 Y45.966
G01 F180 X47.123 Y45.940
G01 F180 X47.098 Y45.940
G01 F180 X47.098 Y45.890
G01 F180 X47.073 Y45.890
G01 F180 X47.073 Y45.839
G01 F180 X47.047 Y45.839
G01 F180 X47.047 Y45.813
G01 F180 X47.022 Y45.813
G01 F180 X47.022 Y45.763
G01 F180 X46.996 Y45.763
G01 F180 X46.996 Y45.712
G01 F180 X46.971 Y45.712
G01 F180 X46.971 Y45.686
G01 F180 X46.946 Y45.686
G01 F180 X46.946 Y45.636
G01 F180 X46.920 Y45.636
G01 F180 X46.920 Y45.585
G01 F180 X46.895 Y45.585
G01 F180 X46.895 Y45.534
G01 F180 X46.869 Y45.534
G01 F180 X46.869 Y45.509
G01 F180 X46.844 Y45.509
G01 F180 X46.844 Y45.458
G01 F180 X46.819 Y45.458
G01 F180 X46.819 Y45.407
G01 F180 X46.793 Y45.407
G01 F180 X46.793 Y45.382
G01 F180 X46.768 Y45.382
G01 F180 X46.768 Y45.280
G01 F180 X46.742 Y45.280
G01 F180 X46.742 Y44.712
G01 F180 X46.768 Y44.712
G01 F180 X46.768 Y44.636
G01 F180 X46.793 Y44.636
G01 F180 X46.793 Y44.585
G01 F180 X46.819 Y44.585
G01 F180 X46.819 Y44.560
G01 F180 X46.844 Y44.560
G01 F180 X46.844 Y44.535
G01 F180 X46.869 Y44.535
G01 F180 X46.869 Y44.509
G01 F180 X46.895 Y44.509
G01 F180 X46.895 Y44.484
G01 F180 X46.946 Y44.484
G01 F180 X46.946 Y44.458
G01 F180 X47.022 Y44.458
G01 F180 X47.022 Y44.433
G01 F180 X47.564 Y44.433
G01 F180 X47.564 Y44.458
G01 F180 X47.666 Y44.458
G01 F180 X47.666 Y44.484
G01 F180 X47.716 Y44.484
G01 F180 X47.716 Y44.509
G01 F180 X47.767 Y44.509
G01 F180 X47.767 Y44.535
G01 F180 X47.793 Y44.535
G01 F180 X47.793 Y44.585
G01 F180 X47.818 Y44.585
G01 F180 X47.818 Y44.611
G01 F180 X47.843 Y44.611
G01 F180 X47.843 Y44.662
G01 F180 X47.869 Y44.662
G01 F180 X47.869 Y44.712
G01 F180 X47.894 Y44.712
G01 F180 X47.894 Y44.738
G01 F180 X47.920 Y44.738
G01 F180 X47.920 Y44.788
G01 F180 X47.945 Y44.788
G01 F180 X47.945 Y44.839
G01 F180 X47.970 Y44.839
G01 F180 X47.970 Y44.865
G01 F180 X47.996 Y44.865
G01 F180 X47.996 Y44.916
G01 F180 X48.021 Y44.916
G01 F180 X48.021 Y44.966
G01 F180 X48.047 Y44.966
G01 F180 X48.047 Y45.017
G01 F180 X48.072 Y45.017
G01 F180 X48.072 Y45.043
G01 F180 X48.097 Y45.043
G01 F180 X48.097 Y45.093
G01 F180 X48.123 Y45.093
G01 F180 X48.123 Y45.144
G01 F180 X48.148 Y45.144
G01 F180 X48.148 Y45.169
G01 F180 X48.174 Y45.169
G01 F180 X48.174 Y45.220
G01 F180 X48.199 Y45.220
G01 F180 X48.199 Y45.271
G01 F180 X48.224 Y45.271
G01 F180 X48.224 Y45.297
G01 F180 X48.250 Y45.297
G01 F180 X48.250 Y45.347
G01 F180 X48.275 Y45.347
G01 F180 X48.275 Y45.398
G01 F180 X48.301 Y45.398
G01 F180 X48.301 Y45.449
G01 F180 X48.326 Y45.449
G01 F180 X48.326 Y45.474
G01 F180 X48.351 Y45.474
G01 F180 X48.351 Y45.525
G01 F180 X48.377 Y45.525
G01 F180 X48.377 Y45.576
G01 F180 X48.402 Y45.576
G01 F180 X48.402 Y45.601
G01 F180 X48.428 Y45.601
G01 F180 X48.428 Y45.652
G01 F180 X48.453 Y45.652
G01 F180 X48.453 Y45.703
G01 F180 X48.478 Y45.703
G01 F180 X48.478 Y45.754
G01 F180 X48.504 Y45.754
G01 F180 X48.504 Y45.779
G01 F180 X48.529 Y45.779
G01 F180 X48.529 Y45.830
G01 F180 X48.555 Y45.830
G01 F180 X48.555 Y45.881
G01 F180 X48.580 Y45.881
G01 F180 X48.580 Y45.906
G01 F180 X48.605 Y45.906
G01 F180 X48.605 Y45.957
G01 F180 X48.631 Y45.957
G01 F180 X48.631 Y46.008
G01 F180 X48.656 Y46.008
G01 F180 X48.656 Y46.059
G01 F180 X48.682 Y46.059
G01 F180 X48.682 Y46.084
G01 F180 X48.707 Y46.084
G01 F180 X48.707 Y46.135
G01 F180 X48.732 Y46.135
G01 F180 X48.732 Y46.186
G01 F180 X48.758 Y46.186
G01 F180 X48.758 Y46.211
G01 F180 X48.783 Y46.211
G01 F180 X48.783 Y46.262
G01 F180 X48.809 Y46.262
G01 F180 X48.809 Y46.313
G01 F180 X48.834 Y46.313
G01 F180 X48.834 Y46.338
G01 F180 X48.859 Y46.338
G01 F180 X48.859 Y46.389
G01 F180 X48.885 Y46.389
G01 F180 X48.885 Y46.440
G01 F180 X48.910 Y46.440
G01 F180 X48.910 Y46.490
G01 F180 X48.936 Y46.490
G01 F180 X48.936 Y46.516
G01 F180 X48.952 Y46.516
G01 F180 X48.952 Y46.465
G01 F180 X48.978 Y46.465
G01 F180 X48.978 Y46.414
G01 F180 X49.003 Y46.414
G01 F180 X49.003 Y46.389
G01 F180 X49.028 Y46.389
G01 F180 X49.028 Y46.338
G01 F180 X49.054 Y46.338
G01 F180 X49.054 Y46.287
G01 F180 X49.079 Y46.287
G01 F180 X49.079 Y46.236
G01 F180 X49.105 Y46.236
G01 F180 X49.105 Y46.211
G01 F180 X49.130 Y46.211
G01 F180 X49.130 Y46.160
G01 F180 X49.155 Y46.160
G01 F180 X49.155 Y46.109
G01 F180 X49.181 Y46.109
G01 F180 X49.181 Y46.084
G01 F180 X49.206 Y46.084
G01 F180 X49.206 Y46.033
G01 F180 X49.232 Y46.033
G01 F180 X49.232 Y45.982
G01 F180 X49.257 Y45.982
G01 F180 X49.257 Y45.957
G01 F180 X49.282 Y45.957
G01 F180 X49.282 Y45.906
G01 F180 X49.308 Y45.906
G01 F180 X49.308 Y45.855
G01 F180 X49.333 Y45.855
G01 F180 X49.333 Y45.805
G01 F180 X49.359 Y45.805
G01 F180 X49.359 Y45.779
G01 F180 X49.384 Y45.779
G01 F180 X49.384 Y45.728
G01 F180 X49.409 Y45.728
G01 F180 X49.409 Y45.678
G01 F180 X49.435 Y45.678
G01 F180 X49.435 Y45.652
G01 F180 X49.460 Y45.652
G01 F180 X49.460 Y45.601
G01 F180 X49.486 Y45.601
G01 F180 X49.486 Y45.550
G01 F180 X49.511 Y45.550
G01 F180 X49.511 Y45.500
G01 F180 X49.536 Y45.500
G01 F180 X49.536 Y45.474
G01 F180 X49.562 Y45.474
G01 F180 X49.562 Y45.424
G01 F180 X49.587 Y45.424
G01 F180 X49.587 Y45.373
G01 F180 X49.613 Y45.373
G01 F180 X49.613 Y45.347
G01 F180 X49.638 Y45.347
G01 F180 X49.638 Y45.297
G01 F180 X49.663 Y45.297
G01 F180 X49.663 Y45.246
G01 F180 X49.689 Y45.246
G01 F180 X49.689 Y45.195
G01 F180 X49.714 Y45.195
G01 F180 X49.714 Y45.169
G01 F180 X49.740 Y45.169
G01 F180 X49.740 Y45.119
G01 F180 X49.765 Y45.119
G01 F180 X49.765 Y45.068
G01 F180 X49.790 Y45.068
G01 F180 X49.790 Y45.043
G01 F180 X49.816 Y45.043
G01 F180 X49.816 Y44.992
G01 F180 X49.841 Y44.992
G01 F180 X49.841 Y44.941
G01 F180 X49.867 Y44.941
G01 F180 X49.867 Y44.916
G01 F180 X49.892 Y44.916
G01 F180 X49.892 Y44.865
G01 F180 X49.917 Y44.865
G01 F180 X49.917 Y44.814
G01 F180 X49.943 Y44.814
G01 F180 X49.943 Y44.763
G01 F180 X49.968 Y44.763
G01 F180 X49.968 Y44.738
G01 F180 X49.994 Y44.738
G01 F180 X49.994 Y44.687
G01 F180 X50.019 Y44.687
G01 F180 X50.019 Y44.636
G01 F180 X50.044 Y44.636
G01 F180 X50.044 Y44.611
G01 F180 X50.070 Y44.611
G01 F180 X50.070 Y44.560
G01 F180 X50.095 Y44.560
G01 F180 X50.095 Y44.535
G01 F180 X50.121 Y44.535
G01 F180 X50.121 Y44.509
G01 F180 X50.146 Y44.509
G01 F180 X50.146 Y44.484
G01 F180 X50.197 Y44.484
G01 F180 X50.197 Y44.458
G01 F180 X50.298 Y44.458
G01 F180 X50.298 Y44.433
G01 F180 X50.841 Y44.433
G01 F180 X50.841 Y44.458
G01 F180 X50.942 Y44.458
G01 F180 X50.942 Y44.484
G01 F180 X50.993 Y44.484
G01 F180 X50.993 Y44.509
G01 F180 X51.018 Y44.509
G01 F180 X51.018 Y44.535
G01 F180 X51.044 Y44.535
G01 F180 X51.044 Y44.560
G01 F180 X51.069 Y44.560
G01 F180 X51.069 Y44.585
G01 F180 X51.095 Y44.585
G01 F180 X51.095 Y44.636
G01 F180 X51.120 Y44.636
G01 F180 X51.120 Y45.356
G01 F180 X51.095 Y45.356
G01 F180 X51.095 Y45.407
G01 F180 X51.069 Y45.407
G01 F180 X51.069 Y45.432
G01 F180 X51.044 Y45.432
G01 F180 X51.044 Y45.483
G01 F180 X51.018 Y45.483
G01 F180 X51.018 Y45.534
G01 F180 X50.993 Y45.534
G01 F180 X50.993 Y45.585
G01 F180 X50.968 Y45.585
G01 F180 X50.968 Y45.610
G01 F180 X50.942 Y45.610
G01 F180 X50.942 Y45.661
G01 F180 X50.917 Y45.661
G01 F180 X50.917 Y45.712
G01 F180 X50.891 Y45.712
G01 F180 X50.891 Y45.737
G01 F180 X50.866 Y45.737
G01 F180 X50.866 Y45.788
G01 F180 X50.841 Y45.788
G01 F180 X50.841 Y45.839
G01 F180 X50.815 Y45.839
G01 F180 X50.815 Y45.864
G01 F180 X50.790 Y45.864
G01 F180 X50.790 Y45.915
G01 F180 X50.764 Y45.915
G01 F180 X50.764 Y45.966
G01 F180 X50.739 Y45.966
G01 F180 X50.739 Y46.017
G01 F180 X50.714 Y46.017
G01 F180 X50.714 Y46.042
G01 F180 X50.688 Y46.042
G01 F180 X50.688 Y46.093
G01 F180 X50.663 Y46.093
G01 F180 X50.663 Y46.144
G01 F180 X50.637 Y46.144
G01 F180 X50.637 Y46.169
G01 F180 X50.612 Y46.169
G01 F180 X50.612 Y46.220
G01 F180 X50.587 Y46.220
G01 F180 X50.587 Y46.271
G01 F180 X50.561 Y46.271
G01 F180 X50.561 Y46.296
G01 F180 X50.536 Y46.296
G01 F180 X50.536 Y46.347
G01 F180 X50.510 Y46.347
G01 F180 X50.510 Y46.398
G01 F180 X50.485 Y46.398
G01 F180 X50.485 Y46.448
G01 F180 X50.460 Y46.448
G01 F180 X50.460 Y46.474
G01 F180 X50.434 Y46.474
G01 F180 X50.434 Y46.525
G01 F180 X50.409 Y46.525
G01 F180 X50.409 Y46.575
G01 F180 X50.383 Y46.575
G01 F180 X50.383 Y46.601
G01 F180 X50.358 Y46.601
G01 F180 X50.358 Y46.652
G01 F180 X50.333 Y46.652
G01 F180 X50.333 Y46.702
G01 F180 X50.307 Y46.702
G01 F180 X50.307 Y46.753
G01 F180 X50.282 Y46.753
G01 F180 X50.282 Y46.779
G01 F180 X50.256 Y46.779
G01 F180 X50.256 Y46.829
G01 F180 X50.231 Y46.829
G01 F180 X50.231 Y46.880
G01 F180 X50.206 Y46.880
G01 F180 X50.206 Y46.906
G01 F180 X50.180 Y46.906
G01 F180 X50.180 Y46.956
G01 F180 X50.155 Y46.956
G01 F180 X50.155 Y47.007
G01 F180 X50.129 Y47.007
G01 F180 X50.129 Y47.032
G01 F180 X50.104 Y47.032
G01 F180 X50.104 Y47.083
G01 F180 X50.079 Y47.083
G01 F180 X50.079 Y47.134
G01 F180 X50.053 Y47.134
G01 F180 X50.053 Y47.185
G01 F180 X50.028 Y47.185
G01 F180 X50.028 Y47.210
G01 F180 X50.002 Y47.210
G01 F180 X50.002 Y47.261
G01 F180 X49.977 Y47.261
G01 F180 X49.977 Y47.312
G01 F180 X49.952 Y47.312
G01 F180 X49.952 Y47.337
G01 F180 X49.926 Y47.337
G01 F180 X49.926 Y47.388
G01 F180 X49.901 Y47.388
G01 F180 X49.901 Y47.439
G01 F180 X49.875 Y47.439
G01 F180 X49.875 Y47.464
G01 F180 X49.850 Y47.464
G01 F180 X49.850 Y47.515
G01 F180 X49.825 Y47.515
G01 F180 X49.825 Y47.566
G01 F180 X49.799 Y47.566
G01 F180 X49.799 Y47.617
G01 F180 X49.774 Y47.617
G01 F180 X49.774 Y47.642
G01 F180 X49.748 Y47.642
G01 F180 X49.748 Y47.693
G01 F180 X49.723 Y47.693
G01 F180 X49.723 Y47.744
G01 F180 X49.698 Y47.744
G01 F180 X49.698 Y47.769
G01 F180 X49.672 Y47.769
G01 F180 X49.672 Y47.820
G01 F180 X49.647 Y47.820
G01 F180 X49.647 Y47.871
G01 F180 X49.621 Y47.871
G01 F180 X49.621 Y47.922
G01 F180 X49.596 Y47.922
G01 F180 X49.596 Y47.947
G01 F180 X49.571 Y47.947
G01 F180 X49.571 Y47.998
G01 F180 X49.545 Y47.998
G01 F180 X49.545 Y48.023
G01 F180 X49.520 Y48.023
G01 F180 X49.520 Y48.049
G01 F180 X49.469 Y48.049
G01 F180 X49.469 Y48.074
G01 F180 X49.418 Y48.074
G01 F180 X49.418 Y48.099
G01 F180 X48.470 Y48.099
G00 F3000 Z3.000
G00 F3000 X54.095 Y47.831
G00 F1500 Z0
G01 F180 Z-0.300
G01 F180 X53.984 Y47.808
G01 F180 X53.881 Y47.762
G01 F180 X53.790 Y47.695
G01 F180 X53.715 Y47.612
G01 F180 X53.658 Y47.514
G01 F180 X53.624 Y47.407
G01 F180 X53.613 Y47.307
G01 F180 X53.613 Y6.877
G01 F180 X51.387 Y4.651
G01 F180 X36.570 Y4.651
G01 F180 X34.941 Y6.305
G01 F180 X34.966 Y6.383
G01 F180 X34.992 Y6.629
G01 F180 X34.966 Y6.876
G01 F180 X34.890 Y7.112
G01 F180 X34.766 Y7.327
G01 F180 X34.600 Y7.511
G01 F180 X34.399 Y7.657
G01 F180 X34.172 Y7.758
G01 F180 X33.930 Y7.810
G01 F180 X33.681 Y7.810
G01 F180 X33.439 Y7.758
G01 F180 X33.212 Y7.657
G01 F180 X33.011 Y7.511
G01 F180 X32.845 Y7.327
G01 F180 X32.721 Y7.112
G01 F180 X32.645 Y6.876
G01 F180 X32.619 Y6.629
G01 F180 X32.645 Y6.383
G01 F180 X32.721 Y6.147
G01 F180 X32.845 Y5.932
G01 F180 X33.011 Y5.747
G01 F180 X33.212 Y5.602
G01 F180 X33.439 Y5.501
G01 F180 X33.681 Y5.449
G01 F180 X33.930 Y5.449
G01 F180 X34.172 Y5.501
G01 F180 X34.191 Y5.509
G01 F180 X35.990 Y3.711
G01 F180 X36.076 Y3.648
G01 F180 X36.179 Y3.602
G01 F180 X36.289 Y3.579
G01 F180 X51.667 Y3.579
G01 F180 X51.778 Y3.602
G01 F180 X51.880 Y3.648
G01 F180 X51.967 Y3.711
G01 F180 X54.524 Y6.268
G01 F180 X54.587 Y6.338
G01 F180 X54.643 Y6.436
G01 F180 X54.678 Y6.543
G01 F180 X54.689 Y6.643
G01 F180 X54.689 Y16.271
G01 F180 X55.683 Y16.256
G01 F180 X55.757 Y16.129
G01 F180 X55.914 Y15.955
G01 F180 X56.104 Y15.817
G01 F180 X56.318 Y15.721
G01 F180 X56.548 Y15.672
G01 F180 X56.783 Y15.672
G01 F180 X57.013 Y15.721
G01 F180 X57.227 Y15.817
G01 F180 X57.417 Y15.955
G01 F180 X57.574 Y16.129
G01 F180 X57.692 Y16.332
G01 F180 X57.764 Y16.556
G01 F180 X57.789 Y16.789
G01 F180 X57.764 Y17.023
G01 F180 X57.692 Y17.246
G01 F180 X57.574 Y17.450
G01 F180 X57.417 Y17.624
G01 F180 X57.227 Y17.762
G01 F180 X57.013 Y17.858
G01 F180 X56.783 Y17.907
G01 F180 X56.548 Y17.907
G01 F180 X56.318 Y17.858
G01 F180 X56.104 Y17.762
G01 F180 X55.914 Y17.624
G01 F180 X55.757 Y17.450
G01 F180 X55.687 Y17.329
G01 F180 X55.159 Y17.337
G01 F180 X54.689 Y17.344
G01 F180 X54.689 Y46.759
G01 F180 X58.668 Y46.759
G01 F180 X58.668 Y34.532
G01 F180 X58.678 Y34.432
G01 F180 X58.713 Y34.325
G01 F180 X58.769 Y34.227
G01 F180 X58.833 Y34.157
G01 F180 X60.592 Y32.420
G01 F180 X60.547 Y32.284
G01 F180 X60.521 Y32.029
G01 F180 X60.547 Y31.775
G01 F180 X60.627 Y31.531
G01 F180 X60.755 Y31.309
G01 F180 X60.926 Y31.119
G01 F180 X61.133 Y30.969
G01 F180 X61.367 Y30.865
G01 F180 X61.617 Y30.811
G01 F180 X61.873 Y30.811
G01 F180 X62.124 Y30.865
G01 F180 X62.358 Y30.969
G01 F180 X62.565 Y31.119
G01 F180 X62.736 Y31.309
G01 F180 X62.864 Y31.531
G01 F180 X62.944 Y31.775
G01 F180 X62.970 Y32.029
G01 F180 X62.944 Y32.284
G01 F180 X62.864 Y32.528
G01 F180 X62.736 Y32.749
G01 F180 X62.565 Y32.940
G01 F180 X62.358 Y33.090
G01 F180 X62.124 Y33.194
G01 F180 X61.873 Y33.248
G01 F180 X61.617 Y33.248
G01 F180 X61.367 Y33.194
G01 F180 X61.347 Y33.185
G01 F180 X59.743 Y34.768
G01 F180 X59.743 Y47.307
G01 F180 X59.733 Y47.407
G01 F180 X59.698 Y47.514
G01 F180 X59.642 Y47.612
G01 F180 X59.566 Y47.695
G01 F180 X59.475 Y47.762
G01 F180 X59.372 Y47.808
G01 F180 X59.262 Y47.831
G01 F180 X54.095 Y47.831
G00 F3000 Z3.000
G00 F3000 X64.000 Y47.449
G00 F1500 Z0
G01 F180 Z-0.300
G01 F180 X63.441 Y47.330
G01 F180 X62.918 Y47.097
G01 F180 X62.456 Y46.761
G01 F180 X62.073 Y46.337
G01 F180 X61.788 Y45.842
G01 F180 X61.611 Y45.298
G01 F180 X61.551 Y44.729
G01 F180 X61.611 Y44.161
G01 F180 X61.788 Y43.617
G01 F180 X62.073 Y43.122
G01 F180 X62.456 Y42.697
G01 F180 X62.918 Y42.361
G01 F180 X63.441 Y42.129
G01 F180 X64.000 Y42.010
G01 F180 X64.571 Y42.010
G01 F180 X65.130 Y42.129
G01 F180 X65.653 Y42.361
G01 F180 X66.115 Y42.697
G01 F180 X66.498 Y43.122
G01 F180 X66.783 Y43.617
G01 F180 X66.960 Y44.161
G01 F180 X67.020 Y44.729
G01 F180 X66.960 Y45.298
G01 F180 X66.783 Y45.842
G01 F180 X66.498 Y46.337
G01 F180 X66.115 Y46.761
G01 F180 X65.653 Y47.097
G01 F180 X65.130 Y47.330
G01 F180 X64.571 Y47.449
G01 F180 X64.000 Y47.449
G00 F3000 Z3.000
G00 F3000 X3.040 Y47.449
G00 F1500 Z0
G01 F180 Z-0.300
G01 F180 X2.481 Y47.330
G01 F180 X1.958 Y47.097
G01 F180 X1.496 Y46.761
G01 F180 X1.113 Y46.337
G01 F180 X0.828 Y45.842
G01 F180 X0.651 Y45.298
G01 F180 X0.591 Y44.729
G01 F180 X0.651 Y44.161
G01 F180 X0.828 Y43.617
G01 F180 X1.113 Y43.122
G01 F180 X1.496 Y42.697
G01 F180 X1.958 Y42.361
G01 F180 X2.481 Y42.129
G01 F180 X3.040 Y42.010
G01 F180 X3.611 Y42.010
G01 F180 X4.171 Y42.129
G01 F180 X4.693 Y42.361
G01 F180 X5.155 Y42.697
G01 F180 X5.538 Y43.122
G01 F180 X5.823 Y43.617
G01 F180 X6.000 Y44.161
G01 F180 X6.060 Y44.729
G01 F180 X6.000 Y45.298
G01 F180 X5.823 Y45.842
G01 F180 X5.538 Y46.337
G01 F180 X5.155 Y46.761
G01 F180 X4.693 Y47.097
G01 F180 X4.171 Y47.330
G01 F180 X3.611 Y47.449
G01 F180 X3.040 Y47.449
G00 F3000 Z3.000
G00 F3000 X31.138 Y45.948
G00 F1500 Z0
G01 F180 Z-0.300
G01 F180 X30.887 Y45.894
G01 F180 X30.653 Y45.790
G01 F180 X30.446 Y45.640
G01 F180 X30.275 Y45.449
G01 F180 X30.147 Y45.228
G01 F180 X30.067 Y44.984
G01 F180 X30.041 Y44.729
G01 F180 X30.067 Y44.475
G01 F180 X30.147 Y44.231
G01 F180 X30.275 Y44.009
G01 F180 X30.446 Y43.819
G01 F180 X30.653 Y43.669
G01 F180 X30.728 Y43.635
G01 F180 X30.728 Y43.413
G01 F180 X30.042 Y43.413
G01 F180 X30.042 Y40.966
G01 F180 X32.489 Y40.966
G01 F180 X32.489 Y41.659
G01 F180 X33.584 Y41.675
G01 F180 X38.529 Y36.680
G01 F180 X38.616 Y36.617
G01 F180 X38.719 Y36.571
G01 F180 X38.829 Y36.548
G01 F180 X38.919 Y36.548
G01 F180 X40.447 Y36.569
G01 F180 X40.517 Y36.449
G01 F180 X40.674 Y36.275
G01 F180 X40.864 Y36.137
G01 F180 X41.078 Y36.041
G01 F180 X41.308 Y35.992
G01 F180 X41.543 Y35.992
G01 F180 X41.773 Y36.041
G01 F180 X41.987 Y36.137
G01 F180 X42.177 Y36.275
G01 F180 X42.334 Y36.449
G01 F180 X42.452 Y36.653
G01 F180 X42.524 Y36.876
G01 F180 X42.549 Y37.109
G01 F180 X42.524 Y37.343
G01 F180 X42.452 Y37.566
G01 F180 X42.334 Y37.770
G01 F180 X42.177 Y37.944
G01 F180 X41.987 Y38.082
G01 F180 X41.773 Y38.178
G01 F180 X41.543 Y38.227
G01 F180 X41.308 Y38.227
G01 F180 X41.078 Y38.178
G01 F180 X40.864 Y38.082
G01 F180 X40.674 Y37.944
G01 F180 X40.517 Y37.770
G01 F180 X40.443 Y37.642
G01 F180 X39.107 Y37.624
G01 F180 X34.162 Y42.619
G01 F180 X34.075 Y42.682
G01 F180 X33.972 Y42.727
G01 F180 X33.862 Y42.751
G01 F180 X33.772 Y42.751
G01 F180 X32.489 Y42.733
G01 F180 X32.489 Y43.413
G01 F180 X31.804 Y43.413
G01 F180 X31.804 Y43.636
G01 F180 X31.878 Y43.669
G01 F180 X32.085 Y43.819
G01 F180 X32.257 Y44.009
G01 F180 X32.385 Y44.231
G01 F180 X32.464 Y44.475
G01 F180 X32.490 Y44.729
G01 F180 X32.464 Y44.984
G01 F180 X32.385 Y45.228
G01 F180 X32.257 Y45.449
G01 F180 X32.085 Y45.640
G01 F180 X31.878 Y45.790
G01 F180 X31.644 Y45.894
G01 F180 X31.394 Y45.948
G01 F180 X31.138 Y45.948
G00 F3000 Z3.000
G00 F3000 X56.548 Y45.846
G00 F1500 Z0
G01 F180 Z-0.300
G01 F180 X56.318 Y45.798
G01 F180 X56.104 Y45.702
G01 F180 X55.914 Y45.564
G01 F180 X55.757 Y45.390
G01 F180 X55.639 Y45.186
G01 F180 X55.567 Y44.963
G01 F180 X55.542 Y44.729
G01 F180 X55.567 Y44.496
G01 F180 X55.639 Y44.273
G01 F180 X55.757 Y44.069
G01 F180 X55.914 Y43.895
G01 F180 X56.104 Y43.757
G01 F180 X56.318 Y43.661
G01 F180 X56.548 Y43.612
G01 F180 X56.783 Y43.612
G01 F180 X57.013 Y43.661
G01 F180 X57.227 Y43.757
G01 F180 X57.417 Y43.895
G01 F180 X57.574 Y44.069
G01 F180 X57.692 Y44.273
G01 F180 X57.764 Y44.496
G01 F180 X57.789 Y44.729
G01 F180 X57.764 Y44.963
G01 F180 X57.692 Y45.186
G01 F180 X57.574 Y45.390
G01 F180 X57.417 Y45.564
G01 F180 X57.227 Y45.702
G01 F180 X57.013 Y45.798
G01 F180 X56.783 Y45.846
G01 F180 X56.548 Y45.846
G00 F3000 Z3.000
G00 F3000 X41.308 Y45.846
G00 F1500 Z0
G01 F180 Z-0.300
G01 F180 X41.078 Y45.798
G01 F180 X40.864 Y45.702
G01 F180 X40.674 Y45.564
G01 F180 X40.517 Y45.390
G01 F180 X40.399 Y45.186
G01 F180 X40.327 Y44.963
G01 F180 X40.302 Y44.729
G01 F180 X40.327 Y44.496
G01 F180 X40.399 Y44.273
G01 F180 X40.517 Y44.069
G01 F180 X40.674 Y43.895
G01 F180 X40.864 Y43.757
G01 F180 X41.078 Y43.661
G01 F180 X41.308 Y43.612
G01 F180 X41.543 Y43.612
G01 F180 X41.773 Y43.661
G01 F180 X41.987 Y43.757
G01 F180 X42.177 Y43.895
G01 F180 X42.334 Y44.069
G01 F180 X42.452 Y44.273
G01 F180 X42.524 Y44.496
G01 F180 X42.549 Y44.729
G01 F180 X42.524 Y44.963
G01 F180 X42.452 Y45.186
G01 F180 X42.334 Y45.390
G01 F180 X42.177 Y45.564
G01 F180 X41.987 Y45.702
G01 F180 X41.773 Y45.798
G01 F180 X41.543 Y45.846
G01 F180 X41.308 Y45.846
G00 F3000 Z3.000
G00 F3000 X68.002 Y43.832
G00 F1500 Z0
G01 F180 Z-0.300
G01 F180 X68.002 Y43.807
G01 F180 X67.977 Y43.807
G01 F180 X67.977 Y43.781
G01 F180 X67.951 Y43.781
G01 F180 X67.951 Y43.756
G01 F180 X67.926 Y43.756
G01 F180 X67.926 Y42.172
G01 F180 X67.951 Y42.172
G01 F180 X67.951 Y42.147
G01 F180 X67.977 Y42.147
G01 F180 X67.977 Y42.122
G01 F180 X68.002 Y42.122
G01 F180 X68.002 Y42.096
G01 F180 X68.671 Y42.096
G01 F180 X68.671 Y42.122
G01 F180 X68.722 Y42.122
G01 F180 X68.722 Y42.172
G01 F180 X68.748 Y42.172
G01 F180 X68.748 Y43.756
G01 F180 X68.722 Y43.756
G01 F180 X68.722 Y43.807
G01 F180 X68.671 Y43.807
G01 F180 X68.671 Y43.832
G01 F180 X68.002 Y43.832
G00 F3000 Z3.000
G00 F3000 X48.698 Y43.477
G00 F1500 Z0
G01 F180 Z-0.300
G01 F180 X48.698 Y43.451
G01 F180 X48.571 Y43.451
G01 F180 X48.571 Y43.426
G01 F180 X48.520 Y43.426
G01 F180 X48.520 Y43.400
G01 F180 X48.495 Y43.400
G01 F180 X48.495 Y43.375
G01 F180 X48.470 Y43.375
G01 F180 X48.470 Y43.349
G01 F180 X48.444 Y43.349
G01 F180 X48.444 Y43.324
G01 F180 X48.419 Y43.324
G01 F180 X48.419 Y43.273
G01 F180 X48.393 Y43.273
G01 F180 X48.393 Y43.146
G01 F180 X48.368 Y43.146
G01 F180 X48.368 Y40.115
G01 F180 X48.393 Y40.115
G01 F180 X48.393 Y39.988
G01 F180 X48.419 Y39.988
G01 F180 X48.419 Y39.962
G01 F180 X48.444 Y39.962
G01 F180 X48.444 Y39.912
G01 F180 X48.470 Y39.912
G01 F180 X48.470 Y39.886
G01 F180 X48.495 Y39.886
G01 F180 X48.495 Y39.861
G01 F180 X48.546 Y39.861
G01 F180 X48.546 Y39.836
G01 F180 X48.597 Y39.836
G01 F180 X48.597 Y39.810
G01 F180 X49.545 Y39.810
G01 F180 X49.545 Y39.836
G01 F180 X49.596 Y39.836
G01 F180 X49.596 Y39.861
G01 F180 X49.647 Y39.861
G01 F180 X49.647 Y39.886
G01 F180 X49.672 Y39.886
G01 F180 X49.672 Y39.912
G01 F180 X49.698 Y39.912
G01 F180 X49.698 Y39.937
G01 F180 X49.723 Y39.937
G01 F180 X49.723 Y39.988
G01 F180 X49.748 Y39.988
G01 F180 X49.748 Y40.064
G01 F180 X49.774 Y40.064
G01 F180 X49.774 Y43.197
G01 F180 X49.748 Y43.197
G01 F180 X49.748 Y43.273
G01 F180 X49.723 Y43.273
G01 F180 X49.723 Y43.324
G01 F180 X49.698 Y43.324
G01 F180 X49.698 Y43.349
G01 F180 X49.672 Y43.349
G01 F180 X49.672 Y43.375
G01 F180 X49.647 Y43.375
G01 F180 X49.647 Y43.400
G01 F180 X49.621 Y43.400
G01 F180 X49.621 Y43.426
G01 F180 X49.571 Y43.426
G01 F180 X49.571 Y43.451
G01 F180 X49.444 Y43.451
G01 F180 X49.444 Y43.477
G01 F180 X48.698 Y43.477
G00 F3000 Z3.000
G00 F3000 X23.919 Y43.310
G00 F1500 Z0
G01 F180 Z-0.300
G01 F180 X23.834 Y43.291
G01 F180 X23.763 Y43.306
G01 F180 X23.528 Y43.306
G01 F180 X23.298 Y43.258
G01 F180 X23.084 Y43.162
G01 F180 X22.894 Y43.024
G01 F180 X22.737 Y42.850
G01 F180 X22.619 Y42.646
G01 F180 X22.547 Y42.423
G01 F180 X22.522 Y42.189
G01 F180 X22.547 Y41.956
G01 F180 X22.619 Y41.733
G01 F180 X22.737 Y41.529
G01 F180 X22.894 Y41.355
G01 F180 X23.084 Y41.217
G01 F180 X23.112 Y41.204
G01 F180 X23.119 Y40.739
G01 F180 X23.113 Y40.211
G01 F180 X21.075 Y40.211
G01 F180 X20.964 Y40.188
G01 F180 X20.861 Y40.142
G01 F180 X20.775 Y40.079
G01 F180 X15.677 Y34.931
G01 F180 X15.615 Y34.861
G01 F180 X15.558 Y34.763
G01 F180 X15.524 Y34.656
G01 F180 X15.513 Y34.556
G01 F180 X15.513 Y32.540
G01 F180 X8.349 Y32.540
G01 F180 X8.239 Y32.517
G01 F180 X8.136 Y32.471
G01 F180 X8.050 Y32.409
G01 F180 X5.493 Y29.877
G01 F180 X5.429 Y29.806
G01 F180 X5.373 Y29.709
G01 F180 X5.338 Y29.602
G01 F180 X5.328 Y29.502
G01 F180 X5.328 Y22.922
G01 F180 X5.272 Y22.897
G01 F180 X5.071 Y22.751
G01 F180 X4.905 Y22.567
G01 F180 X4.781 Y22.352
G01 F180 X4.705 Y22.116
G01 F180 X4.679 Y21.869
G01 F180 X4.705 Y21.623
G01 F180 X4.781 Y21.387
G01 F180 X4.905 Y21.172
G01 F180 X5.071 Y20.987
G01 F180 X5.272 Y20.842
G01 F180 X5.328 Y20.817
G01 F180 X5.328 Y16.752
G01 F180 X5.338 Y16.652
G01 F180 X5.373 Y16.545
G01 F180 X5.429 Y16.447
G01 F180 X5.493 Y16.377
G01 F180 X8.050 Y13.845
G01 F180 X8.136 Y13.783
G01 F180 X8.239 Y13.737
G01 F180 X8.349 Y13.713
G01 F180 X9.892 Y13.713
G01 F180 X9.985 Y13.552
G01 F180 X10.151 Y13.367
G01 F180 X10.352 Y13.222
G01 F180 X10.579 Y13.121
G01 F180 X10.822 Y13.069
G01 F180 X11.070 Y13.069
G01 F180 X11.312 Y13.121
G01 F180 X11.539 Y13.222
G01 F180 X11.740 Y13.367
G01 F180 X11.906 Y13.552
G01 F180 X11.999 Y13.713
G01 F180 X14.972 Y13.713
G01 F180 X15.065 Y13.552
G01 F180 X15.231 Y13.367
G01 F180 X15.432 Y13.222
G01 F180 X15.659 Y13.121
G01 F180 X15.902 Y13.069
G01 F180 X16.150 Y13.069
G01 F180 X16.392 Y13.121
G01 F180 X16.619 Y13.222
G01 F180 X16.820 Y13.367
G01 F180 X16.986 Y13.552
G01 F180 X17.110 Y13.767
G01 F180 X17.186 Y14.003
G01 F180 X17.212 Y14.249
G01 F180 X17.186 Y14.496
G01 F180 X17.110 Y14.732
G01 F180 X16.986 Y14.947
G01 F180 X16.820 Y15.131
G01 F180 X16.619 Y15.277
G01 F180 X16.392 Y15.378
G01 F180 X16.150 Y15.430
G01 F180 X15.902 Y15.430
G01 F180 X15.659 Y15.378
G01 F180 X15.432 Y15.277
G01 F180 X15.231 Y15.131
G01 F180 X15.065 Y14.947
G01 F180 X14.973 Y14.788
G01 F180 X12.084 Y14.805
G01 F180 X12.017 Y14.879
G01 F180 X11.923 Y14.947
G01 F180 X11.895 Y14.958
G01 F180 X11.740 Y15.131
G01 F180 X11.539 Y15.277
G01 F180 X11.509 Y15.291
G01 F180 X11.509 Y21.696
G01 F180 X16.424 Y26.562
G01 F180 X16.487 Y26.633
G01 F180 X16.543 Y26.730
G01 F180 X16.578 Y26.837
G01 F180 X16.589 Y26.937
G01 F180 X16.589 Y31.575
G01 F180 X17.794 Y31.844
G01 F180 X17.856 Y31.775
G01 F180 X18.036 Y31.645
G01 F180 X18.199 Y31.572
G01 F180 X18.036 Y31.499
G01 F180 X17.856 Y31.369
G01 F180 X17.708 Y31.205
G01 F180 X17.597 Y31.013
G01 F180 X17.529 Y30.802
G01 F180 X17.506 Y30.582
G01 F180 X17.529 Y30.361
G01 F180 X17.597 Y30.151
G01 F180 X17.708 Y29.959
G01 F180 X17.856 Y29.794
G01 F180 X18.036 Y29.664
G01 F180 X18.228 Y29.578
G01 F180 X18.036 Y29.493
G01 F180 X17.856 Y29.363
G01 F180 X17.708 Y29.198
G01 F180 X17.597 Y29.006
G01 F180 X17.529 Y28.795
G01 F180 X17.506 Y28.575
G01 F180 X17.529 Y28.355
G01 F180 X17.597 Y28.144
G01 F180 X17.708 Y27.952
G01 F180 X17.856 Y27.787
G01 F180 X18.036 Y27.657
G01 F180 X18.238 Y27.567
G01 F180 X18.455 Y27.521
G01 F180 X18.676 Y27.521
G01 F180 X18.893 Y27.567
G01 F180 X19.095 Y27.657
G01 F180 X19.275 Y27.787
G01 F180 X19.423 Y27.952
G01 F180 X19.534 Y28.144
G01 F180 X19.602 Y28.355
G01 F180 X19.604 Y28.370
G01 F180 X21.229 Y28.953
G01 F180 X25.132 Y28.953
G01 F180 X25.225 Y28.792
G01 F180 X25.391 Y28.607
G01 F180 X25.592 Y28.462
G01 F180 X25.819 Y28.361
G01 F180 X26.062 Y28.309
G01 F180 X26.310 Y28.309
G01 F180 X26.552 Y28.361
G01 F180 X26.779 Y28.462
G01 F180 X26.980 Y28.607
G01 F180 X27.146 Y28.792
G01 F180 X27.270 Y29.007
G01 F180 X27.346 Y29.243
G01 F180 X27.372 Y29.489
G01 F180 X27.346 Y29.736
G01 F180 X27.270 Y29.972
G01 F180 X27.146 Y30.187
G01 F180 X26.980 Y30.371
G01 F180 X26.779 Y30.517
G01 F180 X26.552 Y30.618
G01 F180 X26.310 Y30.670
G01 F180 X26.062 Y30.670
G01 F180 X25.819 Y30.618
G01 F180 X25.592 Y30.517
G01 F180 X25.391 Y30.371
G01 F180 X25.225 Y30.187
G01 F180 X25.132 Y30.026
G01 F180 X21.075 Y30.026
G01 F180 X20.973 Y30.004
G01 F180 X19.245 Y29.384
G01 F180 X19.095 Y29.493
G01 F180 X18.903 Y29.578
G01 F180 X19.095 Y29.664
G01 F180 X19.275 Y29.794
G01 F180 X19.423 Y29.959
G01 F180 X19.534 Y30.151
G01 F180 X19.602 Y30.361
G01 F180 X19.621 Y30.538
G01 F180 X21.276 Y31.469
G01 F180 X25.133 Y31.491
G01 F180 X25.225 Y31.332
G01 F180 X25.391 Y31.147
G01 F180 X25.592 Y31.002
G01 F180 X25.819 Y30.901
G01 F180 X26.062 Y30.849
G01 F180 X26.310 Y30.849
G01 F180 X26.552 Y30.901
G01 F180 X26.779 Y31.002
G01 F180 X26.980 Y31.147
G01 F180 X27.146 Y31.332
G01 F180 X27.270 Y31.547
G01 F180 X27.346 Y31.783
G01 F180 X27.372 Y32.029
G01 F180 X27.346 Y32.276
G01 F180 X27.270 Y32.512
G01 F180 X27.146 Y32.727
G01 F180 X26.980 Y32.911
G01 F180 X26.779 Y33.057
G01 F180 X26.552 Y33.158
G01 F180 X26.310 Y33.210
G01 F180 X26.062 Y33.210
G01 F180 X25.819 Y33.158
G01 F180 X25.592 Y33.057
G01 F180 X25.391 Y32.911
G01 F180 X25.225 Y32.727
G01 F180 X25.131 Y32.564
G01 F180 X21.074 Y32.540
G01 F180 X20.964 Y32.517
G01 F180 X20.874 Y32.476
G01 F180 X19.114 Y31.486
G01 F180 X19.095 Y31.499
G01 F180 X18.932 Y31.572
G01 F180 X19.095 Y31.645
G01 F180 X19.275 Y31.775
G01 F180 X19.423 Y31.940
G01 F180 X19.534 Y32.132
G01 F180 X19.602 Y32.343
G01 F180 X19.625 Y32.563
G01 F180 X19.602 Y32.783
G01 F180 X19.534 Y32.994
G01 F180 X19.423 Y33.186
G01 F180 X19.275 Y33.350
G01 F180 X19.095 Y33.481
G01 F180 X18.903 Y33.566
G01 F180 X19.095 Y33.652
G01 F180 X19.275 Y33.782
G01 F180 X19.423 Y33.947
G01 F180 X19.471 Y34.029
G01 F180 X21.098 Y34.008
G01 F180 X21.163 Y34.008
G01 F180 X25.133 Y34.031
G01 F180 X25.225 Y33.872
G01 F180 X25.391 Y33.687
G01 F180 X25.592 Y33.542
G01 F180 X25.819 Y33.441
G01 F180 X26.062 Y33.389
G01 F180 X26.310 Y33.389
G01 F180 X26.552 Y33.441
G01 F180 X26.779 Y33.542
G01 F180 X26.980 Y33.687
G01 F180 X27.146 Y33.872
G01 F180 X27.270 Y34.087
G01 F180 X27.346 Y34.323
G01 F180 X27.372 Y34.569
G01 F180 X27.346 Y34.816
G01 F180 X27.270 Y35.052
G01 F180 X27.146 Y35.267
G01 F180 X26.980 Y35.451
G01 F180 X26.779 Y35.597
G01 F180 X26.552 Y35.698
G01 F180 X26.310 Y35.750
G01 F180 X26.062 Y35.750
G01 F180 X25.819 Y35.698
G01 F180 X25.592 Y35.597
G01 F180 X25.391 Y35.451
G01 F180 X25.225 Y35.267
G01 F180 X25.131 Y35.104
G01 F180 X21.145 Y35.080
G01 F180 X19.475 Y35.102
G01 F180 X19.423 Y35.192
G01 F180 X19.275 Y35.357
G01 F180 X19.095 Y35.487
G01 F180 X18.893 Y35.577
G01 F180 X18.676 Y35.623
G01 F180 X18.455 Y35.623
G01 F180 X18.238 Y35.577
G01 F180 X18.036 Y35.487
G01 F180 X17.856 Y35.357
G01 F180 X17.708 Y35.192
G01 F180 X17.597 Y35.001
G01 F180 X17.529 Y34.790
G01 F180 X17.506 Y34.569
G01 F180 X17.529 Y34.349
G01 F180 X17.597 Y34.138
G01 F180 X17.708 Y33.947
G01 F180 X17.856 Y33.782
G01 F180 X18.036 Y33.652
G01 F180 X18.228 Y33.566
G01 F180 X18.036 Y33.481
G01 F180 X17.856 Y33.350
G01 F180 X17.708 Y33.186
G01 F180 X17.597 Y32.994
G01 F180 X17.564 Y32.892
G01 F180 X16.589 Y32.674
G01 F180 X16.589 Y34.324
G01 F180 X21.356 Y39.139
G01 F180 X23.475 Y39.139
G01 F180 X23.479 Y39.137
G01 F180 X23.589 Y39.113
G01 F180 X23.702 Y39.113
G01 F180 X23.812 Y39.137
G01 F180 X23.817 Y39.139
G01 F180 X28.690 Y39.139
G01 F180 X30.166 Y39.118
G01 F180 X30.275 Y38.929
G01 F180 X30.446 Y38.739
G01 F180 X30.653 Y38.589
G01 F180 X30.887 Y38.485
G01 F180 X31.138 Y38.431
G01 F180 X31.394 Y38.431
G01 F180 X31.644 Y38.485
G01 F180 X31.878 Y38.589
G01 F180 X32.085 Y38.739
G01 F180 X32.257 Y38.929
G01 F180 X32.385 Y39.151
G01 F180 X32.464 Y39.395
G01 F180 X32.490 Y39.649
G01 F180 X32.464 Y39.904
G01 F180 X32.385 Y40.148
G01 F180 X32.257 Y40.369
G01 F180 X32.085 Y40.560
G01 F180 X31.878 Y40.710
G01 F180 X31.644 Y40.814
G01 F180 X31.394 Y40.868
G01 F180 X31.138 Y40.868
G01 F180 X30.887 Y40.814
G01 F180 X30.653 Y40.710
G01 F180 X30.446 Y40.560
G01 F180 X30.275 Y40.369
G01 F180 X30.171 Y40.191
G01 F180 X28.759 Y40.211
G01 F180 X24.209 Y40.211
G01 F180 X24.209 Y41.218
G01 F180 X24.397 Y41.355
G01 F180 X24.554 Y41.529
G01 F180 X24.672 Y41.733
G01 F180 X24.744 Y41.956
G01 F180 X24.769 Y42.189
G01 F180 X24.744 Y42.423
G01 F180 X24.672 Y42.646
G01 F180 X24.554 Y42.850
G01 F180 X24.492 Y42.918
G01 F180 X24.468 Y42.993
G01 F180 X24.412 Y43.090
G01 F180 X24.336 Y43.174
G01 F180 X24.245 Y43.241
G01 F180 X24.142 Y43.286
G01 F180 X24.032 Y43.310
G01 F180 X23.919 Y43.310
G00 F3000 Z3.000
G00 F3000 X56.548 Y43.306
G00 F1500 Z0
G01 F180 Z-0.300
G01 F180 X56.318 Y43.258
G01 F180 X56.104 Y43.162
G01 F180 X55.914 Y43.024
G01 F180 X55.757 Y42.850
G01 F180 X55.639 Y42.646
G01 F180 X55.567 Y42.423
G01 F180 X55.542 Y42.189
G01 F180 X55.567 Y41.956
G01 F180 X55.639 Y41.733
G01 F180 X55.757 Y41.529
G01 F180 X55.914 Y41.355
G01 F180 X56.104 Y41.217
G01 F180 X56.318 Y41.121
G01 F180 X56.548 Y41.072
G01 F180 X56.783 Y41.072
G01 F180 X57.013 Y41.121
G01 F180 X57.227 Y41.217
G01 F180 X57.417 Y41.355
G01 F180 X57.574 Y41.529
G01 F180 X57.692 Y41.733
G01 F180 X57.764 Y41.956
G01 F180 X57.789 Y42.189
G01 F180 X57.764 Y42.423
G01 F180 X57.692 Y42.646
G01 F180 X57.574 Y42.850
G01 F180 X57.417 Y43.024
G01 F180 X57.227 Y43.162
G01 F180 X57.013 Y43.258
G01 F180 X56.783 Y43.306
G01 F180 X56.548 Y43.306
G00 F3000 Z3.000
G00 F3000 X41.308 Y43.306
G00 F1500 Z0
G01 F180 Z-0.300
G01 F180 X41.078 Y43.258
G01 F180 X40.864 Y43.162
G01 F180 X40.674 Y43.024
G01 F180 X40.517 Y42.850
G01 F180 X40.399 Y42.646
G01 F180 X40.327 Y42.423
G01 F180 X40.302 Y42.189
G01 F180 X40.327 Y41.956
G01 F180 X40.399 Y41.733
G01 F180 X40.517 Y41.529
G01 F180 X40.674 Y41.355
G01 F180 X40.864 Y41.217
G01 F180 X41.078 Y41.121
G01 F180 X41.308 Y41.072
G01 F180 X41.543 Y41.072
G01 F180 X41.773 Y41.121
G01 F180 X41.987 Y41.217
G01 F180 X42.177 Y41.355
G01 F180 X42.334 Y41.529
G01 F180 X42.452 Y41.733
G01 F180 X42.524 Y41.956
G01 F180 X42.549 Y42.189
G01 F180 X42.524 Y42.423
G01 F180 X42.452 Y42.646
G01 F180 X42.334 Y42.850
G01 F180 X42.177 Y43.024
G01 F180 X41.987 Y43.162
G01 F180 X41.773 Y43.258
G01 F180 X41.543 Y43.306
G01 F180 X41.308 Y43.306
G00 F3000 Z3.000
G00 F3000 X65.577 Y40.898
G00 F1500 Z0
G01 F180 Z-0.300
G01 F180 X65.577 Y40.193
G01 F180 X64.319 Y40.211
G01 F180 X64.229 Y40.211
G01 F180 X64.119 Y40.188
G01 F180 X64.016 Y40.142
G01 F180 X63.925 Y40.075
G01 F180 X63.849 Y39.992
G01 F180 X63.793 Y39.894
G01 F180 X63.758 Y39.787
G01 F180 X63.748 Y39.687
G01 F180 X63.748 Y30.026
G01 F180 X62.843 Y30.026
G01 F180 X62.736 Y30.209
G01 F180 X62.565 Y30.400
G01 F180 X62.358 Y30.550
G01 F180 X62.124 Y30.654
G01 F180 X61.873 Y30.708
G01 F180 X61.617 Y30.708
G01 F180 X61.367 Y30.654
G01 F180 X61.133 Y30.550
G01 F180 X60.926 Y30.400
G01 F180 X60.755 Y30.209
G01 F180 X60.627 Y29.988
G01 F180 X60.547 Y29.744
G01 F180 X60.521 Y29.489
G01 F180 X60.547 Y29.235
G01 F180 X60.627 Y28.991
G01 F180 X60.755 Y28.769
G01 F180 X60.926 Y28.579
G01 F180 X61.133 Y28.429
G01 F180 X61.367 Y28.325
G01 F180 X61.617 Y28.271
G01 F180 X61.873 Y28.271
G01 F180 X62.124 Y28.325
G01 F180 X62.358 Y28.429
G01 F180 X62.565 Y28.579
G01 F180 X62.736 Y28.769
G01 F180 X62.843 Y28.953
G01 F180 X63.748 Y28.953
G01 F180 X63.748 Y22.380
G01 F180 X59.149 Y22.380
G01 F180 X59.039 Y22.357
G01 F180 X58.936 Y22.311
G01 F180 X58.845 Y22.245
G01 F180 X58.769 Y22.161
G01 F180 X58.713 Y22.063
G01 F180 X58.678 Y21.956
G01 F180 X58.668 Y21.856
G01 F180 X58.668 Y12.264
G01 F180 X57.644 Y12.249
G01 F180 X57.574 Y12.370
G01 F180 X57.417 Y12.544
G01 F180 X57.227 Y12.682
G01 F180 X57.013 Y12.778
G01 F180 X56.783 Y12.827
G01 F180 X56.548 Y12.827
G01 F180 X56.318 Y12.778
G01 F180 X56.104 Y12.682
G01 F180 X55.914 Y12.544
G01 F180 X55.757 Y12.370
G01 F180 X55.639 Y12.166
G01 F180 X55.567 Y11.943
G01 F180 X55.542 Y11.709
G01 F180 X55.567 Y11.476
G01 F180 X55.639 Y11.253
G01 F180 X55.757 Y11.049
G01 F180 X55.914 Y10.875
G01 F180 X56.104 Y10.737
G01 F180 X56.318 Y10.641
G01 F180 X56.548 Y10.592
G01 F180 X56.783 Y10.592
G01 F180 X57.013 Y10.641
G01 F180 X57.227 Y10.737
G01 F180 X57.417 Y10.875
G01 F180 X57.574 Y11.049
G01 F180 X57.648 Y11.176
G01 F180 X59.264 Y11.199
G01 F180 X59.372 Y11.222
G01 F180 X59.475 Y11.268
G01 F180 X59.566 Y11.334
G01 F180 X59.642 Y11.418
G01 F180 X59.698 Y11.516
G01 F180 X59.733 Y11.623
G01 F180 X59.743 Y11.723
G01 F180 X59.743 Y21.308
G01 F180 X64.342 Y21.308
G01 F180 X64.452 Y21.331
G01 F180 X64.555 Y21.377
G01 F180 X64.646 Y21.443
G01 F180 X64.722 Y21.527
G01 F180 X64.778 Y21.625
G01 F180 X64.813 Y21.732
G01 F180 X64.823 Y21.832
G01 F180 X64.823 Y39.130
G01 F180 X65.577 Y39.119
G01 F180 X65.577 Y38.400
G01 F180 X68.075 Y38.400
G01 F180 X68.075 Y40.898
G01 F180 X65.577 Y40.898
G00 F3000 Z3.000
G00 F3000 X4.617 Y40.898
G00 F1500 Z0
G01 F180 Z-0.300
G01 F180 X4.617 Y39.156
G01 F180 X2.977 Y37.496
G01 F180 X2.915 Y37.426
G01 F180 X2.858 Y37.329
G01 F180 X2.824 Y37.221
G01 F180 X2.813 Y37.122
G01 F180 X2.813 Y14.237
G01 F180 X2.824 Y14.137
G01 F180 X2.858 Y14.030
G01 F180 X2.915 Y13.933
G01 F180 X2.977 Y13.863
G01 F180 X4.743 Y12.075
G01 F180 X4.705 Y11.956
G01 F180 X4.679 Y11.709
G01 F180 X4.705 Y11.463
G01 F180 X4.781 Y11.227
G01 F180 X4.905 Y11.012
G01 F180 X5.071 Y10.827
G01 F180 X5.272 Y10.682
G01 F180 X5.499 Y10.581
G01 F180 X5.742 Y10.529
G01 F180 X5.990 Y10.529
G01 F180 X6.232 Y10.581
G01 F180 X6.459 Y10.682
G01 F180 X6.660 Y10.827
G01 F180 X6.826 Y11.012
G01 F180 X6.922 Y11.178
G01 F180 X10.953 Y11.199
G01 F180 X18.647 Y11.199
G01 F180 X18.758 Y11.222
G01 F180 X18.860 Y11.268
G01 F180 X18.946 Y11.330
G01 F180 X21.355 Y13.715
G01 F180 X23.728 Y13.739
G01 F180 X23.838 Y13.762
G01 F180 X23.940 Y13.808
G01 F180 X24.027 Y13.871
G01 F180 X26.433 Y16.277
G01 F180 X30.211 Y16.255
G01 F180 X30.305 Y16.092
G01 F180 X30.471 Y15.907
G01 F180 X30.672 Y15.762
G01 F180 X30.899 Y15.661
G01 F180 X31.142 Y15.609
G01 F180 X31.390 Y15.609
G01 F180 X31.632 Y15.661
G01 F180 X31.859 Y15.762
G01 F180 X32.060 Y15.907
G01 F180 X32.226 Y16.092
G01 F180 X32.350 Y16.307
G01 F180 X32.426 Y16.543
G01 F180 X32.452 Y16.789
G01 F180 X32.426 Y17.036
G01 F180 X32.350 Y17.272
G01 F180 X32.226 Y17.487
G01 F180 X32.060 Y17.671
G01 F180 X31.859 Y17.817
G01 F180 X31.632 Y17.918
G01 F180 X31.390 Y17.970
G01 F180 X31.142 Y17.970
G01 F180 X30.899 Y17.918
G01 F180 X30.672 Y17.817
G01 F180 X30.471 Y17.671
G01 F180 X30.305 Y17.487
G01 F180 X30.213 Y17.328
G01 F180 X26.243 Y17.351
G01 F180 X26.155 Y17.351
G01 F180 X26.044 Y17.328
G01 F180 X25.941 Y17.282
G01 F180 X25.855 Y17.219
G01 F180 X23.445 Y14.809
G01 F180 X21.073 Y14.785
G01 F180 X20.964 Y14.762
G01 F180 X20.861 Y14.716
G01 F180 X20.776 Y14.654
G01 F180 X18.369 Y12.271
G01 F180 X10.888 Y12.271
G01 F180 X6.916 Y12.251
G01 F180 X6.826 Y12.407
G01 F180 X6.660 Y12.591
G01 F180 X6.459 Y12.737
G01 F180 X6.232 Y12.838
G01 F180 X5.990 Y12.890
G01 F180 X5.740 Y12.890
G01 F180 X5.552 Y12.847
G01 F180 X5.516 Y12.855
G01 F180 X5.483 Y12.855
G01 F180 X3.889 Y14.469
G01 F180 X3.889 Y36.889
G01 F180 X5.380 Y38.400
G01 F180 X7.115 Y38.400
G01 F180 X7.115 Y40.898
G01 F180 X4.617 Y40.898
G00 F3000 Z3.000
G00 F3000 X56.548 Y40.767
G00 F1500 Z0
G01 F180 Z-0.300
G01 F180 X56.318 Y40.718
G01 F180 X56.104 Y40.622
G01 F180 X55.914 Y40.484
G01 F180 X55.757 Y40.310
G01 F180 X55.639 Y40.106
G01 F180 X55.567 Y39.883
G01 F180 X55.542 Y39.649
G01 F180 X55.567 Y39.416
G01 F180 X55.639 Y39.193
G01 F180 X55.757 Y38.989
G01 F180 X55.914 Y38.815
G01 F180 X56.104 Y38.677
G01 F180 X56.318 Y38.581
G01 F180 X56.548 Y38.532
G01 F180 X56.783 Y38.532
G01 F180 X57.013 Y38.581
G01 F180 X57.227 Y38.677
G01 F180 X57.417 Y38.815
G01 F180 X57.574 Y38.989
G01 F180 X57.692 Y39.193
G01 F180 X57.764 Y39.416
G01 F180 X57.789 Y39.649
G01 F180 X57.764 Y39.883
G01 F180 X57.692 Y40.106
G01 F180 X57.574 Y40.310
G01 F180 X57.417 Y40.484
G01 F180 X57.227 Y40.622
G01 F180 X57.013 Y40.718
G01 F180 X56.783 Y40.767
G01 F180 X56.548 Y40.767
G00 F3000 Z3.000
G00 F3000 X41.308 Y40.767
G00 F1500 Z0
G01 F180 Z-0.300
G01 F180 X41.078 Y40.718
G01 F180 X40.864 Y40.622
G01 F180 X40.674 Y40.484
G01 F180 X40.517 Y40.310
G01 F180 X40.399 Y40.106
G01 F180 X40.327 Y39.883
G01 F180 X40.302 Y39.649
G01 F180 X40.327 Y39.416
G01 F180 X40.399 Y39.193
G01 F180 X40.517 Y38.989
G01 F180 X40.674 Y38.815
G01 F180 X40.864 Y38.677
G01 F180 X41.078 Y38.581
G01 F180 X41.308 Y38.532
G01 F180 X41.543 Y38.532
G01 F180 X41.773 Y38.581
G01 F180 X41.987 Y38.677
G01 F180 X42.177 Y38.815
G01 F180 X42.334 Y38.989
G01 F180 X42.452 Y39.193
G01 F180 X42.524 Y39.416
G01 F180 X42.549 Y39.649
G01 F180 X42.524 Y39.883
G01 F180 X42.452 Y40.106
G01 F180 X42.334 Y40.310
G01 F180 X42.177 Y40.484
G01 F180 X41.987 Y40.622
G01 F180 X41.773 Y40.718
G01 F180 X41.543 Y40.767
G01 F180 X41.308 Y40.767
G00 F3000 Z3.000
G00 F3000 X8.541 Y40.073
G00 F1500 Z0
G01 F180 Z-0.300
G01 F180 X8.541 Y40.047
G01 F180 X8.439 Y40.047
G01 F180 X8.439 Y40.022
G01 F180 X8.388 Y40.022
G01 F180 X8.388 Y39.997
G01 F180 X8.338 Y39.997
G01 F180 X8.338 Y39.971
G01 F180 X8.312 Y39.971
G01 F180 X8.312 Y39.946
G01 F180 X8.287 Y39.946
G01 F180 X8.287 Y39.921
G01 F180 X8.261 Y39.921
G01 F180 X8.261 Y39.895
G01 F180 X8.236 Y39.895
G01 F180 X8.236 Y39.844
G01 F180 X8.211 Y39.844
G01 F180 X8.211 Y39.768
G01 F180 X8.185 Y39.768
G01 F180 X8.185 Y38.616
G01 F180 X8.211 Y38.616
G01 F180 X8.211 Y38.566
G01 F180 X8.236 Y38.566
G01 F180 X8.236 Y38.515
G01 F180 X8.261 Y38.515
G01 F180 X8.261 Y38.464
G01 F180 X8.287 Y38.464
G01 F180 X8.287 Y38.439
G01 F180 X8.312 Y38.439
G01 F180 X8.312 Y38.413
G01 F180 X8.363 Y38.413
G01 F180 X8.363 Y38.388
G01 F180 X8.388 Y38.388
G01 F180 X8.388 Y38.362
G01 F180 X8.465 Y38.362
G01 F180 X8.465 Y38.337
G01 F180 X9.566 Y38.337
G01 F180 X9.566 Y39.175
G01 F180 X9.582 Y39.175
G01 F180 X9.582 Y39.150
G01 F180 X9.608 Y39.150
G01 F180 X9.608 Y39.124
G01 F180 X9.633 Y39.124
G01 F180 X9.633 Y39.099
G01 F180 X9.684 Y39.099
G01 F180 X9.684 Y39.074
G01 F180 X9.709 Y39.074
G01 F180 X9.709 Y39.048
G01 F180 X9.735 Y39.048
G01 F180 X9.735 Y39.023
G01 F180 X9.760 Y39.023
G01 F180 X9.760 Y38.997
G01 F180 X9.811 Y38.997
G01 F180 X9.811 Y38.972
G01 F180 X9.836 Y38.972
G01 F180 X9.836 Y38.947
G01 F180 X9.862 Y38.947
G01 F180 X9.862 Y38.921
G01 F180 X9.887 Y38.921
G01 F180 X9.887 Y38.896
G01 F180 X9.912 Y38.896
G01 F180 X9.912 Y38.413
G01 F180 X9.938 Y38.413
G01 F180 X9.938 Y38.362
G01 F180 X9.989 Y38.362
G01 F180 X9.989 Y38.337
G01 F180 X10.556 Y38.337
G01 F180 X10.556 Y38.362
G01 F180 X10.607 Y38.362
G01 F180 X10.607 Y38.413
G01 F180 X10.632 Y38.413
G01 F180 X10.632 Y39.413
G01 F180 X10.607 Y39.413
G01 F180 X10.607 Y39.489
G01 F180 X10.582 Y39.489
G01 F180 X10.582 Y39.514
G01 F180 X10.556 Y39.514
G01 F180 X10.556 Y39.565
G01 F180 X10.531 Y39.565
G01 F180 X10.531 Y39.590
G01 F180 X10.480 Y39.590
G01 F180 X10.480 Y39.616
G01 F180 X10.455 Y39.616
G01 F180 X10.455 Y39.641
G01 F180 X10.429 Y39.641
G01 F180 X10.429 Y39.666
G01 F180 X10.404 Y39.666
G01 F180 X10.404 Y39.692
G01 F180 X10.353 Y39.692
G01 F180 X10.353 Y39.717
G01 F180 X10.328 Y39.717
G01 F180 X10.328 Y39.743
G01 F180 X10.302 Y39.743
G01 F180 X10.302 Y39.768
G01 F180 X10.251 Y39.768
G01 F180 X10.251 Y39.794
G01 F180 X10.226 Y39.794
G01 F180 X10.226 Y39.819
G01 F180 X10.201 Y39.819
G01 F180 X10.201 Y39.844
G01 F180 X10.175 Y39.844
G01 F180 X10.175 Y39.870
G01 F180 X10.124 Y39.870
G01 F180 X10.124 Y39.895
G01 F180 X10.099 Y39.895
G01 F180 X10.099 Y39.921
G01 F180 X10.074 Y39.921
G01 F180 X10.074 Y39.946
G01 F180 X10.023 Y39.946
G01 F180 X10.023 Y39.971
G01 F180 X9.997 Y39.971
G01 F180 X9.997 Y39.997
G01 F180 X9.947 Y39.997
G01 F180 X9.947 Y40.022
G01 F180 X9.896 Y40.022
G01 F180 X9.896 Y40.047
G01 F180 X9.743 Y40.047
G01 F180 X9.743 Y40.073
G01 F180 X8.541 Y40.073
G00 F3000 Z3.000
G00 F3000 X47.250 Y39.590
G00 F1500 Z0
G01 F180 Z-0.300
G01 F180 X47.250 Y39.565
G01 F180 X47.200 Y39.565
G01 F180 X47.200 Y39.540
G01 F180 X47.149 Y39.540
G01 F180 X47.149 Y39.514
G01 F180 X47.123 Y39.514
G01 F180 X47.123 Y39.489
G01 F180 X47.073 Y39.489
G01 F180 X47.073 Y39.463
G01 F180 X47.047 Y39.463
G01 F180 X47.047 Y39.413
G01 F180 X47.022 Y39.413
G01 F180 X47.022 Y39.387
G01 F180 X46.996 Y39.387
G01 F180 X46.996 Y39.336
G01 F180 X46.971 Y39.336
G01 F180 X46.971 Y39.260
G01 F180 X46.946 Y39.260
G01 F180 X46.946 Y37.346
G01 F180 X46.971 Y37.346
G01 F180 X46.971 Y37.270
G01 F180 X46.996 Y37.270
G01 F180 X46.996 Y37.219
G01 F180 X47.022 Y37.219
G01 F180 X47.022 Y37.194
G01 F180 X47.047 Y37.194
G01 F180 X47.047 Y37.143
G01 F180 X47.073 Y37.143
G01 F180 X47.073 Y37.118
G01 F180 X47.123 Y37.118
G01 F180 X47.123 Y37.092
G01 F180 X47.149 Y37.092
G01 F180 X47.149 Y37.067
G01 F180 X47.200 Y37.067
G01 F180 X47.200 Y37.041
G01 F180 X47.250 Y37.041
G01 F180 X47.250 Y37.016
G01 F180 X50.434 Y37.016
G01 F180 X50.434 Y37.041
G01 F180 X50.510 Y37.041
G01 F180 X50.510 Y37.067
G01 F180 X50.536 Y37.067
G01 F180 X50.536 Y37.092
G01 F180 X50.587 Y37.092
G01 F180 X50.587 Y37.118
G01 F180 X50.612 Y37.118
G01 F180 X50.612 Y37.143
G01 F180 X50.637 Y37.143
G01 F180 X50.637 Y37.169
G01 F180 X50.663 Y37.169
G01 F180 X50.663 Y37.219
G01 F180 X50.688 Y37.219
G01 F180 X50.688 Y37.245
G01 F180 X50.714 Y37.245
G01 F180 X50.714 Y37.321
G01 F180 X50.739 Y37.321
G01 F180 X50.739 Y39.285
G01 F180 X50.714 Y39.285
G01 F180 X50.714 Y39.336
G01 F180 X50.688 Y39.336
G01 F180 X50.688 Y39.387
G01 F180 X50.663 Y39.387
G01 F180 X50.663 Y39.438
G01 F180 X50.637 Y39.438
G01 F180 X50.637 Y39.463
G01 F180 X50.612 Y39.463
G01 F180 X50.612 Y39.489
G01 F180 X50.587 Y39.489
G01 F180 X50.587 Y39.514
G01 F180 X50.536 Y39.514
G01 F180 X50.536 Y39.540
G01 F180 X50.510 Y39.540
G01 F180 X50.510 Y39.565
G01 F180 X50.434 Y39.565
G01 F180 X50.434 Y39.590
G01 F180 X47.250 Y39.590
G00 F3000 Z3.000
G00 F3000 X47.843 Y38.693
G00 F1500 Z0
G01 F180 Z-0.300
G01 F180 X49.841 Y38.693
G01 F180 X49.841 Y37.914
G01 F180 X47.843 Y37.914
G01 F180 X47.843 Y38.693
G00 F3000 Z3.000
G00 F3000 X56.548 Y38.227
G00 F1500 Z0
G01 F180 Z-0.300
G01 F180 X56.318 Y38.178
G01 F180 X56.104 Y38.082
G01 F180 X55.914 Y37.944
G01 F180 X55.757 Y37.770
G01 F180 X55.639 Y37.566
G01 F180 X55.567 Y37.343
G01 F180 X55.542 Y37.109
G01 F180 X55.567 Y36.876
G01 F180 X55.639 Y36.653
G01 F180 X55.757 Y36.449
G01 F180 X55.914 Y36.275
G01 F180 X56.104 Y36.137
G01 F180 X56.318 Y36.041
G01 F180 X56.548 Y35.992
G01 F180 X56.783 Y35.992
G01 F180 X57.013 Y36.041
G01 F180 X57.227 Y36.137
G01 F180 X57.417 Y36.275
G01 F180 X57.574 Y36.449
G01 F180 X57.692 Y36.653
G01 F180 X57.764 Y36.876
G01 F180 X57.789 Y37.109
G01 F180 X57.764 Y37.343
G01 F180 X57.692 Y37.566
G01 F180 X57.574 Y37.770
G01 F180 X57.417 Y37.944
G01 F180 X57.227 Y38.082
G01 F180 X57.013 Y38.178
G01 F180 X56.783 Y38.227
G01 F180 X56.548 Y38.227
G00 F3000 Z3.000
G00 F3000 X8.236 Y38.219
G00 F1500 Z0
G01 F180 Z-0.300
G01 F180 X8.236 Y38.193
G01 F180 X8.211 Y38.193
G01 F180 X8.211 Y38.142
G01 F180 X8.185 Y38.142
G01 F180 X8.185 Y37.575
G01 F180 X8.211 Y37.575
G01 F180 X8.211 Y37.550
G01 F180 X8.236 Y37.550
G01 F180 X8.236 Y37.524
G01 F180 X8.287 Y37.524
G01 F180 X8.287 Y37.499
G01 F180 X9.252 Y37.499
G01 F180 X9.252 Y37.228
G01 F180 X8.312 Y37.228
G01 F180 X8.312 Y37.203
G01 F180 X8.236 Y37.203
G01 F180 X8.236 Y37.177
G01 F180 X8.211 Y37.177
G01 F180 X8.211 Y37.152
G01 F180 X8.185 Y37.152
G01 F180 X8.185 Y36.584
G01 F180 X8.211 Y36.584
G01 F180 X8.211 Y36.534
G01 F180 X8.236 Y36.534
G01 F180 X8.236 Y36.508
G01 F180 X10.632 Y36.508
G01 F180 X10.632 Y37.304
G01 F180 X10.582 Y37.304
G01 F180 X10.582 Y37.330
G01 F180 X10.556 Y37.330
G01 F180 X10.556 Y37.355
G01 F180 X10.505 Y37.355
G01 F180 X10.505 Y37.372
G01 F180 X10.556 Y37.372
G01 F180 X10.556 Y37.397
G01 F180 X10.582 Y37.397
G01 F180 X10.582 Y37.422
G01 F180 X10.632 Y37.422
G01 F180 X10.632 Y38.219
G01 F180 X8.236 Y38.219
G00 F3000 Z3.000
G00 F3000 X66.695 Y37.388
G00 F1500 Z0
G01 F180 Z-0.300
G01 F180 X66.439 Y37.333
G01 F180 X66.200 Y37.227
G01 F180 X65.989 Y37.073
G01 F180 X65.814 Y36.879
G01 F180 X65.683 Y36.653
G01 F180 X65.603 Y36.404
G01 F180 X65.575 Y36.144
G01 F180 X65.603 Y35.884
G01 F180 X65.683 Y35.636
G01 F180 X65.814 Y35.409
G01 F180 X65.989 Y35.215
G01 F180 X66.201 Y35.061
G01 F180 X66.288 Y35.023
G01 F180 X66.288 Y19.866
G01 F180 X61.689 Y19.866
G01 F180 X61.579 Y19.842
G01 F180 X61.476 Y19.796
G01 F180 X61.385 Y19.730
G01 F180 X61.309 Y19.646
G01 F180 X61.253 Y19.549
G01 F180 X61.218 Y19.442
G01 F180 X61.208 Y19.342
G01 F180 X61.208 Y9.706
G01 F180 X57.646 Y9.706
G01 F180 X57.574 Y9.830
G01 F180 X57.417 Y10.004
G01 F180 X57.227 Y10.142
G01 F180 X57.013 Y10.238
G01 F180 X56.783 Y10.287
G01 F180 X56.548 Y10.287
G01 F180 X56.318 Y10.238
G01 F180 X56.104 Y10.142
G01 F180 X55.914 Y10.004
G01 F180 X55.757 Y9.830
G01 F180 X55.639 Y9.626
G01 F180 X55.567 Y9.403
G01 F180 X55.542 Y9.169
G01 F180 X55.567 Y8.936
G01 F180 X55.639 Y8.713
G01 F180 X55.757 Y8.509
G01 F180 X55.914 Y8.335
G01 F180 X56.104 Y8.197
G01 F180 X56.318 Y8.101
G01 F180 X56.548 Y8.052
G01 F180 X56.783 Y8.052
G01 F180 X57.013 Y8.101
G01 F180 X57.227 Y8.197
G01 F180 X57.417 Y8.335
G01 F180 X57.574 Y8.509
G01 F180 X57.646 Y8.633
G01 F180 X61.802 Y8.633
G01 F180 X61.912 Y8.657
G01 F180 X62.015 Y8.703
G01 F180 X62.106 Y8.769
G01 F180 X62.182 Y8.853
G01 F180 X62.238 Y8.950
G01 F180 X62.273 Y9.057
G01 F180 X62.283 Y9.157
G01 F180 X62.283 Y18.793
G01 F180 X66.882 Y18.793
G01 F180 X66.992 Y18.817
G01 F180 X67.095 Y18.863
G01 F180 X67.186 Y18.929
G01 F180 X67.262 Y19.012
G01 F180 X67.318 Y19.110
G01 F180 X67.353 Y19.217
G01 F180 X67.363 Y19.317
G01 F180 X67.372 Y35.027
G01 F180 X67.451 Y35.061
G01 F180 X67.662 Y35.215
G01 F180 X67.837 Y35.409
G01 F180 X67.968 Y35.636
G01 F180 X68.049 Y35.884
G01 F180 X68.076 Y36.144
G01 F180 X68.049 Y36.404
G01 F180 X67.968 Y36.653
G01 F180 X67.837 Y36.879
G01 F180 X67.662 Y37.073
G01 F180 X67.451 Y37.227
G01 F180 X67.212 Y37.333
G01 F180 X66.956 Y37.388
G01 F180 X66.695 Y37.388
G00 F3000 Z3.000
G00 F3000 X49.105 Y35.882
G00 F1500 Z0
G01 F180 Z-0.300
G01 F180 X49.105 Y35.857
G01 F180 X49.054 Y35.857
G01 F180 X49.054 Y35.831
G01 F180 X49.003 Y35.831
G01 F180 X49.003 Y35.806
G01 F180 X48.978 Y35.806
G01 F180 X48.978 Y35.755
G01 F180 X48.952 Y35.755
G01 F180 X48.952 Y34.679
G01 F180 X48.978 Y34.679
G01 F180 X48.978 Y34.629
G01 F180 X49.003 Y34.629
G01 F180 X49.003 Y34.603
G01 F180 X49.028 Y34.603
G01 F180 X49.028 Y34.578
G01 F180 X49.079 Y34.578
G01 F180 X49.079 Y34.552
G01 F180 X50.053 Y34.552
G01 F180 X50.053 Y34.578
G01 F180 X50.104 Y34.578
G01 F180 X50.104 Y34.603
G01 F180 X50.129 Y34.603
G01 F180 X50.129 Y34.629
G01 F180 X50.155 Y34.629
G01 F180 X50.155 Y34.654
G01 F180 X50.180 Y34.654
G01 F180 X50.180 Y34.705
G01 F180 X50.206 Y34.705
G01 F180 X50.206 Y35.704
G01 F180 X50.180 Y35.704
G01 F180 X50.180 Y35.780
G01 F180 X50.155 Y35.780
G01 F180 X50.155 Y35.806
G01 F180 X50.129 Y35.806
G01 F180 X50.129 Y35.831
G01 F180 X50.104 Y35.831
G01 F180 X50.104 Y35.857
G01 F180 X50.028 Y35.857
G01 F180 X50.028 Y35.882
G01 F180 X49.105 Y35.882
G00 F3000 Z3.000
G00 F3000 X36.221 Y35.750
G00 F1500 Z0
G01 F180 Z-0.300
G01 F180 X35.979 Y35.698
G01 F180 X35.752 Y35.597
G01 F180 X35.551 Y35.451
G01 F180 X35.385 Y35.267
G01 F180 X35.261 Y35.052
G01 F180 X35.185 Y34.816
G01 F180 X35.159 Y34.569
G01 F180 X35.185 Y34.323
G01 F180 X35.261 Y34.087
G01 F180 X35.385 Y33.872
G01 F180 X35.551 Y33.687
G01 F180 X35.752 Y33.542
G01 F180 X35.979 Y33.441
G01 F180 X36.221 Y33.389
G01 F180 X36.470 Y33.389
G01 F180 X36.712 Y33.441
G01 F180 X36.939 Y33.542
G01 F180 X37.140 Y33.687
G01 F180 X37.306 Y33.872
G01 F180 X37.395 Y34.027
G01 F180 X40.384 Y34.009
G01 F180 X40.390 Y33.949
G01 F180 X40.425 Y33.842
G01 F180 X40.481 Y33.745
G01 F180 X40.557 Y33.661
G01 F180 X40.648 Y33.595
G01 F180 X40.751 Y33.549
G01 F180 X40.861 Y33.525
G01 F180 X40.979 Y33.525
G01 F180 X41.008 Y33.533
G01 F180 X41.078 Y33.501
G01 F180 X41.308 Y33.452
G01 F180 X41.543 Y33.452
G01 F180 X41.773 Y33.501
G01 F180 X41.987 Y33.597
G01 F180 X42.177 Y33.735
G01 F180 X42.334 Y33.909
G01 F180 X42.452 Y34.113
G01 F180 X42.524 Y34.336
G01 F180 X42.549 Y34.569
G01 F180 X42.524 Y34.803
G01 F180 X42.452 Y35.026
G01 F180 X42.334 Y35.230
G01 F180 X42.177 Y35.404
G01 F180 X41.987 Y35.542
G01 F180 X41.773 Y35.638
G01 F180 X41.543 Y35.687
G01 F180 X41.308 Y35.687
G01 F180 X41.078 Y35.638
G01 F180 X40.864 Y35.542
G01 F180 X40.674 Y35.404
G01 F180 X40.517 Y35.230
G01 F180 X40.445 Y35.105
G01 F180 X37.401 Y35.102
G01 F180 X37.306 Y35.267
G01 F180 X37.140 Y35.451
G01 F180 X36.939 Y35.597
G01 F180 X36.712 Y35.698
G01 F180 X36.470 Y35.750
G01 F180 X36.221 Y35.750
G00 F3000 Z3.000
G00 F3000 X56.548 Y35.687
G00 F1500 Z0
G01 F180 Z-0.300
G01 F180 X56.318 Y35.638
G01 F180 X56.104 Y35.542
G01 F180 X55.914 Y35.404
G01 F180 X55.757 Y35.230
G01 F180 X55.639 Y35.026
G01 F180 X55.567 Y34.803
G01 F180 X55.542 Y34.569
G01 F180 X55.567 Y34.336
G01 F180 X55.639 Y34.113
G01 F180 X55.757 Y33.909
G01 F180 X55.914 Y33.735
G01 F180 X56.104 Y33.597
G01 F180 X56.318 Y33.501
G01 F180 X56.548 Y33.452
G01 F180 X56.783 Y33.452
G01 F180 X57.013 Y33.501
G01 F180 X57.227 Y33.597
G01 F180 X57.417 Y33.735
G01 F180 X57.574 Y33.909
G01 F180 X57.692 Y34.113
G01 F180 X57.764 Y34.336
G01 F180 X57.789 Y34.569
G01 F180 X57.764 Y34.803
G01 F180 X57.692 Y35.026
G01 F180 X57.574 Y35.230
G01 F180 X57.417 Y35.404
G01 F180 X57.227 Y35.542
G01 F180 X57.013 Y35.638
G01 F180 X56.783 Y35.687
G01 F180 X56.548 Y35.687
G00 F3000 Z3.000
G00 F3000 X5.493 Y34.409
G00 F1500 Z0
G01 F180 Z-0.300
G01 F180 X5.493 Y34.383
G01 F180 X5.442 Y34.383
G01 F180 X5.442 Y34.333
G01 F180 X5.417 Y34.333
G01 F180 X5.417 Y33.901
G01 F180 X4.985 Y33.901
G01 F180 X4.985 Y33.875
G01 F180 X4.934 Y33.875
G01 F180 X4.934 Y33.825
G01 F180 X4.909 Y33.825
G01 F180 X4.909 Y33.257
G01 F180 X4.934 Y33.257
G01 F180 X4.934 Y33.232
G01 F180 X4.959 Y33.232
G01 F180 X4.959 Y33.206
G01 F180 X4.985 Y33.206
G01 F180 X4.985 Y33.181
G01 F180 X5.417 Y33.181
G01 F180 X5.417 Y32.749
G01 F180 X5.442 Y32.749
G01 F180 X5.442 Y32.724
G01 F180 X5.467 Y32.724
G01 F180 X5.467 Y32.698
G01 F180 X5.493 Y32.698
G01 F180 X5.493 Y32.673
G01 F180 X6.035 Y32.673
G01 F180 X6.035 Y32.698
G01 F180 X6.086 Y32.698
G01 F180 X6.086 Y32.724
G01 F180 X6.111 Y32.724
G01 F180 X6.111 Y32.749
G01 F180 X6.137 Y32.749
G01 F180 X6.137 Y33.181
G01 F180 X6.568 Y33.181
G01 F180 X6.568 Y33.206
G01 F180 X6.594 Y33.206
G01 F180 X6.594 Y33.232
G01 F180 X6.619 Y33.232
G01 F180 X6.619 Y33.257
G01 F180 X6.645 Y33.257
G01 F180 X6.645 Y33.825
G01 F180 X6.619 Y33.825
G01 F180 X6.619 Y33.850
G01 F180 X6.594 Y33.850
G01 F180 X6.594 Y33.875
G01 F180 X6.568 Y33.875
G01 F180 X6.568 Y33.901
G01 F180 X6.137 Y33.901
G01 F180 X6.137 Y34.333
G01 F180 X6.111 Y34.333
G01 F180 X6.111 Y34.358
G01 F180 X6.086 Y34.358
G01 F180 X6.086 Y34.383
G01 F180 X6.060 Y34.383
G01 F180 X6.060 Y34.409
G01 F180 X5.493 Y34.409
G00 F3000 Z3.000
G00 F3000 X68.002 Y33.469
G00 F1500 Z0
G01 F180 Z-0.300
G01 F180 X68.002 Y33.444
G01 F180 X67.951 Y33.444
G01 F180 X67.951 Y33.418
G01 F180 X67.926 Y33.418
G01 F180 X67.926 Y33.342
G01 F180 X67.901 Y33.342
G01 F180 X67.901 Y32.961
G01 F180 X67.494 Y32.961
G01 F180 X67.494 Y32.936
G01 F180 X67.443 Y32.936
G01 F180 X67.443 Y32.885
G01 F180 X67.418 Y32.885
G01 F180 X67.418 Y32.292
G01 F180 X67.443 Y32.292
G01 F180 X67.443 Y32.266
G01 F180 X67.469 Y32.266
G01 F180 X67.469 Y32.241
G01 F180 X67.901 Y32.241
G01 F180 X67.901 Y31.860
G01 F180 X67.926 Y31.860
G01 F180 X67.926 Y31.784
G01 F180 X67.951 Y31.784
G01 F180 X67.951 Y31.758
G01 F180 X67.977 Y31.758
G01 F180 X67.977 Y31.733
G01 F180 X68.570 Y31.733
G01 F180 X68.570 Y31.758
G01 F180 X68.595 Y31.758
G01 F180 X68.595 Y31.784
G01 F180 X68.621 Y31.784
G01 F180 X68.621 Y31.860
G01 F180 X68.646 Y31.860
G01 F180 X68.646 Y32.241
G01 F180 X69.078 Y32.241
G01 F180 X69.078 Y32.266
G01 F180 X69.103 Y32.266
G01 F180 X69.103 Y32.292
G01 F180 X69.129 Y32.292
G01 F180 X69.129 Y32.910
G01 F180 X69.103 Y32.910
G01 F180 X69.103 Y32.936
G01 F180 X69.052 Y32.936
G01 F180 X69.052 Y32.961
G01 F180 X68.646 Y32.961
G01 F180 X68.646 Y33.342
G01 F180 X68.621 Y33.342
G01 F180 X68.621 Y33.418
G01 F180 X68.595 Y33.418
G01 F180 X68.595 Y33.444
G01 F180 X68.544 Y33.444
G01 F180 X68.544 Y33.469
G01 F180 X68.002 Y33.469
G00 F3000 Z3.000
G00 F3000 X48.876 Y33.418
G00 F1500 Z0
G01 F180 Z-0.300
G01 F180 X48.876 Y33.393
G01 F180 X48.851 Y33.393
G01 F180 X48.851 Y33.367
G01 F180 X48.825 Y33.367
G01 F180 X48.825 Y33.342
G01 F180 X48.800 Y33.342
G01 F180 X48.800 Y33.317
G01 F180 X48.774 Y33.317
G01 F180 X48.774 Y33.240
G01 F180 X48.749 Y33.240
G01 F180 X48.749 Y32.698
G01 F180 X48.774 Y32.698
G01 F180 X48.774 Y32.622
G01 F180 X48.800 Y32.622
G01 F180 X48.800 Y32.596
G01 F180 X48.825 Y32.596
G01 F180 X48.825 Y32.580
G01 F180 X46.946 Y32.580
G01 F180 X46.946 Y30.971
G01 F180 X46.971 Y30.971
G01 F180 X46.971 Y30.920
G01 F180 X46.996 Y30.920
G01 F180 X46.996 Y30.895
G01 F180 X47.022 Y30.895
G01 F180 X47.022 Y30.869
G01 F180 X47.073 Y30.869
G01 F180 X47.073 Y30.844
G01 F180 X47.716 Y30.844
G01 F180 X47.716 Y30.869
G01 F180 X47.767 Y30.869
G01 F180 X47.767 Y30.895
G01 F180 X47.793 Y30.895
G01 F180 X47.793 Y30.920
G01 F180 X47.818 Y30.920
G01 F180 X47.818 Y30.971
G01 F180 X47.843 Y30.971
G01 F180 X47.843 Y31.682
G01 F180 X49.841 Y31.682
G01 F180 X49.841 Y30.996
G01 F180 X49.867 Y30.996
G01 F180 X49.867 Y30.920
G01 F180 X49.892 Y30.920
G01 F180 X49.892 Y30.895
G01 F180 X49.917 Y30.895
G01 F180 X49.917 Y30.869
G01 F180 X49.968 Y30.869
G01 F180 X49.968 Y30.844
G01 F180 X50.612 Y30.844
G01 F180 X50.612 Y30.869
G01 F180 X50.663 Y30.869
G01 F180 X50.663 Y30.895
G01 F180 X50.688 Y30.895
G01 F180 X50.688 Y30.920
G01 F180 X50.714 Y30.920
G01 F180 X50.714 Y30.971
G01 F180 X50.739 Y30.971
G01 F180 X50.739 Y33.291
G01 F180 X50.714 Y33.291
G01 F180 X50.714 Y33.342
G01 F180 X50.688 Y33.342
G01 F180 X50.688 Y33.367
G01 F180 X50.663 Y33.367
G01 F180 X50.663 Y33.393
G01 F180 X50.612 Y33.393
G01 F180 X50.612 Y33.418
G01 F180 X48.876 Y33.418
G00 F3000 Z3.000
G00 F3000 X36.221 Y33.210
G00 F1500 Z0
G01 F180 Z-0.300
G01 F180 X35.979 Y33.158
G01 F180 X35.752 Y33.057
G01 F180 X35.551 Y32.911
G01 F180 X35.385 Y32.727
G01 F180 X35.261 Y32.512
G01 F180 X35.185 Y32.276
G01 F180 X35.159 Y32.029
G01 F180 X35.185 Y31.783
G01 F180 X35.261 Y31.547
G01 F180 X35.385 Y31.332
G01 F180 X35.551 Y31.147
G01 F180 X35.752 Y31.002
G01 F180 X35.979 Y30.901
G01 F180 X36.221 Y30.849
G01 F180 X36.470 Y30.849
G01 F180 X36.712 Y30.901
G01 F180 X36.939 Y31.002
G01 F180 X37.140 Y31.147
G01 F180 X37.306 Y31.332
G01 F180 X37.399 Y31.493
G01 F180 X40.445 Y31.493
G01 F180 X40.517 Y31.369
G01 F180 X40.674 Y31.195
G01 F180 X40.864 Y31.057
G01 F180 X41.078 Y30.961
G01 F180 X41.308 Y30.912
G01 F180 X41.543 Y30.912
G01 F180 X41.773 Y30.961
G01 F180 X41.987 Y31.057
G01 F180 X42.177 Y31.195
G01 F180 X42.334 Y31.369
G01 F180 X42.452 Y31.573
G01 F180 X42.524 Y31.796
G01 F180 X42.549 Y32.029
G01 F180 X42.524 Y32.263
G01 F180 X42.452 Y32.486
G01 F180 X42.334 Y32.690
G01 F180 X42.177 Y32.864
G01 F180 X41.987 Y33.002
G01 F180 X41.773 Y33.098
G01 F180 X41.543 Y33.147
G01 F180 X41.308 Y33.147
G01 F180 X41.078 Y33.098
G01 F180 X40.864 Y33.002
G01 F180 X40.674 Y32.864
G01 F180 X40.517 Y32.690
G01 F180 X40.445 Y32.566
G01 F180 X37.399 Y32.566
G01 F180 X37.306 Y32.727
G01 F180 X37.140 Y32.911
G01 F180 X36.939 Y33.057
G01 F180 X36.712 Y33.158
G01 F180 X36.470 Y33.210
G01 F180 X36.221 Y33.210
G00 F3000 Z3.000
G00 F3000 X56.548 Y33.147
G00 F1500 Z0
G01 F180 Z-0.300
G01 F180 X56.318 Y33.098
G01 F180 X56.104 Y33.002
G01 F180 X55.914 Y32.864
G01 F180 X55.757 Y32.690
G01 F180 X55.639 Y32.486
G01 F180 X55.567 Y32.263
G01 F180 X55.542 Y32.029
G01 F180 X55.567 Y31.796
G01 F180 X55.639 Y31.573
G01 F180 X55.757 Y31.369
G01 F180 X55.914 Y31.195
G01 F180 X56.104 Y31.057
G01 F180 X56.318 Y30.961
G01 F180 X56.548 Y30.912
G01 F180 X56.783 Y30.912
G01 F180 X57.013 Y30.961
G01 F180 X57.227 Y31.057
G01 F180 X57.417 Y31.195
G01 F180 X57.574 Y31.369
G01 F180 X57.692 Y31.573
G01 F180 X57.764 Y31.796
G01 F180 X57.789 Y32.029
G01 F180 X57.764 Y32.263
G01 F180 X57.692 Y32.486
G01 F180 X57.574 Y32.690
G01 F180 X57.417 Y32.864
G01 F180 X57.227 Y33.002
G01 F180 X57.013 Y33.098
G01 F180 X56.783 Y33.147
G01 F180 X56.548 Y33.147
G00 F3000 Z3.000
G00 F3000 X8.628 Y31.468
G00 F1500 Z0
G01 F180 Z-0.300
G01 F180 X15.513 Y31.468
G01 F180 X15.513 Y27.173
G01 F180 X10.547 Y22.257
G01 F180 X10.484 Y22.186
G01 F180 X10.428 Y22.089
G01 F180 X10.393 Y21.982
G01 F180 X10.381 Y21.869
G01 F180 X10.393 Y21.757
G01 F180 X10.428 Y21.650
G01 F180 X10.433 Y21.642
G01 F180 X10.418 Y15.307
G01 F180 X10.352 Y15.277
G01 F180 X10.151 Y15.131
G01 F180 X9.985 Y14.947
G01 F180 X9.892 Y14.786
G01 F180 X8.628 Y14.786
G01 F180 X6.403 Y16.988
G01 F180 X6.403 Y20.817
G01 F180 X6.459 Y20.842
G01 F180 X6.660 Y20.987
G01 F180 X6.826 Y21.172
G01 F180 X6.950 Y21.387
G01 F180 X7.026 Y21.623
G01 F180 X7.052 Y21.869
G01 F180 X7.026 Y22.116
G01 F180 X6.950 Y22.352
G01 F180 X6.826 Y22.567
G01 F180 X6.660 Y22.751
G01 F180 X6.459 Y22.897
G01 F180 X6.403 Y22.922
G01 F180 X6.403 Y29.266
G01 F180 X8.628 Y31.468
G00 F3000 Z3.000
G00 F3000 X36.221 Y30.670
G00 F1500 Z0
G01 F180 Z-0.300
G01 F180 X35.979 Y30.618
G01 F180 X35.752 Y30.517
G01 F180 X35.551 Y30.371
G01 F180 X35.385 Y30.187
G01 F180 X35.261 Y29.972
G01 F180 X35.185 Y29.736
G01 F180 X35.159 Y29.489
G01 F180 X35.185 Y29.243
G01 F180 X35.261 Y29.007
G01 F180 X35.385 Y28.792
G01 F180 X35.551 Y28.607
G01 F180 X35.752 Y28.462
G01 F180 X35.979 Y28.361
G01 F180 X36.221 Y28.309
G01 F180 X36.470 Y28.309
G01 F180 X36.712 Y28.361
G01 F180 X36.939 Y28.462
G01 F180 X37.140 Y28.607
G01 F180 X37.306 Y28.792
G01 F180 X37.399 Y28.953
G01 F180 X40.285 Y28.953
G01 F180 X40.298 Y28.915
G01 F180 X40.354 Y28.817
G01 F180 X40.430 Y28.733
G01 F180 X40.521 Y28.667
G01 F180 X40.624 Y28.621
G01 F180 X40.731 Y28.598
G01 F180 X40.752 Y28.598
G01 F180 X40.864 Y28.517
G01 F180 X41.078 Y28.421
G01 F180 X41.308 Y28.372
G01 F180 X41.543 Y28.372
G01 F180 X41.773 Y28.421
G01 F180 X41.987 Y28.517
G01 F180 X42.177 Y28.655
G01 F180 X42.334 Y28.829
G01 F180 X42.452 Y29.033
G01 F180 X42.524 Y29.256
G01 F180 X42.549 Y29.489
G01 F180 X42.524 Y29.723
G01 F180 X42.452 Y29.946
G01 F180 X42.334 Y30.150
G01 F180 X42.177 Y30.324
G01 F180 X41.987 Y30.462
G01 F180 X41.773 Y30.558
G01 F180 X41.543 Y30.607
G01 F180 X41.308 Y30.607
G01 F180 X41.078 Y30.558
G01 F180 X40.864 Y30.462
G01 F180 X40.674 Y30.324
G01 F180 X40.517 Y30.150
G01 F180 X40.445 Y30.026
G01 F180 X37.399 Y30.026
G01 F180 X37.306 Y30.187
G01 F180 X37.140 Y30.371
G01 F180 X36.939 Y30.517
G01 F180 X36.712 Y30.618
G01 F180 X36.470 Y30.670
G01 F180 X36.221 Y30.670
G00 F3000 Z3.000
G00 F3000 X56.548 Y30.607
G00 F1500 Z0
G01 F180 Z-0.300
G01 F180 X56.318 Y30.558
G01 F180 X56.104 Y30.462
G01 F180 X55.914 Y30.324
G01 F180 X55.757 Y30.150
G01 F180 X55.639 Y29.946
G01 F180 X55.567 Y29.723
G01 F180 X55.542 Y29.489
G01 F180 X55.567 Y29.256
G01 F180 X55.639 Y29.033
G01 F180 X55.757 Y28.829
G01 F180 X55.914 Y28.655
G01 F180 X56.104 Y28.517
G01 F180 X56.318 Y28.421
G01 F180 X56.548 Y28.372
G01 F180 X56.783 Y28.372
G01 F180 X57.013 Y28.421
G01 F180 X57.227 Y28.517
G01 F180 X57.417 Y28.655
G01 F180 X57.574 Y28.829
G01 F180 X57.692 Y29.033
G01 F180 X57.764 Y29.256
G01 F180 X57.789 Y29.489
G01 F180 X57.764 Y29.723
G01 F180 X57.692 Y29.946
G01 F180 X57.574 Y30.150
G01 F180 X57.417 Y30.324
G01 F180 X57.227 Y30.462
G01 F180 X57.013 Y30.558
G01 F180 X56.783 Y30.607
G01 F180 X56.548 Y30.607
G00 F3000 Z3.000
G00 F3000 X47.123 Y30.345
G00 F1500 Z0
G01 F180 Z-0.300
G01 F180 X47.123 Y30.319
G01 F180 X47.047 Y30.319
G01 F180 X47.047 Y30.294
G01 F180 X47.022 Y30.294
G01 F180 X47.022 Y30.269
G01 F180 X46.996 Y30.269
G01 F180 X46.996 Y30.243
G01 F180 X46.971 Y30.243
G01 F180 X46.971 Y30.192
G01 F180 X46.946 Y30.192
G01 F180 X46.946 Y29.574
G01 F180 X46.971 Y29.574
G01 F180 X46.971 Y29.523
G01 F180 X46.996 Y29.523
G01 F180 X46.996 Y29.498
G01 F180 X47.022 Y29.498
G01 F180 X47.022 Y29.472
G01 F180 X47.073 Y29.472
G01 F180 X47.073 Y29.447
G01 F180 X47.860 Y29.447
G01 F180 X47.860 Y29.422
G01 F180 X47.936 Y29.422
G01 F180 X47.936 Y29.396
G01 F180 X47.987 Y29.396
G01 F180 X47.987 Y29.371
G01 F180 X48.063 Y29.371
G01 F180 X48.063 Y29.345
G01 F180 X48.114 Y29.345
G01 F180 X48.114 Y29.320
G01 F180 X48.190 Y29.320
G01 F180 X48.190 Y29.295
G01 F180 X48.241 Y29.295
G01 F180 X48.241 Y29.269
G01 F180 X48.317 Y29.269
G01 F180 X48.317 Y29.244
G01 F180 X48.393 Y29.244
G01 F180 X48.393 Y29.218
G01 F180 X48.444 Y29.218
G01 F180 X48.444 Y29.193
G01 F180 X48.520 Y29.193
G01 F180 X48.520 Y29.168
G01 F180 X48.571 Y29.168
G01 F180 X48.571 Y29.142
G01 F180 X48.647 Y29.142
G01 F180 X48.647 Y29.117
G01 F180 X48.698 Y29.117
G01 F180 X48.698 Y29.091
G01 F180 X48.774 Y29.091
G01 F180 X48.774 Y29.066
G01 F180 X48.825 Y29.066
G01 F180 X48.825 Y29.041
G01 F180 X48.851 Y29.041
G01 F180 X48.851 Y29.024
G01 F180 X48.800 Y29.024
G01 F180 X48.800 Y28.998
G01 F180 X48.724 Y28.998
G01 F180 X48.724 Y28.973
G01 F180 X48.647 Y28.973
G01 F180 X48.647 Y28.948
G01 F180 X48.597 Y28.948
G01 F180 X48.597 Y28.922
G01 F180 X48.520 Y28.922
G01 F180 X48.520 Y28.897
G01 F180 X48.470 Y28.897
G01 F180 X48.470 Y28.872
G01 F180 X48.393 Y28.872
G01 F180 X48.393 Y28.846
G01 F180 X48.343 Y28.846
G01 F180 X48.343 Y28.821
G01 F180 X48.266 Y28.821
G01 F180 X48.266 Y28.795
G01 F180 X48.216 Y28.795
G01 F180 X48.216 Y28.770
G01 F180 X48.139 Y28.770
G01 F180 X48.139 Y28.745
G01 F180 X48.063 Y28.745
G01 F180 X48.063 Y28.719
G01 F180 X48.012 Y28.719
G01 F180 X48.012 Y28.694
G01 F180 X47.936 Y28.694
G01 F180 X47.936 Y28.668
G01 F180 X47.885 Y28.668
G01 F180 X47.885 Y28.643
G01 F180 X47.098 Y28.643
G01 F180 X47.098 Y28.617
G01 F180 X47.047 Y28.617
G01 F180 X47.047 Y28.592
G01 F180 X47.022 Y28.592
G01 F180 X47.022 Y28.567
G01 F180 X46.996 Y28.567
G01 F180 X46.996 Y28.541
G01 F180 X46.971 Y28.541
G01 F180 X46.971 Y28.491
G01 F180 X46.946 Y28.491
G01 F180 X46.946 Y27.898
G01 F180 X46.971 Y27.898
G01 F180 X46.971 Y27.847
G01 F180 X46.996 Y27.847
G01 F180 X46.996 Y27.821
G01 F180 X47.022 Y27.821
G01 F180 X47.022 Y27.796
G01 F180 X47.047 Y27.796
G01 F180 X47.047 Y27.771
G01 F180 X47.098 Y27.771
G01 F180 X47.098 Y27.745
G01 F180 X48.428 Y27.745
G01 F180 X48.428 Y27.771
G01 F180 X48.504 Y27.771
G01 F180 X48.504 Y27.796
G01 F180 X48.555 Y27.796
G01 F180 X48.555 Y27.821
G01 F180 X48.631 Y27.821
G01 F180 X48.631 Y27.847
G01 F180 X48.682 Y27.847
G01 F180 X48.682 Y27.872
G01 F180 X48.758 Y27.872
G01 F180 X48.758 Y27.898
G01 F180 X48.834 Y27.898
G01 F180 X48.834 Y27.923
G01 F180 X48.885 Y27.923
G01 F180 X48.885 Y27.948
G01 F180 X48.961 Y27.948
G01 F180 X48.961 Y27.974
G01 F180 X49.012 Y27.974
G01 F180 X49.012 Y27.999
G01 F180 X49.088 Y27.999
G01 F180 X49.088 Y28.024
G01 F180 X49.139 Y28.024
G01 F180 X49.139 Y28.050
G01 F180 X49.215 Y28.050
G01 F180 X49.215 Y28.075
G01 F180 X49.291 Y28.075
G01 F180 X49.291 Y28.101
G01 F180 X49.342 Y28.101
G01 F180 X49.342 Y28.126
G01 F180 X49.418 Y28.126
G01 F180 X49.418 Y28.152
G01 F180 X49.469 Y28.152
G01 F180 X49.469 Y28.177
G01 F180 X49.545 Y28.177
G01 F180 X49.545 Y28.202
G01 F180 X49.596 Y28.202
G01 F180 X49.596 Y28.228
G01 F180 X49.672 Y28.228
G01 F180 X49.672 Y28.253
G01 F180 X49.748 Y28.253
G01 F180 X49.748 Y28.279
G01 F180 X49.799 Y28.279
G01 F180 X49.799 Y28.304
G01 F180 X49.875 Y28.304
G01 F180 X49.875 Y28.329
G01 F180 X49.926 Y28.329
G01 F180 X49.926 Y28.355
G01 F180 X50.002 Y28.355
G01 F180 X50.002 Y28.380
G01 F180 X50.053 Y28.380
G01 F180 X50.053 Y28.405
G01 F180 X50.129 Y28.405
G01 F180 X50.129 Y28.431
G01 F180 X50.206 Y28.431
G01 F180 X50.206 Y28.456
G01 F180 X50.256 Y28.456
G01 F180 X50.256 Y28.482
G01 F180 X50.333 Y28.482
G01 F180 X50.333 Y28.507
G01 F180 X50.383 Y28.507
G01 F180 X50.383 Y28.533
G01 F180 X50.460 Y28.533
G01 F180 X50.460 Y28.558
G01 F180 X50.510 Y28.558
G01 F180 X50.510 Y28.583
G01 F180 X50.587 Y28.583
G01 F180 X50.587 Y28.609
G01 F180 X50.637 Y28.609
G01 F180 X50.637 Y28.634
G01 F180 X50.663 Y28.634
G01 F180 X50.663 Y28.660
G01 F180 X50.688 Y28.660
G01 F180 X50.688 Y28.685
G01 F180 X50.714 Y28.685
G01 F180 X50.714 Y28.710
G01 F180 X50.739 Y28.710
G01 F180 X50.739 Y29.354
G01 F180 X50.714 Y29.354
G01 F180 X50.714 Y29.405
G01 F180 X50.688 Y29.405
G01 F180 X50.688 Y29.430
G01 F180 X50.663 Y29.430
G01 F180 X50.663 Y29.456
G01 F180 X50.612 Y29.456
G01 F180 X50.612 Y29.481
G01 F180 X50.561 Y29.481
G01 F180 X50.561 Y29.507
G01 F180 X50.485 Y29.507
G01 F180 X50.485 Y29.532
G01 F180 X50.434 Y29.532
G01 F180 X50.434 Y29.557
G01 F180 X50.358 Y29.557
G01 F180 X50.358 Y29.583
G01 F180 X50.307 Y29.583
G01 F180 X50.307 Y29.608
G01 F180 X50.231 Y29.608
G01 F180 X50.231 Y29.634
G01 F180 X50.180 Y29.634
G01 F180 X50.180 Y29.659
G01 F180 X50.104 Y29.659
G01 F180 X50.104 Y29.684
G01 F180 X50.028 Y29.684
G01 F180 X50.028 Y29.710
G01 F180 X49.977 Y29.710
G01 F180 X49.977 Y29.735
G01 F180 X49.901 Y29.735
G01 F180 X49.901 Y29.761
G01 F180 X49.850 Y29.761
G01 F180 X49.850 Y29.786
G01 F180 X49.774 Y29.786
G01 F180 X49.774 Y29.811
G01 F180 X49.723 Y29.811
G01 F180 X49.723 Y29.837
G01 F180 X49.647 Y29.837
G01 F180 X49.647 Y29.862
G01 F180 X49.571 Y29.862
G01 F180 X49.571 Y29.888
G01 F180 X49.520 Y29.888
G01 F180 X49.520 Y29.913
G01 F180 X49.444 Y29.913
G01 F180 X49.444 Y29.938
G01 F180 X49.393 Y29.938
G01 F180 X49.393 Y29.964
G01 F180 X49.317 Y29.964
G01 F180 X49.317 Y29.989
G01 F180 X49.266 Y29.989
G01 F180 X49.266 Y30.015
G01 F180 X49.190 Y30.015
G01 F180 X49.190 Y30.040
G01 F180 X49.139 Y30.040
G01 F180 X49.139 Y30.065
G01 F180 X49.063 Y30.065
G01 F180 X49.063 Y30.091
G01 F180 X48.986 Y30.091
G01 F180 X48.986 Y30.116
G01 F180 X48.936 Y30.116
G01 F180 X48.936 Y30.142
G01 F180 X48.859 Y30.142
G01 F180 X48.859 Y30.167
G01 F180 X48.809 Y30.167
G01 F180 X48.809 Y30.192
G01 F180 X48.732 Y30.192
G01 F180 X48.732 Y30.218
G01 F180 X48.682 Y30.218
G01 F180 X48.682 Y30.243
G01 F180 X48.605 Y30.243
G01 F180 X48.605 Y30.269
G01 F180 X48.529 Y30.269
G01 F180 X48.529 Y30.294
G01 F180 X48.478 Y30.294
G01 F180 X48.478 Y30.319
G01 F180 X48.402 Y30.319
G01 F180 X48.402 Y30.345
G01 F180 X47.123 Y30.345
G00 F3000 Z3.000
G00 F3000 X61.617 Y28.168
G00 F1500 Z0
G01 F180 Z-0.300
G01 F180 X61.367 Y28.114
G01 F180 X61.133 Y28.010
G01 F180 X60.926 Y27.860
G01 F180 X60.755 Y27.669
G01 F180 X60.648 Y27.486
G01 F180 X57.646 Y27.486
G01 F180 X57.574 Y27.610
G01 F180 X57.417 Y27.784
G01 F180 X57.227 Y27.922
G01 F180 X57.013 Y28.018
G01 F180 X56.783 Y28.067
G01 F180 X56.548 Y28.067
G01 F180 X56.318 Y28.018
G01 F180 X56.104 Y27.922
G01 F180 X55.914 Y27.784
G01 F180 X55.757 Y27.610
G01 F180 X55.639 Y27.406
G01 F180 X55.567 Y27.183
G01 F180 X55.542 Y26.949
G01 F180 X55.567 Y26.716
G01 F180 X55.639 Y26.492
G01 F180 X55.757 Y26.289
G01 F180 X55.914 Y26.115
G01 F180 X56.104 Y25.977
G01 F180 X56.318 Y25.881
G01 F180 X56.548 Y25.832
G01 F180 X56.783 Y25.832
G01 F180 X57.013 Y25.881
G01 F180 X57.227 Y25.977
G01 F180 X57.417 Y26.115
G01 F180 X57.574 Y26.289
G01 F180 X57.646 Y26.413
G01 F180 X60.648 Y26.413
G01 F180 X60.755 Y26.229
G01 F180 X60.926 Y26.039
G01 F180 X61.133 Y25.889
G01 F180 X61.367 Y25.785
G01 F180 X61.617 Y25.731
G01 F180 X61.873 Y25.731
G01 F180 X62.124 Y25.785
G01 F180 X62.358 Y25.889
G01 F180 X62.565 Y26.039
G01 F180 X62.736 Y26.229
G01 F180 X62.864 Y26.451
G01 F180 X62.944 Y26.695
G01 F180 X62.970 Y26.949
G01 F180 X62.944 Y27.204
G01 F180 X62.864 Y27.448
G01 F180 X62.736 Y27.669
G01 F180 X62.565 Y27.860
G01 F180 X62.358 Y28.010
G01 F180 X62.124 Y28.114
G01 F180 X61.873 Y28.168
G01 F180 X61.617 Y28.168
G00 F3000 Z3.000
G00 F3000 X36.221 Y28.130
G00 F1500 Z0
G01 F180 Z-0.300
G01 F180 X35.979 Y28.078
G01 F180 X35.752 Y27.977
G01 F180 X35.551 Y27.831
G01 F180 X35.385 Y27.647
G01 F180 X35.261 Y27.432
G01 F180 X35.185 Y27.196
G01 F180 X35.159 Y26.949
G01 F180 X35.185 Y26.703
G01 F180 X35.261 Y26.467
G01 F180 X35.385 Y26.252
G01 F180 X35.551 Y26.067
G01 F180 X35.752 Y25.922
G01 F180 X35.979 Y25.821
G01 F180 X36.221 Y25.769
G01 F180 X36.470 Y25.769
G01 F180 X36.712 Y25.821
G01 F180 X36.939 Y25.922
G01 F180 X37.140 Y26.067
G01 F180 X37.306 Y26.252
G01 F180 X37.399 Y26.413
G01 F180 X40.445 Y26.413
G01 F180 X40.517 Y26.289
G01 F180 X40.674 Y26.115
G01 F180 X40.864 Y25.977
G01 F180 X41.078 Y25.881
G01 F180 X41.308 Y25.832
G01 F180 X41.543 Y25.832
G01 F180 X41.773 Y25.881
G01 F180 X41.987 Y25.977
G01 F180 X42.177 Y26.115
G01 F180 X42.334 Y26.289
G01 F180 X42.452 Y26.492
G01 F180 X42.524 Y26.716
G01 F180 X42.549 Y26.949
G01 F180 X42.524 Y27.183
G01 F180 X42.452 Y27.406
G01 F180 X42.334 Y27.610
G01 F180 X42.177 Y27.784
G01 F180 X41.987 Y27.922
G01 F180 X41.773 Y28.018
G01 F180 X41.543 Y28.067
G01 F180 X41.308 Y28.067
G01 F180 X41.078 Y28.018
G01 F180 X40.864 Y27.922
G01 F180 X40.674 Y27.784
G01 F180 X40.517 Y27.610
G01 F180 X40.445 Y27.486
G01 F180 X37.399 Y27.486
G01 F180 X37.306 Y27.647
G01 F180 X37.140 Y27.831
G01 F180 X36.939 Y27.977
G01 F180 X36.712 Y28.078
G01 F180 X36.470 Y28.130
G01 F180 X36.221 Y28.130
G00 F3000 Z3.000
G00 F3000 X23.521 Y28.130
G00 F1500 Z0
G01 F180 Z-0.300
G01 F180 X23.279 Y28.078
G01 F180 X23.052 Y27.977
G01 F180 X22.851 Y27.831
G01 F180 X22.685 Y27.647
G01 F180 X22.561 Y27.432
G01 F180 X22.485 Y27.196
G01 F180 X22.459 Y26.949
G01 F180 X22.485 Y26.703
G01 F180 X22.561 Y26.467
G01 F180 X22.685 Y26.252
G01 F180 X22.851 Y26.067
G01 F180 X23.052 Y25.922
G01 F180 X23.279 Y25.821
G01 F180 X23.521 Y25.769
G01 F180 X23.770 Y25.769
G01 F180 X24.012 Y25.821
G01 F180 X24.239 Y25.922
G01 F180 X24.440 Y26.067
G01 F180 X24.606 Y26.252
G01 F180 X24.699 Y26.413
G01 F180 X25.132 Y26.413
G01 F180 X25.225 Y26.252
G01 F180 X25.391 Y26.067
G01 F180 X25.592 Y25.922
G01 F180 X25.819 Y25.821
G01 F180 X26.062 Y25.769
G01 F180 X26.310 Y25.769
G01 F180 X26.552 Y25.821
G01 F180 X26.779 Y25.922
G01 F180 X26.980 Y26.067
G01 F180 X27.146 Y26.252
G01 F180 X27.270 Y26.467
G01 F180 X27.346 Y26.703
G01 F180 X27.372 Y26.949
G01 F180 X27.346 Y27.196
G01 F180 X27.270 Y27.432
G01 F180 X27.146 Y27.647
G01 F180 X26.980 Y27.831
G01 F180 X26.779 Y27.977
G01 F180 X26.552 Y28.078
G01 F180 X26.310 Y28.130
G01 F180 X26.062 Y28.130
G01 F180 X25.819 Y28.078
G01 F180 X25.592 Y27.977
G01 F180 X25.391 Y27.831
G01 F180 X25.225 Y27.647
G01 F180 X25.132 Y27.486
G01 F180 X24.699 Y27.486
G01 F180 X24.606 Y27.647
G01 F180 X24.440 Y27.831
G01 F180 X24.239 Y27.977
G01 F180 X24.012 Y28.078
G01 F180 X23.770 Y28.130
G01 F180 X23.521 Y28.130
G00 F3000 Z3.000
G00 F3000 X61.617 Y25.628
G00 F1500 Z0
G01 F180 Z-0.300
G01 F180 X61.367 Y25.574
G01 F180 X61.133 Y25.470
G01 F180 X60.926 Y25.320
G01 F180 X60.755 Y25.129
G01 F180 X60.648 Y24.946
G01 F180 X57.646 Y24.946
G01 F180 X57.574 Y25.070
G01 F180 X57.417 Y25.244
G01 F180 X57.227 Y25.382
G01 F180 X57.013 Y25.478
G01 F180 X56.783 Y25.527
G01 F180 X56.548 Y25.527
G01 F180 X56.318 Y25.478
G01 F180 X56.104 Y25.382
G01 F180 X55.914 Y25.244
G01 F180 X55.757 Y25.070
G01 F180 X55.639 Y24.866
G01 F180 X55.567 Y24.643
G01 F180 X55.542 Y24.409
G01 F180 X55.567 Y24.176
G01 F180 X55.639 Y23.953
G01 F180 X55.757 Y23.749
G01 F180 X55.914 Y23.575
G01 F180 X56.104 Y23.437
G01 F180 X56.318 Y23.341
G01 F180 X56.548 Y23.292
G01 F180 X56.783 Y23.292
G01 F180 X57.013 Y23.341
G01 F180 X57.227 Y23.437
G01 F180 X57.417 Y23.575
G01 F180 X57.574 Y23.749
G01 F180 X57.646 Y23.873
G01 F180 X60.648 Y23.873
G01 F180 X60.755 Y23.689
G01 F180 X60.926 Y23.499
G01 F180 X61.133 Y23.349
G01 F180 X61.367 Y23.245
G01 F180 X61.617 Y23.191
G01 F180 X61.873 Y23.191
G01 F180 X62.124 Y23.245
G01 F180 X62.358 Y23.349
G01 F180 X62.565 Y23.499
G01 F180 X62.736 Y23.689
G01 F180 X62.864 Y23.911
G01 F180 X62.944 Y24.155
G01 F180 X62.970 Y24.409
G01 F180 X62.944 Y24.664
G01 F180 X62.864 Y24.908
G01 F180 X62.736 Y25.129
G01 F180 X62.565 Y25.320
G01 F180 X62.358 Y25.470
G01 F180 X62.124 Y25.574
G01 F180 X61.873 Y25.628
G01 F180 X61.617 Y25.628
G00 F3000 Z3.000
G00 F3000 X18.442 Y25.590
G00 F1500 Z0
G01 F180 Z-0.300
G01 F180 X18.199 Y25.538
G01 F180 X17.972 Y25.437
G01 F180 X17.771 Y25.291
G01 F180 X17.605 Y25.107
G01 F180 X17.481 Y24.892
G01 F180 X17.405 Y24.656
G01 F180 X17.379 Y24.409
G01 F180 X17.405 Y24.163
G01 F180 X17.481 Y23.927
G01 F180 X17.605 Y23.712
G01 F180 X17.771 Y23.527
G01 F180 X17.972 Y23.382
G01 F180 X18.199 Y23.281
G01 F180 X18.442 Y23.229
G01 F180 X18.690 Y23.229
G01 F180 X18.932 Y23.281
G01 F180 X19.159 Y23.382
G01 F180 X19.360 Y23.527
G01 F180 X19.526 Y23.712
G01 F180 X19.619 Y23.873
G01 F180 X28.502 Y23.873
G01 F180 X30.728 Y21.647
G01 F180 X30.728 Y20.454
G01 F180 X30.718 Y20.452
G01 F180 X30.615 Y20.406
G01 F180 X30.524 Y20.340
G01 F180 X30.448 Y20.256
G01 F180 X30.390 Y20.155
G01 F180 X30.376 Y20.105
G01 F180 X30.305 Y20.027
G01 F180 X30.181 Y19.812
G01 F180 X30.105 Y19.576
G01 F180 X30.079 Y19.329
G01 F180 X30.105 Y19.083
G01 F180 X30.181 Y18.847
G01 F180 X30.305 Y18.632
G01 F180 X30.471 Y18.447
G01 F180 X30.672 Y18.302
G01 F180 X30.899 Y18.201
G01 F180 X31.142 Y18.149
G01 F180 X31.390 Y18.149
G01 F180 X31.632 Y18.201
G01 F180 X31.859 Y18.302
G01 F180 X32.060 Y18.447
G01 F180 X32.226 Y18.632
G01 F180 X32.319 Y18.793
G01 F180 X40.445 Y18.793
G01 F180 X40.517 Y18.669
G01 F180 X40.674 Y18.495
G01 F180 X40.864 Y18.357
G01 F180 X41.078 Y18.261
G01 F180 X41.308 Y18.212
G01 F180 X41.543 Y18.212
G01 F180 X41.773 Y18.261
G01 F180 X41.987 Y18.357
G01 F180 X42.177 Y18.495
G01 F180 X42.334 Y18.669
G01 F180 X42.452 Y18.873
G01 F180 X42.524 Y19.096
G01 F180 X42.549 Y19.329
G01 F180 X42.524 Y19.563
G01 F180 X42.452 Y19.786
G01 F180 X42.334 Y19.990
G01 F180 X42.177 Y20.164
G01 F180 X41.987 Y20.302
G01 F180 X41.773 Y20.398
G01 F180 X41.543 Y20.447
G01 F180 X41.308 Y20.447
G01 F180 X41.078 Y20.398
G01 F180 X40.864 Y20.302
G01 F180 X40.674 Y20.164
G01 F180 X40.517 Y19.990
G01 F180 X40.445 Y19.866
G01 F180 X32.319 Y19.866
G01 F180 X32.226 Y20.027
G01 F180 X32.060 Y20.211
G01 F180 X31.859 Y20.357
G01 F180 X31.803 Y20.382
G01 F180 X31.803 Y21.882
G01 F180 X31.793 Y21.982
G01 F180 X31.758 Y22.089
G01 F180 X31.702 Y22.186
G01 F180 X31.639 Y22.256
G01 F180 X29.081 Y24.814
G01 F180 X28.995 Y24.876
G01 F180 X28.892 Y24.922
G01 F180 X28.782 Y24.946
G01 F180 X19.619 Y24.946
G01 F180 X19.526 Y25.107
G01 F180 X19.360 Y25.291
G01 F180 X19.159 Y25.437
G01 F180 X18.932 Y25.538
G01 F180 X18.690 Y25.590
G01 F180 X18.442 Y25.590
G00 F3000 Z3.000
G00 F3000 X8.282 Y25.590
G00 F1500 Z0
G01 F180 Z-0.300
G01 F180 X8.039 Y25.538
G01 F180 X7.812 Y25.437
G01 F180 X7.611 Y25.291
G01 F180 X7.445 Y25.107
G01 F180 X7.321 Y24.892
G01 F180 X7.245 Y24.656
G01 F180 X7.219 Y24.409
G01 F180 X7.245 Y24.163
G01 F180 X7.321 Y23.927
G01 F180 X7.336 Y23.902
G01 F180 X7.345 Y23.815
G01 F180 X7.380 Y23.707
G01 F180 X7.436 Y23.610
G01 F180 X7.511 Y23.526
G01 F180 X7.603 Y23.460
G01 F180 X7.706 Y23.414
G01 F180 X7.793 Y23.396
G01 F180 X7.812 Y23.382
G01 F180 X7.868 Y23.357
G01 F180 X7.868 Y17.842
G01 F180 X7.812 Y17.817
G01 F180 X7.611 Y17.671
G01 F180 X7.445 Y17.487
G01 F180 X7.321 Y17.272
G01 F180 X7.245 Y17.036
G01 F180 X7.219 Y16.789
G01 F180 X7.245 Y16.543
G01 F180 X7.321 Y16.307
G01 F180 X7.445 Y16.092
G01 F180 X7.611 Y15.907
G01 F180 X7.812 Y15.762
G01 F180 X8.039 Y15.661
G01 F180 X8.282 Y15.609
G01 F180 X8.530 Y15.609
G01 F180 X8.772 Y15.661
G01 F180 X8.999 Y15.762
G01 F180 X9.200 Y15.907
G01 F180 X9.366 Y16.092
G01 F180 X9.490 Y16.307
G01 F180 X9.566 Y16.543
G01 F180 X9.592 Y16.789
G01 F180 X9.566 Y17.036
G01 F180 X9.490 Y17.272
G01 F180 X9.366 Y17.487
G01 F180 X9.200 Y17.671
G01 F180 X8.999 Y17.817
G01 F180 X8.943 Y17.842
G01 F180 X8.943 Y23.357
G01 F180 X8.999 Y23.382
G01 F180 X9.200 Y23.527
G01 F180 X9.366 Y23.712
G01 F180 X9.490 Y23.927
G01 F180 X9.566 Y24.163
G01 F180 X9.592 Y24.409
G01 F180 X9.566 Y24.656
G01 F180 X9.490 Y24.892
G01 F180 X9.366 Y25.107
G01 F180 X9.200 Y25.291
G01 F180 X8.999 Y25.437
G01 F180 X8.772 Y25.538
G01 F180 X8.530 Y25.590
G01 F180 X8.282 Y25.590
G00 F3000 Z3.000
G00 F3000 X41.308 Y25.527
G00 F1500 Z0
G01 F180 Z-0.300
G01 F180 X41.078 Y25.478
G01 F180 X40.864 Y25.382
G01 F180 X40.674 Y25.244
G01 F180 X40.517 Y25.070
G01 F180 X40.399 Y24.866
G01 F180 X40.327 Y24.643
G01 F180 X40.302 Y24.409
G01 F180 X40.327 Y24.176
G01 F180 X40.399 Y23.953
G01 F180 X40.517 Y23.749
G01 F180 X40.674 Y23.575
G01 F180 X40.864 Y23.437
G01 F180 X41.078 Y23.341
G01 F180 X41.308 Y23.292
G01 F180 X41.543 Y23.292
G01 F180 X41.773 Y23.341
G01 F180 X41.987 Y23.437
G01 F180 X42.177 Y23.575
G01 F180 X42.334 Y23.749
G01 F180 X42.452 Y23.953
G01 F180 X42.524 Y24.176
G01 F180 X42.549 Y24.409
G01 F180 X42.524 Y24.643
G01 F180 X42.452 Y24.866
G01 F180 X42.334 Y25.070
G01 F180 X42.177 Y25.244
G01 F180 X41.987 Y25.382
G01 F180 X41.773 Y25.478
G01 F180 X41.543 Y25.527
G01 F180 X41.308 Y25.527
G00 F3000 Z3.000
G00 F3000 X48.419 Y24.172
G00 F1500 Z0
G01 F180 Z-0.300
G01 F180 X48.419 Y24.147
G01 F180 X48.292 Y24.147
G01 F180 X48.292 Y24.122
G01 F180 X48.241 Y24.122
G01 F180 X48.241 Y24.096
G01 F180 X48.190 Y24.096
G01 F180 X48.190 Y24.071
G01 F180 X48.139 Y24.071
G01 F180 X48.139 Y24.046
G01 F180 X48.114 Y24.046
G01 F180 X48.114 Y24.020
G01 F180 X48.089 Y24.020
G01 F180 X48.089 Y23.995
G01 F180 X48.063 Y23.995
G01 F180 X48.063 Y23.969
G01 F180 X48.038 Y23.969
G01 F180 X48.038 Y23.944
G01 F180 X48.012 Y23.944
G01 F180 X48.012 Y23.919
G01 F180 X47.987 Y23.919
G01 F180 X47.987 Y23.893
G01 F180 X47.962 Y23.893
G01 F180 X47.962 Y23.868
G01 F180 X47.936 Y23.868
G01 F180 X47.936 Y23.817
G01 F180 X47.911 Y23.817
G01 F180 X47.911 Y23.766
G01 F180 X47.885 Y23.766
G01 F180 X47.885 Y23.690
G01 F180 X47.860 Y23.690
G01 F180 X47.860 Y22.538
G01 F180 X47.885 Y22.538
G01 F180 X47.885 Y22.487
G01 F180 X47.911 Y22.487
G01 F180 X47.911 Y22.462
G01 F180 X47.936 Y22.462
G01 F180 X47.936 Y22.437
G01 F180 X47.962 Y22.437
G01 F180 X47.962 Y22.420
G01 F180 X47.911 Y22.420
G01 F180 X47.911 Y22.395
G01 F180 X47.885 Y22.395
G01 F180 X47.885 Y22.344
G01 F180 X47.860 Y22.344
G01 F180 X47.860 Y21.700
G01 F180 X47.885 Y21.700
G01 F180 X47.885 Y21.649
G01 F180 X47.911 Y21.649
G01 F180 X47.911 Y21.624
G01 F180 X47.936 Y21.624
G01 F180 X47.936 Y21.598
G01 F180 X47.987 Y21.598
G01 F180 X47.987 Y21.573
G01 F180 X50.612 Y21.573
G01 F180 X50.612 Y21.598
G01 F180 X50.663 Y21.598
G01 F180 X50.663 Y21.624
G01 F180 X50.688 Y21.624
G01 F180 X50.688 Y21.649
G01 F180 X50.714 Y21.649
G01 F180 X50.714 Y21.700
G01 F180 X50.739 Y21.700
G01 F180 X50.739 Y22.344
G01 F180 X50.714 Y22.344
G01 F180 X50.714 Y22.369
G01 F180 X50.688 Y22.369
G01 F180 X50.688 Y22.395
G01 F180 X50.663 Y22.395
G01 F180 X50.663 Y22.420
G01 F180 X50.637 Y22.420
G01 F180 X50.637 Y22.445
G01 F180 X50.587 Y22.445
G01 F180 X50.587 Y22.471
G01 F180 X49.342 Y22.471
G01 F180 X49.342 Y22.496
G01 F180 X49.317 Y22.496
G01 F180 X49.317 Y22.521
G01 F180 X49.291 Y22.521
G01 F180 X49.291 Y22.572
G01 F180 X49.266 Y22.572
G01 F180 X49.266 Y22.598
G01 F180 X49.240 Y22.598
G01 F180 X49.240 Y22.623
G01 F180 X49.215 Y22.623
G01 F180 X49.215 Y22.649
G01 F180 X49.190 Y22.649
G01 F180 X49.190 Y22.674
G01 F180 X49.164 Y22.674
G01 F180 X49.164 Y22.699
G01 F180 X49.139 Y22.699
G01 F180 X49.139 Y22.750
G01 F180 X49.113 Y22.750
G01 F180 X49.113 Y22.776
G01 F180 X49.088 Y22.776
G01 F180 X49.088 Y22.801
G01 F180 X49.063 Y22.801
G01 F180 X49.063 Y22.826
G01 F180 X49.037 Y22.826
G01 F180 X49.037 Y22.852
G01 F180 X49.012 Y22.852
G01 F180 X49.012 Y22.877
G01 F180 X48.986 Y22.877
G01 F180 X48.986 Y22.928
G01 F180 X48.961 Y22.928
G01 F180 X48.961 Y22.953
G01 F180 X48.936 Y22.953
G01 F180 X48.936 Y22.979
G01 F180 X48.910 Y22.979
G01 F180 X48.910 Y23.004
G01 F180 X48.885 Y23.004
G01 F180 X48.885 Y23.030
G01 F180 X48.859 Y23.030
G01 F180 X48.859 Y23.055
G01 F180 X48.834 Y23.055
G01 F180 X48.834 Y23.106
G01 F180 X48.809 Y23.106
G01 F180 X48.809 Y23.131
G01 F180 X48.783 Y23.131
G01 F180 X48.783 Y23.199
G01 F180 X48.809 Y23.199
G01 F180 X48.809 Y23.224
G01 F180 X48.859 Y23.224
G01 F180 X48.859 Y23.249
G01 F180 X48.910 Y23.249
G01 F180 X48.910 Y23.275
G01 F180 X49.164 Y23.275
G01 F180 X49.164 Y23.300
G01 F180 X49.215 Y23.300
G01 F180 X49.215 Y23.326
G01 F180 X49.240 Y23.326
G01 F180 X49.240 Y23.351
G01 F180 X49.266 Y23.351
G01 F180 X49.266 Y23.402
G01 F180 X49.291 Y23.402
G01 F180 X49.291 Y24.020
G01 F180 X49.266 Y24.020
G01 F180 X49.266 Y24.071
G01 F180 X49.240 Y24.071
G01 F180 X49.240 Y24.096
G01 F180 X49.215 Y24.096
G01 F180 X49.215 Y24.122
G01 F180 X49.190 Y24.122
G01 F180 X49.190 Y24.147
G01 F180 X49.113 Y24.147
G01 F180 X49.113 Y24.172
G01 F180 X48.419 Y24.172
G00 F3000 Z3.000
G00 F3000 X20.982 Y23.050
G00 F1500 Z0
G01 F180 Z-0.300
G01 F180 X20.739 Y22.998
G01 F180 X20.512 Y22.897
G01 F180 X20.311 Y22.751
G01 F180 X20.145 Y22.567
G01 F180 X20.021 Y22.352
G01 F180 X19.945 Y22.116
G01 F180 X19.919 Y21.869
G01 F180 X19.945 Y21.623
G01 F180 X19.983 Y21.504
G01 F180 X18.365 Y19.866
G01 F180 X17.079 Y19.866
G01 F180 X16.986 Y20.027
G01 F180 X16.820 Y20.211
G01 F180 X16.619 Y20.357
G01 F180 X16.392 Y20.458
G01 F180 X16.150 Y20.510
G01 F180 X15.902 Y20.510
G01 F180 X15.659 Y20.458
G01 F180 X15.432 Y20.357
G01 F180 X15.231 Y20.211
G01 F180 X15.065 Y20.027
G01 F180 X14.941 Y19.812
G01 F180 X14.865 Y19.576
G01 F180 X14.839 Y19.329
G01 F180 X14.865 Y19.083
G01 F180 X14.941 Y18.847
G01 F180 X15.065 Y18.632
G01 F180 X15.231 Y18.447
G01 F180 X15.432 Y18.302
G01 F180 X15.659 Y18.201
G01 F180 X15.902 Y18.149
G01 F180 X16.150 Y18.149
G01 F180 X16.392 Y18.201
G01 F180 X16.619 Y18.302
G01 F180 X16.820 Y18.447
G01 F180 X16.986 Y18.632
G01 F180 X17.079 Y18.793
G01 F180 X18.647 Y18.793
G01 F180 X18.758 Y18.817
G01 F180 X18.860 Y18.863
G01 F180 X18.947 Y18.926
G01 F180 X20.740 Y20.741
G01 F180 X20.982 Y20.689
G01 F180 X21.230 Y20.689
G01 F180 X21.472 Y20.741
G01 F180 X21.699 Y20.842
G01 F180 X21.900 Y20.987
G01 F180 X22.066 Y21.172
G01 F180 X22.190 Y21.387
G01 F180 X22.266 Y21.623
G01 F180 X22.292 Y21.869
G01 F180 X22.266 Y22.116
G01 F180 X22.190 Y22.352
G01 F180 X22.066 Y22.567
G01 F180 X21.900 Y22.751
G01 F180 X21.699 Y22.897
G01 F180 X21.472 Y22.998
G01 F180 X21.230 Y23.050
G01 F180 X20.982 Y23.050
G00 F3000 Z3.000
G00 F3000 X23.521 Y23.050
G00 F1500 Z0
G01 F180 Z-0.300
G01 F180 X23.279 Y22.998
G01 F180 X23.052 Y22.897
G01 F180 X22.851 Y22.751
G01 F180 X22.685 Y22.567
G01 F180 X22.561 Y22.352
G01 F180 X22.485 Y22.116
G01 F180 X22.459 Y21.869
G01 F180 X22.485 Y21.623
G01 F180 X22.561 Y21.387
G01 F180 X22.685 Y21.172
G01 F180 X22.851 Y20.987
G01 F180 X23.052 Y20.842
G01 F180 X23.113 Y20.815
G01 F180 X23.130 Y19.550
G01 F180 X20.907 Y17.350
G01 F180 X17.078 Y17.328
G01 F180 X16.986 Y17.487
G01 F180 X16.820 Y17.671
G01 F180 X16.619 Y17.817
G01 F180 X16.392 Y17.918
G01 F180 X16.150 Y17.970
G01 F180 X15.902 Y17.970
G01 F180 X15.659 Y17.918
G01 F180 X15.432 Y17.817
G01 F180 X15.231 Y17.671
G01 F180 X15.065 Y17.487
G01 F180 X14.941 Y17.272
G01 F180 X14.865 Y17.036
G01 F180 X14.839 Y16.789
G01 F180 X14.865 Y16.543
G01 F180 X14.941 Y16.307
G01 F180 X15.065 Y16.092
G01 F180 X15.231 Y15.907
G01 F180 X15.432 Y15.762
G01 F180 X15.659 Y15.661
G01 F180 X15.902 Y15.609
G01 F180 X16.150 Y15.609
G01 F180 X16.392 Y15.661
G01 F180 X16.619 Y15.762
G01 F180 X16.820 Y15.907
G01 F180 X16.986 Y16.092
G01 F180 X17.080 Y16.255
G01 F180 X21.188 Y16.279
G01 F180 X21.297 Y16.302
G01 F180 X21.400 Y16.348
G01 F180 X21.486 Y16.410
G01 F180 X24.044 Y18.942
G01 F180 X24.107 Y19.012
G01 F180 X24.163 Y19.110
G01 F180 X24.198 Y19.217
G01 F180 X24.209 Y19.319
G01 F180 X24.188 Y20.819
G01 F180 X24.239 Y20.842
G01 F180 X24.440 Y20.987
G01 F180 X24.606 Y21.172
G01 F180 X24.730 Y21.387
G01 F180 X24.806 Y21.623
G01 F180 X24.832 Y21.869
G01 F180 X24.806 Y22.116
G01 F180 X24.730 Y22.352
G01 F180 X24.606 Y22.567
G01 F180 X24.440 Y22.751
G01 F180 X24.239 Y22.897
G01 F180 X24.012 Y22.998
G01 F180 X23.770 Y23.050
G01 F180 X23.521 Y23.050
G00 F3000 Z3.000
G00 F3000 X41.308 Y22.986
G00 F1500 Z0
G01 F180 Z-0.300
G01 F180 X41.078 Y22.938
G01 F180 X40.864 Y22.842
G01 F180 X40.674 Y22.704
G01 F180 X40.517 Y22.530
G01 F180 X40.399 Y22.326
G01 F180 X40.327 Y22.103
G01 F180 X40.302 Y21.869
G01 F180 X40.327 Y21.636
G01 F180 X40.399 Y21.413
G01 F180 X40.517 Y21.209
G01 F180 X40.674 Y21.035
G01 F180 X40.864 Y20.897
G01 F180 X41.078 Y20.801
G01 F180 X41.308 Y20.752
G01 F180 X41.543 Y20.752
G01 F180 X41.773 Y20.801
G01 F180 X41.987 Y20.897
G01 F180 X42.177 Y21.035
G01 F180 X42.334 Y21.209
G01 F180 X42.452 Y21.413
G01 F180 X42.524 Y21.636
G01 F180 X42.549 Y21.869
G01 F180 X42.524 Y22.103
G01 F180 X42.452 Y22.326
G01 F180 X42.334 Y22.530
G01 F180 X42.177 Y22.704
G01 F180 X41.987 Y22.842
G01 F180 X41.773 Y22.938
G01 F180 X41.543 Y22.986
G01 F180 X41.308 Y22.986
G00 F3000 Z3.000
G00 F3000 X56.548 Y22.986
G00 F1500 Z0
G01 F180 Z-0.300
G01 F180 X56.318 Y22.938
G01 F180 X56.104 Y22.842
G01 F180 X55.914 Y22.704
G01 F180 X55.757 Y22.530
G01 F180 X55.639 Y22.326
G01 F180 X55.567 Y22.103
G01 F180 X55.542 Y21.869
G01 F180 X55.567 Y21.636
G01 F180 X55.639 Y21.413
G01 F180 X55.757 Y21.209
G01 F180 X55.914 Y21.035
G01 F180 X56.104 Y20.897
G01 F180 X56.318 Y20.801
G01 F180 X56.548 Y20.752
G01 F180 X56.783 Y20.752
G01 F180 X57.013 Y20.801
G01 F180 X57.227 Y20.897
G01 F180 X57.417 Y21.035
G01 F180 X57.574 Y21.209
G01 F180 X57.692 Y21.413
G01 F180 X57.764 Y21.636
G01 F180 X57.789 Y21.869
G01 F180 X57.764 Y22.103
G01 F180 X57.692 Y22.326
G01 F180 X57.574 Y22.530
G01 F180 X57.417 Y22.704
G01 F180 X57.227 Y22.842
G01 F180 X57.013 Y22.938
G01 F180 X56.783 Y22.986
G01 F180 X56.548 Y22.986
G00 F3000 Z3.000
G00 F3000 X48.470 Y21.074
G00 F1500 Z0
G01 F180 Z-0.300
G01 F180 X48.470 Y21.048
G01 F180 X48.393 Y21.048
G01 F180 X48.393 Y21.023
G01 F180 X48.343 Y21.023
G01 F180 X48.343 Y20.998
G01 F180 X48.292 Y20.998
G01 F180 X48.292 Y20.972
G01 F180 X48.266 Y20.972
G01 F180 X48.266 Y20.947
G01 F180 X48.216 Y20.947
G01 F180 X48.216 Y20.921
G01 F180 X48.190 Y20.921
G01 F180 X48.190 Y20.896
G01 F180 X48.165 Y20.896
G01 F180 X48.165 Y20.870
G01 F180 X48.139 Y20.870
G01 F180 X48.139 Y20.845
G01 F180 X48.114 Y20.845
G01 F180 X48.114 Y20.820
G01 F180 X48.089 Y20.820
G01 F180 X48.089 Y20.769
G01 F180 X48.063 Y20.769
G01 F180 X48.063 Y20.744
G01 F180 X48.038 Y20.744
G01 F180 X48.038 Y20.718
G01 F180 X48.012 Y20.718
G01 F180 X48.012 Y20.693
G01 F180 X47.987 Y20.693
G01 F180 X47.987 Y20.642
G01 F180 X47.962 Y20.642
G01 F180 X47.962 Y20.617
G01 F180 X47.936 Y20.617
G01 F180 X47.936 Y20.566
G01 F180 X47.911 Y20.566
G01 F180 X47.911 Y20.515
G01 F180 X47.885 Y20.515
G01 F180 X47.885 Y20.439
G01 F180 X47.860 Y20.439
G01 F180 X47.860 Y19.109
G01 F180 X47.885 Y19.109
G01 F180 X47.885 Y19.033
G01 F180 X47.911 Y19.033
G01 F180 X47.911 Y18.982
G01 F180 X47.936 Y18.982
G01 F180 X47.936 Y18.931
G01 F180 X47.962 Y18.931
G01 F180 X47.962 Y18.906
G01 F180 X47.987 Y18.906
G01 F180 X47.987 Y18.881
G01 F180 X48.012 Y18.881
G01 F180 X48.012 Y18.830
G01 F180 X48.038 Y18.830
G01 F180 X48.038 Y18.804
G01 F180 X48.063 Y18.804
G01 F180 X48.063 Y18.779
G01 F180 X48.089 Y18.779
G01 F180 X48.089 Y18.754
G01 F180 X48.114 Y18.754
G01 F180 X48.114 Y18.728
G01 F180 X48.139 Y18.728
G01 F180 X48.139 Y18.703
G01 F180 X48.165 Y18.703
G01 F180 X48.165 Y18.677
G01 F180 X48.190 Y18.677
G01 F180 X48.190 Y18.652
G01 F180 X48.216 Y18.652
G01 F180 X48.216 Y18.627
G01 F180 X48.241 Y18.627
G01 F180 X48.241 Y18.601
G01 F180 X48.292 Y18.601
G01 F180 X48.292 Y18.576
G01 F180 X48.317 Y18.576
G01 F180 X48.317 Y18.550
G01 F180 X48.368 Y18.550
G01 F180 X48.368 Y18.525
G01 F180 X48.444 Y18.525
G01 F180 X48.444 Y18.500
G01 F180 X48.571 Y18.500
G01 F180 X48.571 Y18.474
G01 F180 X50.028 Y18.474
G01 F180 X50.028 Y18.500
G01 F180 X50.180 Y18.500
G01 F180 X50.180 Y18.525
G01 F180 X50.231 Y18.525
G01 F180 X50.231 Y18.550
G01 F180 X50.282 Y18.550
G01 F180 X50.282 Y18.576
G01 F180 X50.333 Y18.576
G01 F180 X50.333 Y18.601
G01 F180 X50.358 Y18.601
G01 F180 X50.358 Y18.627
G01 F180 X50.383 Y18.627
G01 F180 X50.383 Y18.652
G01 F180 X50.409 Y18.652
G01 F180 X50.409 Y18.677
G01 F180 X50.434 Y18.677
G01 F180 X50.434 Y18.703
G01 F180 X50.460 Y18.703
G01 F180 X50.460 Y18.728
G01 F180 X50.485 Y18.728
G01 F180 X50.485 Y18.754
G01 F180 X50.510 Y18.754
G01 F180 X50.510 Y18.779
G01 F180 X50.536 Y18.779
G01 F180 X50.536 Y18.804
G01 F180 X50.561 Y18.804
G01 F180 X50.561 Y18.830
G01 F180 X50.587 Y18.830
G01 F180 X50.587 Y18.881
G01 F180 X50.612 Y18.881
G01 F180 X50.612 Y18.906
G01 F180 X50.637 Y18.906
G01 F180 X50.637 Y18.957
G01 F180 X50.663 Y18.957
G01 F180 X50.663 Y18.982
G01 F180 X50.688 Y18.982
G01 F180 X50.688 Y19.058
G01 F180 X50.714 Y19.058
G01 F180 X50.714 Y19.134
G01 F180 X50.739 Y19.134
G01 F180 X50.739 Y20.947
G01 F180 X50.714 Y20.947
G01 F180 X50.714 Y20.998
G01 F180 X50.688 Y20.998
G01 F180 X50.688 Y21.023
G01 F180 X50.663 Y21.023
G01 F180 X50.663 Y21.048
G01 F180 X50.612 Y21.048
