( PCB Contour )
( Generated by Rapid-PCB.com )
( Material Size)
( X= 70.000, Y= 50.000, Z= 1.580)
()
G00
G17
G21
G40
G49
G54
G80
G90
G94
G00 F3000 Z3.000
M03 S9000
G00 F3000 X23.376 Y48.284
G00 F1500 Z0
G01 F300 Z-0.200
G01 F300 X23.167 Y48.240
G01 F300 X22.972 Y48.153
G01 F300 X22.800 Y48.028
G01 F300 X22.657 Y47.869
G01 F300 X22.550 Y47.684
G01 F300 X22.484 Y47.482
G01 F300 X22.462 Y47.269
G01 F300 X22.484 Y47.057
G01 F300 X22.550 Y46.854
G01 F300 X22.657 Y46.670
G01 F300 X22.800 Y46.511
G01 F300 X22.972 Y46.386
G01 F300 X23.167 Y46.299
G01 F300 X23.173 Y46.298
G01 F300 X23.142 Y45.620
G01 F300 X23.004 Y45.558
G01 F300 X22.842 Y45.441
G01 F300 X22.708 Y45.292
G01 F300 X22.608 Y45.119
G01 F300 X22.546 Y44.928
G01 F300 X22.525 Y44.729
G01 F300 X22.546 Y44.531
G01 F300 X22.608 Y44.340
G01 F300 X22.708 Y44.167
G01 F300 X22.842 Y44.018
G01 F300 X23.004 Y43.901
G01 F300 X23.187 Y43.819
G01 F300 X23.382 Y43.778
G01 F300 X23.582 Y43.778
G01 F300 X23.778 Y43.819
G01 F300 X23.961 Y43.901
G01 F300 X24.123 Y44.018
G01 F300 X24.256 Y44.167
G01 F300 X24.356 Y44.340
G01 F300 X24.418 Y44.531
G01 F300 X24.439 Y44.729
G01 F300 X24.418 Y44.928
G01 F300 X24.356 Y45.119
G01 F300 X24.256 Y45.292
G01 F300 X24.123 Y45.441
G01 F300 X23.961 Y45.558
G01 F300 X23.888 Y45.590
G01 F300 X23.915 Y46.238
G01 F300 X24.207 Y46.238
G01 F300 X24.283 Y46.255
G01 F300 X24.354 Y46.286
G01 F300 X24.418 Y46.332
G01 F300 X24.470 Y46.390
G01 F300 X24.509 Y46.457
G01 F300 X24.533 Y46.532
G01 F300 X24.541 Y46.609
G01 F300 X24.533 Y46.687
G01 F300 X24.509 Y46.761
G01 F300 X24.470 Y46.828
G01 F300 X24.430 Y46.872
G01 F300 X24.424 Y46.885
G01 F300 X24.429 Y46.899
G01 F300 X43.430 Y46.899
G01 F300 X43.430 Y7.022
G01 F300 X38.853 Y6.977
G01 F300 X37.317 Y8.560
G01 F300 X37.317 Y10.278
G01 F300 X35.099 Y10.278
G01 F300 X35.096 Y9.390
G01 F300 X35.073 Y9.169
G01 F300 X35.099 Y8.941
G01 F300 X35.099 Y8.061
G01 F300 X36.765 Y8.061
G01 F300 X38.449 Y6.326
G01 F300 X38.511 Y6.281
G01 F300 X38.582 Y6.250
G01 F300 X38.658 Y6.233
G01 F300 X38.729 Y6.233
G01 F300 X43.842 Y6.284
G01 F300 X43.918 Y6.300
G01 F300 X43.989 Y6.332
G01 F300 X44.052 Y6.378
G01 F300 X44.104 Y6.436
G01 F300 X44.143 Y6.503
G01 F300 X44.167 Y6.577
G01 F300 X44.175 Y6.651
G01 F300 X44.175 Y47.273
G01 F300 X44.167 Y47.347
G01 F300 X44.143 Y47.421
G01 F300 X44.104 Y47.489
G01 F300 X44.052 Y47.546
G01 F300 X43.989 Y47.592
G01 F300 X43.918 Y47.624
G01 F300 X43.841 Y47.640
G01 F300 X24.429 Y47.640
G01 F300 X24.415 Y47.684
G01 F300 X24.308 Y47.869
G01 F300 X24.165 Y48.028
G01 F300 X23.992 Y48.153
G01 F300 X23.798 Y48.240
G01 F300 X23.589 Y48.284
G01 F300 X23.376 Y48.284
G00 F3000 Z3.000
G00 F3000 X13.216 Y48.284
G00 F1500 Z0
G01 F300 Z-0.200
G01 F300 X13.007 Y48.240
G01 F300 X12.812 Y48.153
G01 F300 X12.639 Y48.028
G01 F300 X12.497 Y47.869
G01 F300 X12.390 Y47.684
G01 F300 X12.324 Y47.482
G01 F300 X12.302 Y47.269
G01 F300 X12.324 Y47.057
G01 F300 X12.390 Y46.854
G01 F300 X12.497 Y46.670
G01 F300 X12.639 Y46.511
G01 F300 X12.812 Y46.386
G01 F300 X12.949 Y46.325
G01 F300 X12.925 Y42.212
G01 F300 X12.932 Y42.137
G01 F300 X12.956 Y42.063
G01 F300 X12.975 Y42.030
G01 F300 X12.975 Y34.965
G01 F300 X8.375 Y34.965
G01 F300 X6.768 Y35.968
G01 F300 X6.786 Y36.144
G01 F300 X6.763 Y36.370
G01 F300 X6.692 Y36.585
G01 F300 X6.579 Y36.781
G01 F300 X6.428 Y36.950
G01 F300 X6.244 Y37.083
G01 F300 X6.037 Y37.175
G01 F300 X5.816 Y37.222
G01 F300 X5.589 Y37.222
G01 F300 X5.367 Y37.175
G01 F300 X5.160 Y37.083
G01 F300 X4.977 Y36.950
G01 F300 X4.825 Y36.781
G01 F300 X4.712 Y36.585
G01 F300 X4.642 Y36.370
G01 F300 X4.618 Y36.144
G01 F300 X4.642 Y35.919
G01 F300 X4.712 Y35.703
G01 F300 X4.825 Y35.507
G01 F300 X4.977 Y35.339
G01 F300 X5.160 Y35.206
G01 F300 X5.367 Y35.113
G01 F300 X5.589 Y35.066
G01 F300 X5.816 Y35.066
G01 F300 X6.037 Y35.113
G01 F300 X6.244 Y35.206
G01 F300 X6.382 Y35.306
G01 F300 X8.084 Y34.271
G01 F300 X8.152 Y34.240
G01 F300 X8.229 Y34.224
G01 F300 X13.387 Y34.224
G01 F300 X13.463 Y34.240
G01 F300 X13.534 Y34.272
G01 F300 X13.597 Y34.318
G01 F300 X13.649 Y34.376
G01 F300 X13.688 Y34.443
G01 F300 X13.712 Y34.517
G01 F300 X13.720 Y34.591
G01 F300 X13.720 Y46.336
G01 F300 X13.833 Y46.386
G01 F300 X14.005 Y46.511
G01 F300 X14.148 Y46.670
G01 F300 X14.255 Y46.854
G01 F300 X14.320 Y47.057
G01 F300 X14.343 Y47.269
G01 F300 X14.320 Y47.482
G01 F300 X14.255 Y47.684
G01 F300 X14.148 Y47.869
G01 F300 X14.005 Y48.028
G01 F300 X13.833 Y48.153
G01 F300 X13.638 Y48.240
G01 F300 X13.429 Y48.284
G01 F300 X13.216 Y48.284
G00 F3000 Z3.000
G00 F3000 X48.472 Y47.934
G00 F1500 Z0
G01 F300 Z-0.200
G01 F300 X48.472 Y47.908
G01 F300 X48.421 Y47.908
G01 F300 X48.421 Y47.883
G01 F300 X48.370 Y47.883
G01 F300 X48.370 Y47.858
G01 F300 X48.345 Y47.858
G01 F300 X48.345 Y47.832
G01 F300 X48.320 Y47.832
G01 F300 X48.320 Y47.807
G01 F300 X48.294 Y47.807
G01 F300 X48.294 Y47.756
G01 F300 X48.269 Y47.756
G01 F300 X48.269 Y47.731
G01 F300 X48.243 Y47.731
G01 F300 X48.243 Y47.680
G01 F300 X48.218 Y47.680
G01 F300 X48.218 Y47.629
G01 F300 X48.193 Y47.629
G01 F300 X48.193 Y47.604
G01 F300 X48.167 Y47.604
G01 F300 X48.167 Y47.553
G01 F300 X48.142 Y47.553
G01 F300 X48.142 Y47.502
G01 F300 X48.116 Y47.502
G01 F300 X48.116 Y47.451
G01 F300 X48.091 Y47.451
G01 F300 X48.091 Y47.426
G01 F300 X48.066 Y47.426
G01 F300 X48.066 Y47.375
G01 F300 X48.040 Y47.375
G01 F300 X48.040 Y47.324
G01 F300 X48.015 Y47.324
G01 F300 X48.015 Y47.299
G01 F300 X47.989 Y47.299
G01 F300 X47.989 Y47.248
G01 F300 X47.964 Y47.248
G01 F300 X47.964 Y47.197
G01 F300 X47.939 Y47.197
G01 F300 X47.939 Y47.146
G01 F300 X47.913 Y47.146
G01 F300 X47.913 Y47.121
G01 F300 X47.888 Y47.121
G01 F300 X47.888 Y47.070
G01 F300 X47.862 Y47.070
G01 F300 X47.862 Y47.019
G01 F300 X47.837 Y47.019
G01 F300 X47.837 Y46.994
G01 F300 X47.812 Y46.994
G01 F300 X47.812 Y46.943
G01 F300 X47.786 Y46.943
G01 F300 X47.786 Y46.892
G01 F300 X47.761 Y46.892
G01 F300 X47.761 Y46.867
G01 F300 X47.735 Y46.867
G01 F300 X47.735 Y46.816
G01 F300 X47.710 Y46.816
G01 F300 X47.710 Y46.765
G01 F300 X47.684 Y46.765
G01 F300 X47.684 Y46.715
G01 F300 X47.659 Y46.715
G01 F300 X47.659 Y46.689
G01 F300 X47.634 Y46.689
G01 F300 X47.634 Y46.638
G01 F300 X47.608 Y46.638
G01 F300 X47.608 Y46.588
G01 F300 X47.583 Y46.588
G01 F300 X47.583 Y46.562
G01 F300 X47.558 Y46.562
G01 F300 X47.558 Y46.511
G01 F300 X47.532 Y46.511
G01 F300 X47.532 Y46.461
G01 F300 X47.507 Y46.461
G01 F300 X47.507 Y46.435
G01 F300 X47.481 Y46.435
G01 F300 X47.481 Y46.384
G01 F300 X47.456 Y46.384
G01 F300 X47.456 Y46.334
G01 F300 X47.431 Y46.334
G01 F300 X47.431 Y46.283
G01 F300 X47.405 Y46.283
G01 F300 X47.405 Y46.257
G01 F300 X47.380 Y46.257
G01 F300 X47.380 Y46.207
G01 F300 X47.354 Y46.207
G01 F300 X47.354 Y46.156
G01 F300 X47.329 Y46.156
G01 F300 X47.329 Y46.130
G01 F300 X47.303 Y46.130
G01 F300 X47.303 Y46.080
G01 F300 X47.278 Y46.080
G01 F300 X47.278 Y46.029
G01 F300 X47.253 Y46.029
G01 F300 X47.253 Y45.978
G01 F300 X47.227 Y45.978
G01 F300 X47.227 Y45.953
G01 F300 X47.202 Y45.953
G01 F300 X47.202 Y45.902
G01 F300 X47.177 Y45.902
G01 F300 X47.177 Y45.851
G01 F300 X47.151 Y45.851
G01 F300 X47.151 Y45.826
G01 F300 X47.126 Y45.826
G01 F300 X47.126 Y45.775
G01 F300 X47.100 Y45.775
G01 F300 X47.100 Y45.724
G01 F300 X47.075 Y45.724
G01 F300 X47.075 Y45.699
G01 F300 X47.050 Y45.699
G01 F300 X47.050 Y45.648
G01 F300 X47.024 Y45.648
G01 F300 X47.024 Y45.597
G01 F300 X46.999 Y45.597
G01 F300 X46.999 Y45.546
G01 F300 X46.973 Y45.546
G01 F300 X46.973 Y45.521
G01 F300 X46.948 Y45.521
G01 F300 X46.948 Y45.470
G01 F300 X46.922 Y45.470
G01 F300 X46.922 Y45.419
G01 F300 X46.897 Y45.419
G01 F300 X46.897 Y45.394
G01 F300 X46.872 Y45.394
G01 F300 X46.872 Y45.343
G01 F300 X46.846 Y45.343
G01 F300 X46.846 Y45.292
G01 F300 X46.821 Y45.292
G01 F300 X46.821 Y45.267
G01 F300 X46.796 Y45.267
G01 F300 X46.796 Y45.216
G01 F300 X46.770 Y45.216
G01 F300 X46.770 Y45.140
G01 F300 X46.745 Y45.140
G01 F300 X46.745 Y44.852
G01 F300 X46.770 Y44.852
G01 F300 X46.770 Y44.776
G01 F300 X46.796 Y44.776
G01 F300 X46.796 Y44.751
G01 F300 X46.821 Y44.751
G01 F300 X46.821 Y44.700
G01 F300 X46.846 Y44.700
G01 F300 X46.846 Y44.675
G01 F300 X46.897 Y44.675
G01 F300 X46.897 Y44.649
G01 F300 X46.922 Y44.649
G01 F300 X46.922 Y44.624
G01 F300 X47.024 Y44.624
G01 F300 X47.024 Y44.598
G01 F300 X47.235 Y44.598
G01 F300 X47.235 Y44.624
G01 F300 X47.337 Y44.624
G01 F300 X47.337 Y44.649
G01 F300 X47.388 Y44.649
G01 F300 X47.388 Y44.675
G01 F300 X47.413 Y44.675
G01 F300 X47.413 Y44.700
G01 F300 X47.439 Y44.700
G01 F300 X47.439 Y44.725
G01 F300 X47.464 Y44.725
G01 F300 X47.464 Y44.751
G01 F300 X47.489 Y44.751
G01 F300 X47.489 Y44.776
G01 F300 X47.515 Y44.776
G01 F300 X47.515 Y44.827
G01 F300 X47.540 Y44.827
G01 F300 X47.540 Y44.878
G01 F300 X47.566 Y44.878
G01 F300 X47.566 Y44.929
G01 F300 X47.591 Y44.929
G01 F300 X47.591 Y44.954
G01 F300 X47.616 Y44.954
G01 F300 X47.616 Y45.005
G01 F300 X47.642 Y45.005
G01 F300 X47.642 Y45.056
G01 F300 X47.667 Y45.056
G01 F300 X47.667 Y45.081
G01 F300 X47.693 Y45.081
G01 F300 X47.693 Y45.132
G01 F300 X47.718 Y45.132
G01 F300 X47.718 Y45.183
G01 F300 X47.743 Y45.183
G01 F300 X47.743 Y45.208
G01 F300 X47.769 Y45.208
G01 F300 X47.769 Y45.259
G01 F300 X47.794 Y45.259
G01 F300 X47.794 Y45.310
G01 F300 X47.820 Y45.310
G01 F300 X47.820 Y45.360
G01 F300 X47.845 Y45.360
G01 F300 X47.845 Y45.386
G01 F300 X47.870 Y45.386
G01 F300 X47.870 Y45.437
G01 F300 X47.896 Y45.437
G01 F300 X47.896 Y45.487
G01 F300 X47.921 Y45.487
G01 F300 X47.921 Y45.513
G01 F300 X47.947 Y45.513
G01 F300 X47.947 Y45.564
G01 F300 X47.972 Y45.564
G01 F300 X47.972 Y45.614
G01 F300 X47.997 Y45.614
G01 F300 X47.997 Y45.665
G01 F300 X48.023 Y45.665
G01 F300 X48.023 Y45.691
G01 F300 X48.048 Y45.691
G01 F300 X48.048 Y45.741
G01 F300 X48.074 Y45.741
G01 F300 X48.074 Y45.792
G01 F300 X48.099 Y45.792
G01 F300 X48.099 Y45.818
G01 F300 X48.124 Y45.818
G01 F300 X48.124 Y45.868
G01 F300 X48.150 Y45.868
G01 F300 X48.150 Y45.919
G01 F300 X48.175 Y45.919
G01 F300 X48.175 Y45.970
G01 F300 X48.201 Y45.970
G01 F300 X48.201 Y45.995
G01 F300 X48.226 Y45.995
G01 F300 X48.226 Y46.046
G01 F300 X48.251 Y46.046
G01 F300 X48.251 Y46.097
G01 F300 X48.277 Y46.097
G01 F300 X48.277 Y46.122
G01 F300 X48.302 Y46.122
G01 F300 X48.302 Y46.173
G01 F300 X48.328 Y46.173
G01 F300 X48.328 Y46.224
G01 F300 X48.353 Y46.224
G01 F300 X48.353 Y46.249
G01 F300 X48.378 Y46.249
G01 F300 X48.378 Y46.300
G01 F300 X48.404 Y46.300
G01 F300 X48.404 Y46.351
G01 F300 X48.429 Y46.351
G01 F300 X48.429 Y46.402
G01 F300 X48.455 Y46.402
G01 F300 X48.455 Y46.427
G01 F300 X48.480 Y46.427
G01 F300 X48.480 Y46.478
G01 F300 X48.505 Y46.478
G01 F300 X48.505 Y46.529
G01 F300 X48.531 Y46.529
G01 F300 X48.531 Y46.554
G01 F300 X48.556 Y46.554
G01 F300 X48.556 Y46.605
G01 F300 X48.582 Y46.605
G01 F300 X48.582 Y46.656
G01 F300 X48.607 Y46.656
G01 F300 X48.607 Y46.707
G01 F300 X48.632 Y46.707
G01 F300 X48.632 Y46.732
G01 F300 X48.658 Y46.732
G01 F300 X48.658 Y46.783
G01 F300 X48.683 Y46.783
G01 F300 X48.683 Y46.834
G01 F300 X48.709 Y46.834
G01 F300 X48.709 Y46.859
G01 F300 X48.734 Y46.859
G01 F300 X48.734 Y46.910
G01 F300 X48.759 Y46.910
G01 F300 X48.759 Y46.961
G01 F300 X48.777 Y46.961
G01 F300 X48.777 Y46.935
G01 F300 X48.802 Y46.935
G01 F300 X48.802 Y46.884
G01 F300 X48.828 Y46.884
G01 F300 X48.828 Y46.834
G01 F300 X48.853 Y46.834
G01 F300 X48.853 Y46.808
G01 F300 X48.878 Y46.808
G01 F300 X48.878 Y46.757
G01 F300 X48.904 Y46.757
G01 F300 X48.904 Y46.707
G01 F300 X48.929 Y46.707
G01 F300 X48.929 Y46.656
G01 F300 X48.955 Y46.656
G01 F300 X48.955 Y46.630
G01 F300 X48.980 Y46.630
G01 F300 X48.980 Y46.580
G01 F300 X49.005 Y46.580
G01 F300 X49.005 Y46.529
G01 F300 X49.031 Y46.529
G01 F300 X49.031 Y46.503
G01 F300 X49.056 Y46.503
G01 F300 X49.056 Y46.453
G01 F300 X49.082 Y46.453
G01 F300 X49.082 Y46.402
G01 F300 X49.107 Y46.402
G01 F300 X49.107 Y46.376
G01 F300 X49.132 Y46.376
G01 F300 X49.132 Y46.326
G01 F300 X49.158 Y46.326
G01 F300 X49.158 Y46.275
G01 F300 X49.183 Y46.275
G01 F300 X49.183 Y46.224
G01 F300 X49.209 Y46.224
G01 F300 X49.209 Y46.199
G01 F300 X49.234 Y46.199
G01 F300 X49.234 Y46.148
G01 F300 X49.259 Y46.148
G01 F300 X49.259 Y46.097
G01 F300 X49.285 Y46.097
G01 F300 X49.285 Y46.072
G01 F300 X49.310 Y46.072
G01 F300 X49.310 Y46.021
G01 F300 X49.336 Y46.021
G01 F300 X49.336 Y45.970
G01 F300 X49.361 Y45.970
G01 F300 X49.361 Y45.919
G01 F300 X49.386 Y45.919
G01 F300 X49.386 Y45.894
G01 F300 X49.412 Y45.894
G01 F300 X49.412 Y45.843
G01 F300 X49.437 Y45.843
G01 F300 X49.437 Y45.792
G01 F300 X49.463 Y45.792
G01 F300 X49.463 Y45.767
G01 F300 X49.488 Y45.767
G01 F300 X49.488 Y45.716
G01 F300 X49.513 Y45.716
G01 F300 X49.513 Y45.665
G01 F300 X49.539 Y45.665
G01 F300 X49.539 Y45.614
G01 F300 X49.564 Y45.614
G01 F300 X49.564 Y45.589
G01 F300 X49.590 Y45.589
G01 F300 X49.590 Y45.538
G01 F300 X49.615 Y45.538
G01 F300 X49.615 Y45.487
G01 F300 X49.640 Y45.487
G01 F300 X49.640 Y45.462
G01 F300 X49.666 Y45.462
G01 F300 X49.666 Y45.411
G01 F300 X49.691 Y45.411
G01 F300 X49.691 Y45.360
G01 F300 X49.717 Y45.360
G01 F300 X49.717 Y45.335
G01 F300 X49.742 Y45.335
G01 F300 X49.742 Y45.284
G01 F300 X49.767 Y45.284
G01 F300 X49.767 Y45.233
G01 F300 X49.793 Y45.233
G01 F300 X49.793 Y45.183
G01 F300 X49.818 Y45.183
G01 F300 X49.818 Y45.157
G01 F300 X49.844 Y45.157
G01 F300 X49.844 Y45.106
G01 F300 X49.869 Y45.106
G01 F300 X49.869 Y45.056
G01 F300 X49.894 Y45.056
G01 F300 X49.894 Y45.030
G01 F300 X49.920 Y45.030
G01 F300 X49.920 Y44.979
G01 F300 X49.945 Y44.979
G01 F300 X49.945 Y44.929
G01 F300 X49.971 Y44.929
G01 F300 X49.971 Y44.878
G01 F300 X49.996 Y44.878
G01 F300 X49.996 Y44.852
G01 F300 X50.021 Y44.852
G01 F300 X50.021 Y44.802
G01 F300 X50.047 Y44.802
G01 F300 X50.047 Y44.751
G01 F300 X50.072 Y44.751
G01 F300 X50.072 Y44.725
G01 F300 X50.098 Y44.725
G01 F300 X50.098 Y44.700
G01 F300 X50.123 Y44.700
G01 F300 X50.123 Y44.675
G01 F300 X50.148 Y44.675
G01 F300 X50.148 Y44.649
G01 F300 X50.199 Y44.649
G01 F300 X50.199 Y44.624
G01 F300 X50.301 Y44.624
G01 F300 X50.301 Y44.598
G01 F300 X50.512 Y44.598
G01 F300 X50.512 Y44.624
G01 F300 X50.614 Y44.624
G01 F300 X50.614 Y44.649
G01 F300 X50.664 Y44.649
G01 F300 X50.664 Y44.675
G01 F300 X50.690 Y44.675
G01 F300 X50.690 Y44.700
G01 F300 X50.715 Y44.700
G01 F300 X50.715 Y44.725
G01 F300 X50.741 Y44.725
G01 F300 X50.741 Y44.776
G01 F300 X50.766 Y44.776
G01 F300 X50.766 Y44.827
G01 F300 X50.791 Y44.827
G01 F300 X50.791 Y45.165
G01 F300 X50.766 Y45.165
G01 F300 X50.766 Y45.216
G01 F300 X50.741 Y45.216
G01 F300 X50.741 Y45.267
G01 F300 X50.715 Y45.267
G01 F300 X50.715 Y45.318
G01 F300 X50.690 Y45.318
G01 F300 X50.690 Y45.368
G01 F300 X50.664 Y45.368
G01 F300 X50.664 Y45.394
G01 F300 X50.639 Y45.394
G01 F300 X50.639 Y45.445
G01 F300 X50.614 Y45.445
G01 F300 X50.614 Y45.495
G01 F300 X50.588 Y45.495
G01 F300 X50.588 Y45.521
G01 F300 X50.563 Y45.521
G01 F300 X50.563 Y45.572
G01 F300 X50.537 Y45.572
G01 F300 X50.537 Y45.622
G01 F300 X50.512 Y45.622
G01 F300 X50.512 Y45.648
G01 F300 X50.486 Y45.648
G01 F300 X50.486 Y45.699
G01 F300 X50.461 Y45.699
G01 F300 X50.461 Y45.749
G01 F300 X50.436 Y45.749
G01 F300 X50.436 Y45.800
G01 F300 X50.410 Y45.800
G01 F300 X50.410 Y45.826
G01 F300 X50.385 Y45.826
G01 F300 X50.385 Y45.876
G01 F300 X50.360 Y45.876
G01 F300 X50.360 Y45.927
G01 F300 X50.334 Y45.927
G01 F300 X50.334 Y45.953
G01 F300 X50.309 Y45.953
G01 F300 X50.309 Y46.003
G01 F300 X50.283 Y46.003
G01 F300 X50.283 Y46.054
G01 F300 X50.258 Y46.054
G01 F300 X50.258 Y46.105
G01 F300 X50.233 Y46.105
G01 F300 X50.233 Y46.130
G01 F300 X50.207 Y46.130
G01 F300 X50.207 Y46.181
G01 F300 X50.182 Y46.181
G01 F300 X50.182 Y46.232
G01 F300 X50.156 Y46.232
G01 F300 X50.156 Y46.257
G01 F300 X50.131 Y46.257
G01 F300 X50.131 Y46.308
G01 F300 X50.105 Y46.308
G01 F300 X50.105 Y46.359
G01 F300 X50.080 Y46.359
G01 F300 X50.080 Y46.384
G01 F300 X50.055 Y46.384
G01 F300 X50.055 Y46.435
G01 F300 X50.029 Y46.435
G01 F300 X50.029 Y46.486
G01 F300 X50.004 Y46.486
G01 F300 X50.004 Y46.537
G01 F300 X49.979 Y46.537
G01 F300 X49.979 Y46.562
G01 F300 X49.953 Y46.562
G01 F300 X49.953 Y46.613
G01 F300 X49.928 Y46.613
G01 F300 X49.928 Y46.664
G01 F300 X49.902 Y46.664
G01 F300 X49.902 Y46.689
G01 F300 X49.877 Y46.689
G01 F300 X49.877 Y46.740
G01 F300 X49.852 Y46.740
G01 F300 X49.852 Y46.791
G01 F300 X49.826 Y46.791
G01 F300 X49.826 Y46.816
G01 F300 X49.801 Y46.816
G01 F300 X49.801 Y46.867
G01 F300 X49.775 Y46.867
G01 F300 X49.775 Y46.918
G01 F300 X49.750 Y46.918
G01 F300 X49.750 Y46.969
G01 F300 X49.724 Y46.969
G01 F300 X49.724 Y46.994
G01 F300 X49.699 Y46.994
G01 F300 X49.699 Y47.045
G01 F300 X49.674 Y47.045
G01 F300 X49.674 Y47.096
G01 F300 X49.648 Y47.096
G01 F300 X49.648 Y47.121
G01 F300 X49.623 Y47.121
G01 F300 X49.623 Y47.172
G01 F300 X49.598 Y47.172
G01 F300 X49.598 Y47.223
G01 F300 X49.572 Y47.223
G01 F300 X49.572 Y47.273
G01 F300 X49.547 Y47.273
G01 F300 X49.547 Y47.299
G01 F300 X49.521 Y47.299
G01 F300 X49.521 Y47.350
G01 F300 X49.496 Y47.350
G01 F300 X49.496 Y47.400
G01 F300 X49.471 Y47.400
G01 F300 X49.471 Y47.426
G01 F300 X49.445 Y47.426
G01 F300 X49.445 Y47.477
G01 F300 X49.420 Y47.477
G01 F300 X49.420 Y47.527
G01 F300 X49.394 Y47.527
G01 F300 X49.394 Y47.553
G01 F300 X49.369 Y47.553
G01 F300 X49.369 Y47.604
G01 F300 X49.344 Y47.604
G01 F300 X49.344 Y47.654
G01 F300 X49.318 Y47.654
G01 F300 X49.318 Y47.705
G01 F300 X49.293 Y47.705
G01 F300 X49.293 Y47.731
G01 F300 X49.267 Y47.731
G01 F300 X49.267 Y47.781
G01 F300 X49.242 Y47.781
G01 F300 X49.242 Y47.832
G01 F300 X49.217 Y47.832
G01 F300 X49.217 Y47.858
G01 F300 X49.191 Y47.858
G01 F300 X49.191 Y47.883
G01 F300 X49.140 Y47.883
G01 F300 X49.140 Y47.908
G01 F300 X49.090 Y47.908
G01 F300 X49.090 Y47.934
G01 F300 X48.472 Y47.934
G00 F3000 Z3.000
G00 F3000 X53.949 Y47.665
G00 F1500 Z0
G01 F300 Z-0.200
G01 F300 X53.873 Y47.649
G01 F300 X53.801 Y47.617
G01 F300 X53.738 Y47.572
G01 F300 X53.686 Y47.514
G01 F300 X53.647 Y47.446
G01 F300 X53.623 Y47.372
G01 F300 X53.615 Y47.298
G01 F300 X53.615 Y4.218
G01 F300 X51.292 Y1.895
G01 F300 X26.055 Y1.895
G01 F300 X24.430 Y1.917
G01 F300 X24.415 Y1.964
G01 F300 X24.308 Y2.149
G01 F300 X24.165 Y2.308
G01 F300 X23.992 Y2.433
G01 F300 X23.798 Y2.520
G01 F300 X23.589 Y2.564
G01 F300 X23.376 Y2.564
G01 F300 X23.167 Y2.520
G01 F300 X22.972 Y2.433
G01 F300 X22.800 Y2.308
G01 F300 X22.657 Y2.149
G01 F300 X22.550 Y1.964
G01 F300 X22.484 Y1.762
G01 F300 X22.462 Y1.549
G01 F300 X22.484 Y1.337
G01 F300 X22.550 Y1.134
G01 F300 X22.657 Y0.950
G01 F300 X22.800 Y0.791
G01 F300 X22.972 Y0.666
G01 F300 X23.167 Y0.579
G01 F300 X23.376 Y0.535
G01 F300 X23.589 Y0.535
G01 F300 X23.798 Y0.579
G01 F300 X23.992 Y0.666
G01 F300 X24.165 Y0.791
G01 F300 X24.308 Y0.950
G01 F300 X24.415 Y1.134
G01 F300 X24.428 Y1.175
G01 F300 X25.990 Y1.153
G01 F300 X51.487 Y1.153
G01 F300 X51.563 Y1.170
G01 F300 X51.634 Y1.201
G01 F300 X51.696 Y1.246
G01 F300 X54.241 Y3.791
G01 F300 X54.289 Y3.845
G01 F300 X54.328 Y3.912
G01 F300 X54.352 Y3.987
G01 F300 X54.360 Y4.061
G01 F300 X54.360 Y16.438
G01 F300 X55.027 Y16.429
G01 F300 X55.622 Y16.420
G01 F300 X55.628 Y16.400
G01 F300 X55.728 Y16.227
G01 F300 X55.862 Y16.078
G01 F300 X56.024 Y15.961
G01 F300 X56.207 Y15.879
G01 F300 X56.402 Y15.838
G01 F300 X56.602 Y15.838
G01 F300 X56.798 Y15.879
G01 F300 X56.981 Y15.961
G01 F300 X57.143 Y16.078
G01 F300 X57.276 Y16.227
G01 F300 X57.376 Y16.400
G01 F300 X57.438 Y16.591
G01 F300 X57.459 Y16.789
G01 F300 X57.438 Y16.988
G01 F300 X57.376 Y17.179
G01 F300 X57.276 Y17.352
G01 F300 X57.143 Y17.501
G01 F300 X56.981 Y17.618
G01 F300 X56.798 Y17.699
G01 F300 X56.602 Y17.741
G01 F300 X56.402 Y17.741
G01 F300 X56.207 Y17.699
G01 F300 X56.024 Y17.618
G01 F300 X55.862 Y17.501
G01 F300 X55.728 Y17.352
G01 F300 X55.628 Y17.179
G01 F300 X55.623 Y17.163
G01 F300 X54.360 Y17.181
G01 F300 X54.360 Y46.924
G01 F300 X58.670 Y46.924
G01 F300 X58.670 Y34.541
G01 F300 X58.678 Y34.467
G01 F300 X58.702 Y34.392
G01 F300 X58.741 Y34.325
G01 F300 X58.790 Y34.271
G01 F300 X60.618 Y32.465
G01 F300 X60.615 Y32.460
G01 F300 X60.547 Y32.250
G01 F300 X60.524 Y32.029
G01 F300 X60.547 Y31.809
G01 F300 X60.615 Y31.599
G01 F300 X60.726 Y31.407
G01 F300 X60.874 Y31.243
G01 F300 X61.053 Y31.113
G01 F300 X61.255 Y31.023
G01 F300 X61.472 Y30.977
G01 F300 X61.693 Y30.977
G01 F300 X61.909 Y31.023
G01 F300 X62.111 Y31.113
G01 F300 X62.291 Y31.243
G01 F300 X62.439 Y31.407
G01 F300 X62.549 Y31.599
G01 F300 X62.618 Y31.809
G01 F300 X62.641 Y32.029
G01 F300 X62.618 Y32.250
G01 F300 X62.549 Y32.460
G01 F300 X62.439 Y32.652
G01 F300 X62.291 Y32.816
G01 F300 X62.111 Y32.946
G01 F300 X61.909 Y33.036
G01 F300 X61.693 Y33.082
G01 F300 X61.472 Y33.082
G01 F300 X61.255 Y33.036
G01 F300 X61.148 Y32.988
G01 F300 X59.415 Y34.699
G01 F300 X59.415 Y47.298
G01 F300 X59.407 Y47.372
G01 F300 X59.383 Y47.446
G01 F300 X59.344 Y47.514
G01 F300 X59.292 Y47.572
G01 F300 X59.229 Y47.617
G01 F300 X59.158 Y47.649
G01 F300 X59.081 Y47.665
G01 F300 X53.949 Y47.665
G00 F3000 Z3.000
G00 F3000 X63.854 Y47.283
G00 F1500 Z0
G01 F300 Z-0.200
G01 F300 X63.329 Y47.172
G01 F300 X62.838 Y46.953
G01 F300 X62.404 Y46.638
G01 F300 X62.045 Y46.239
G01 F300 X61.776 Y45.774
G01 F300 X61.611 Y45.263
G01 F300 X61.554 Y44.729
G01 F300 X61.611 Y44.196
G01 F300 X61.776 Y43.685
G01 F300 X62.045 Y43.220
G01 F300 X62.404 Y42.821
G01 F300 X62.838 Y42.506
G01 F300 X63.329 Y42.287
G01 F300 X63.854 Y42.176
G01 F300 X64.391 Y42.176
G01 F300 X64.916 Y42.287
G01 F300 X65.406 Y42.506
G01 F300 X65.841 Y42.821
G01 F300 X66.200 Y43.220
G01 F300 X66.468 Y43.685
G01 F300 X66.634 Y44.196
G01 F300 X66.690 Y44.729
G01 F300 X66.634 Y45.263
G01 F300 X66.468 Y45.774
G01 F300 X66.200 Y46.239
G01 F300 X65.841 Y46.638
G01 F300 X65.406 Y46.953
G01 F300 X64.916 Y47.172
G01 F300 X64.391 Y47.283
G01 F300 X63.854 Y47.283
G00 F3000 Z3.000
G00 F3000 X2.894 Y47.283
G00 F1500 Z0
G01 F300 Z-0.200
G01 F300 X2.369 Y47.172
G01 F300 X1.878 Y46.953
G01 F300 X1.444 Y46.638
G01 F300 X1.085 Y46.239
G01 F300 X0.816 Y45.774
G01 F300 X0.651 Y45.263
G01 F300 X0.594 Y44.729
G01 F300 X0.651 Y44.196
G01 F300 X0.816 Y43.685
G01 F300 X1.085 Y43.220
G01 F300 X1.444 Y42.821
G01 F300 X1.878 Y42.506
G01 F300 X2.369 Y42.287
G01 F300 X2.894 Y42.176
G01 F300 X3.431 Y42.176
G01 F300 X3.956 Y42.287
G01 F300 X4.446 Y42.506
G01 F300 X4.881 Y42.821
G01 F300 X5.240 Y43.220
G01 F300 X5.508 Y43.685
G01 F300 X5.674 Y44.196
G01 F300 X5.730 Y44.729
G01 F300 X5.674 Y45.263
G01 F300 X5.508 Y45.774
G01 F300 X5.240 Y46.239
G01 F300 X4.881 Y46.638
G01 F300 X4.446 Y46.953
G01 F300 X3.956 Y47.172
G01 F300 X3.431 Y47.283
G01 F300 X2.894 Y47.283
G00 F3000 Z3.000
G00 F3000 X30.992 Y45.782
G00 F1500 Z0
G01 F300 Z-0.200
G01 F300 X30.775 Y45.736
G01 F300 X30.573 Y45.646
G01 F300 X30.394 Y45.516
G01 F300 X30.246 Y45.352
G01 F300 X30.135 Y45.160
G01 F300 X30.067 Y44.950
G01 F300 X30.044 Y44.729
G01 F300 X30.067 Y44.509
G01 F300 X30.135 Y44.299
G01 F300 X30.246 Y44.107
G01 F300 X30.394 Y43.943
G01 F300 X30.573 Y43.813
G01 F300 X30.730 Y43.743
G01 F300 X30.730 Y43.248
G01 F300 X30.044 Y43.248
G01 F300 X30.044 Y41.131
G01 F300 X32.160 Y41.131
G01 F300 X32.160 Y41.823
G01 F300 X33.488 Y41.842
G01 F300 X38.449 Y36.806
G01 F300 X38.511 Y36.761
G01 F300 X38.582 Y36.730
G01 F300 X38.658 Y36.713
G01 F300 X38.729 Y36.713
G01 F300 X40.383 Y36.736
G01 F300 X40.388 Y36.720
G01 F300 X40.488 Y36.547
G01 F300 X40.622 Y36.398
G01 F300 X40.784 Y36.281
G01 F300 X40.967 Y36.199
G01 F300 X41.162 Y36.158
G01 F300 X41.362 Y36.158
G01 F300 X41.558 Y36.199
G01 F300 X41.741 Y36.281
G01 F300 X41.903 Y36.398
G01 F300 X42.036 Y36.547
G01 F300 X42.136 Y36.720
G01 F300 X42.198 Y36.910
G01 F300 X42.219 Y37.109
G01 F300 X42.198 Y37.308
G01 F300 X42.136 Y37.499
G01 F300 X42.036 Y37.672
G01 F300 X41.903 Y37.821
G01 F300 X41.741 Y37.938
G01 F300 X41.558 Y38.019
G01 F300 X41.362 Y38.061
G01 F300 X41.162 Y38.061
G01 F300 X40.967 Y38.019
G01 F300 X40.784 Y37.938
G01 F300 X40.622 Y37.821
G01 F300 X40.488 Y37.672
G01 F300 X40.388 Y37.499
G01 F300 X40.382 Y37.479
G01 F300 X38.851 Y37.457
G01 F300 X33.890 Y42.493
G01 F300 X33.829 Y42.538
G01 F300 X33.758 Y42.569
G01 F300 X33.681 Y42.585
G01 F300 X33.610 Y42.585
G01 F300 X32.160 Y42.565
G01 F300 X32.160 Y43.248
G01 F300 X31.475 Y43.248
G01 F300 X31.476 Y43.743
G01 F300 X31.632 Y43.813
G01 F300 X31.811 Y43.943
G01 F300 X31.959 Y44.107
G01 F300 X32.069 Y44.299
G01 F300 X32.138 Y44.509
G01 F300 X32.161 Y44.729
G01 F300 X32.138 Y44.950
G01 F300 X32.069 Y45.160
G01 F300 X31.959 Y45.352
G01 F300 X31.811 Y45.516
G01 F300 X31.632 Y45.646
G01 F300 X31.429 Y45.736
G01 F300 X31.213 Y45.782
G01 F300 X30.992 Y45.782
G00 F3000 Z3.000
G00 F3000 X56.402 Y45.681
G00 F1500 Z0
G01 F300 Z-0.200
G01 F300 X56.207 Y45.639
G01 F300 X56.024 Y45.558
G01 F300 X55.862 Y45.441
G01 F300 X55.728 Y45.292
G01 F300 X55.628 Y45.119
G01 F300 X55.566 Y44.928
G01 F300 X55.545 Y44.729
G01 F300 X55.566 Y44.531
G01 F300 X55.628 Y44.340
G01 F300 X55.728 Y44.167
G01 F300 X55.862 Y44.018
G01 F300 X56.024 Y43.901
G01 F300 X56.207 Y43.819
G01 F300 X56.402 Y43.778
G01 F300 X56.602 Y43.778
G01 F300 X56.798 Y43.819
G01 F300 X56.981 Y43.901
G01 F300 X57.143 Y44.018
G01 F300 X57.276 Y44.167
G01 F300 X57.376 Y44.340
G01 F300 X57.438 Y44.531
G01 F300 X57.459 Y44.729
G01 F300 X57.438 Y44.928
G01 F300 X57.376 Y45.119
G01 F300 X57.276 Y45.292
G01 F300 X57.143 Y45.441
G01 F300 X56.981 Y45.558
G01 F300 X56.798 Y45.639
G01 F300 X56.602 Y45.681
G01 F300 X56.402 Y45.681
G00 F3000 Z3.000
G00 F3000 X41.162 Y45.681
G00 F1500 Z0
G01 F300 Z-0.200
G01 F300 X40.967 Y45.639
G01 F300 X40.784 Y45.558
G01 F300 X40.622 Y45.441
G01 F300 X40.488 Y45.292
G01 F300 X40.388 Y45.119
G01 F300 X40.326 Y44.928
G01 F300 X40.305 Y44.729
G01 F300 X40.326 Y44.531
G01 F300 X40.388 Y44.340
G01 F300 X40.488 Y44.167
G01 F300 X40.622 Y44.018
G01 F300 X40.784 Y43.901
G01 F300 X40.967 Y43.819
G01 F300 X41.162 Y43.778
G01 F300 X41.362 Y43.778
G01 F300 X41.558 Y43.819
G01 F300 X41.741 Y43.901
G01 F300 X41.903 Y44.018
G01 F300 X42.036 Y44.167
G01 F300 X42.136 Y44.340
G01 F300 X42.198 Y44.531
G01 F300 X42.219 Y44.729
G01 F300 X42.198 Y44.928
G01 F300 X42.136 Y45.119
G01 F300 X42.036 Y45.292
G01 F300 X41.903 Y45.441
G01 F300 X41.741 Y45.558
G01 F300 X41.558 Y45.639
G01 F300 X41.362 Y45.681
G01 F300 X41.162 Y45.681
G00 F3000 Z3.000
G00 F3000 X68.005 Y43.667
G00 F1500 Z0
G01 F300 Z-0.200
G01 F300 X68.005 Y43.641
G01 F300 X67.954 Y43.641
G01 F300 X67.954 Y43.590
G01 F300 X67.928 Y43.590
G01 F300 X67.928 Y42.338
G01 F300 X67.954 Y42.338
G01 F300 X67.954 Y42.312
G01 F300 X67.979 Y42.312
G01 F300 X67.979 Y42.287
G01 F300 X68.005 Y42.287
G01 F300 X68.005 Y42.262
G01 F300 X68.343 Y42.262
G01 F300 X68.343 Y42.287
G01 F300 X68.368 Y42.287
G01 F300 X68.368 Y42.312
G01 F300 X68.394 Y42.312
G01 F300 X68.394 Y42.338
G01 F300 X68.419 Y42.338
G01 F300 X68.419 Y43.590
G01 F300 X68.394 Y43.590
G01 F300 X68.394 Y43.641
G01 F300 X68.343 Y43.641
G01 F300 X68.343 Y43.667
G01 F300 X68.005 Y43.667
G00 F3000 Z3.000
G00 F3000 X48.701 Y43.311
G00 F1500 Z0
G01 F300 Z-0.200
G01 F300 X48.701 Y43.286
G01 F300 X48.574 Y43.286
G01 F300 X48.574 Y43.260
G01 F300 X48.523 Y43.260
G01 F300 X48.523 Y43.235
G01 F300 X48.497 Y43.235
G01 F300 X48.497 Y43.209
G01 F300 X48.472 Y43.209
G01 F300 X48.472 Y43.184
G01 F300 X48.447 Y43.184
G01 F300 X48.447 Y43.159
G01 F300 X48.421 Y43.159
G01 F300 X48.421 Y43.108
G01 F300 X48.396 Y43.108
G01 F300 X48.396 Y43.032
G01 F300 X48.370 Y43.032
G01 F300 X48.370 Y40.230
G01 F300 X48.396 Y40.230
G01 F300 X48.396 Y40.153
G01 F300 X48.421 Y40.153
G01 F300 X48.421 Y40.103
G01 F300 X48.447 Y40.103
G01 F300 X48.447 Y40.077
G01 F300 X48.472 Y40.077
G01 F300 X48.472 Y40.052
G01 F300 X48.497 Y40.052
G01 F300 X48.497 Y40.026
G01 F300 X48.548 Y40.026
G01 F300 X48.548 Y40.001
G01 F300 X48.599 Y40.001
G01 F300 X48.599 Y39.976
G01 F300 X49.217 Y39.976
G01 F300 X49.217 Y40.001
G01 F300 X49.267 Y40.001
G01 F300 X49.267 Y40.026
G01 F300 X49.318 Y40.026
G01 F300 X49.318 Y40.052
G01 F300 X49.344 Y40.052
G01 F300 X49.344 Y40.077
G01 F300 X49.369 Y40.077
G01 F300 X49.369 Y40.103
G01 F300 X49.394 Y40.103
G01 F300 X49.394 Y40.153
G01 F300 X49.420 Y40.153
G01 F300 X49.420 Y40.255
G01 F300 X49.445 Y40.255
G01 F300 X49.445 Y43.032
G01 F300 X49.420 Y43.032
G01 F300 X49.420 Y43.108
G01 F300 X49.394 Y43.108
G01 F300 X49.394 Y43.159
G01 F300 X49.369 Y43.159
G01 F300 X49.369 Y43.184
G01 F300 X49.344 Y43.184
G01 F300 X49.344 Y43.209
G01 F300 X49.318 Y43.209
G01 F300 X49.318 Y43.235
G01 F300 X49.293 Y43.235
G01 F300 X49.293 Y43.260
G01 F300 X49.242 Y43.260
G01 F300 X49.242 Y43.286
G01 F300 X49.115 Y43.286
G01 F300 X49.115 Y43.311
G01 F300 X48.701 Y43.311
G00 F3000 Z3.000
G00 F3000 X23.774 Y43.144
G00 F1500 Z0
G01 F300 Z-0.200
G01 F300 X23.697 Y43.128
G01 F300 X23.680 Y43.120
G01 F300 X23.582 Y43.141
G01 F300 X23.382 Y43.141
G01 F300 X23.187 Y43.099
G01 F300 X23.004 Y43.018
G01 F300 X22.842 Y42.901
G01 F300 X22.708 Y42.752
G01 F300 X22.608 Y42.579
G01 F300 X22.546 Y42.388
G01 F300 X22.525 Y42.189
G01 F300 X22.546 Y41.991
G01 F300 X22.608 Y41.800
G01 F300 X22.708 Y41.627
G01 F300 X22.842 Y41.478
G01 F300 X23.004 Y41.361
G01 F300 X23.113 Y41.312
G01 F300 X23.121 Y40.742
G01 F300 X23.111 Y39.802
G01 F300 X20.811 Y37.455
G01 F300 X18.389 Y37.455
G01 F300 X18.313 Y37.438
G01 F300 X18.241 Y37.407
G01 F300 X18.180 Y37.362
G01 F300 X15.635 Y34.817
G01 F300 X15.586 Y34.763
G01 F300 X15.547 Y34.696
G01 F300 X15.523 Y34.622
G01 F300 X15.515 Y34.547
G01 F300 X15.515 Y32.375
G01 F300 X5.663 Y32.375
G01 F300 X5.587 Y32.358
G01 F300 X5.516 Y32.327
G01 F300 X5.455 Y32.282
G01 F300 X2.909 Y29.763
G01 F300 X2.861 Y29.708
G01 F300 X2.822 Y29.641
G01 F300 X2.798 Y29.567
G01 F300 X2.790 Y29.493
G01 F300 X2.790 Y22.815
G01 F300 X2.652 Y22.753
G01 F300 X2.480 Y22.628
G01 F300 X2.337 Y22.469
G01 F300 X2.230 Y22.284
G01 F300 X2.164 Y22.082
G01 F300 X2.142 Y21.869
G01 F300 X2.164 Y21.657
G01 F300 X2.230 Y21.454
G01 F300 X2.337 Y21.270
G01 F300 X2.480 Y21.111
G01 F300 X2.652 Y20.986
G01 F300 X2.790 Y20.924
G01 F300 X2.790 Y16.811
G01 F300 X2.798 Y16.737
G01 F300 X2.822 Y16.663
G01 F300 X2.861 Y16.596
G01 F300 X2.909 Y16.542
G01 F300 X5.454 Y13.997
G01 F300 X5.516 Y13.952
G01 F300 X5.587 Y13.920
G01 F300 X5.663 Y13.904
G01 F300 X7.295 Y13.882
G01 F300 X7.310 Y13.834
G01 F300 X7.417 Y13.650
G01 F300 X7.560 Y13.491
G01 F300 X7.732 Y13.366
G01 F300 X7.927 Y13.279
G01 F300 X8.136 Y13.235
G01 F300 X8.349 Y13.235
G01 F300 X8.558 Y13.279
G01 F300 X8.753 Y13.366
G01 F300 X8.925 Y13.491
G01 F300 X9.068 Y13.650
G01 F300 X9.175 Y13.834
G01 F300 X9.195 Y13.898
G01 F300 X12.375 Y13.880
G01 F300 X12.390 Y13.834
G01 F300 X12.497 Y13.650
G01 F300 X12.639 Y13.491
G01 F300 X12.812 Y13.366
G01 F300 X13.007 Y13.279
G01 F300 X13.216 Y13.235
G01 F300 X13.429 Y13.235
G01 F300 X13.638 Y13.279
G01 F300 X13.833 Y13.366
G01 F300 X14.005 Y13.491
G01 F300 X14.148 Y13.650
G01 F300 X14.255 Y13.834
G01 F300 X14.320 Y14.037
G01 F300 X14.343 Y14.249
G01 F300 X14.320 Y14.462
G01 F300 X14.255 Y14.664
G01 F300 X14.148 Y14.849
G01 F300 X14.005 Y15.008
G01 F300 X13.833 Y15.133
G01 F300 X13.638 Y15.220
G01 F300 X13.429 Y15.264
G01 F300 X13.216 Y15.264
G01 F300 X13.007 Y15.220
G01 F300 X12.812 Y15.133
G01 F300 X12.639 Y15.008
G01 F300 X12.497 Y14.849
G01 F300 X12.390 Y14.664
G01 F300 X12.377 Y14.624
G01 F300 X10.789 Y14.645
G01 F300 X9.181 Y14.645
G01 F300 X9.175 Y14.664
G01 F300 X9.068 Y14.849
G01 F300 X8.925 Y15.008
G01 F300 X8.752 Y15.133
G01 F300 X8.589 Y15.203
G01 F300 X8.589 Y19.151
G01 F300 X11.008 Y21.595
G01 F300 X16.140 Y26.676
G01 F300 X16.189 Y26.730
G01 F300 X16.228 Y26.798
G01 F300 X16.252 Y26.872
G01 F300 X16.260 Y26.946
G01 F300 X16.260 Y31.707
G01 F300 X17.689 Y32.027
G01 F300 X17.805 Y31.899
G01 F300 X17.956 Y31.789
G01 F300 X18.126 Y31.713
G01 F300 X18.309 Y31.674
G01 F300 X18.496 Y31.674
G01 F300 X18.678 Y31.713
G01 F300 X18.849 Y31.789
G01 F300 X19.000 Y31.899
G01 F300 X19.125 Y32.038
G01 F300 X19.218 Y32.199
G01 F300 X19.276 Y32.377
G01 F300 X19.296 Y32.563
G01 F300 X19.276 Y32.748
G01 F300 X19.218 Y32.926
G01 F300 X19.125 Y33.088
G01 F300 X19.000 Y33.227
G01 F300 X18.849 Y33.337
G01 F300 X18.678 Y33.412
G01 F300 X18.496 Y33.451
G01 F300 X18.309 Y33.451
G01 F300 X18.126 Y33.412
G01 F300 X17.956 Y33.337
G01 F300 X17.805 Y33.227
G01 F300 X17.680 Y33.088
G01 F300 X17.586 Y32.926
G01 F300 X17.529 Y32.751
G01 F300 X17.426 Y32.728
G01 F300 X16.260 Y32.467
G01 F300 X16.260 Y34.390
G01 F300 X18.583 Y36.713
G01 F300 X21.007 Y36.713
G01 F300 X21.083 Y36.730
G01 F300 X21.154 Y36.761
G01 F300 X21.216 Y36.806
G01 F300 X23.665 Y39.304
G01 F300 X28.530 Y39.304
G01 F300 X30.115 Y39.282
G01 F300 X30.135 Y39.219
G01 F300 X30.246 Y39.027
G01 F300 X30.394 Y38.863
G01 F300 X30.573 Y38.733
G01 F300 X30.775 Y38.643
G01 F300 X30.992 Y38.597
G01 F300 X31.213 Y38.597
G01 F300 X31.429 Y38.643
G01 F300 X31.632 Y38.733
G01 F300 X31.811 Y38.863
G01 F300 X31.959 Y39.027
G01 F300 X32.069 Y39.219
G01 F300 X32.138 Y39.429
G01 F300 X32.161 Y39.649
G01 F300 X32.138 Y39.870
G01 F300 X32.069 Y40.080
G01 F300 X31.959 Y40.272
G01 F300 X31.811 Y40.436
G01 F300 X31.632 Y40.566
G01 F300 X31.429 Y40.656
G01 F300 X31.213 Y40.702
G01 F300 X30.992 Y40.702
G01 F300 X30.775 Y40.656
G01 F300 X30.573 Y40.566
G01 F300 X30.394 Y40.436
G01 F300 X30.246 Y40.272
G01 F300 X30.135 Y40.080
G01 F300 X30.117 Y40.024
G01 F300 X28.595 Y40.045
G01 F300 X23.880 Y40.045
G01 F300 X23.880 Y41.325
G01 F300 X23.961 Y41.361
G01 F300 X24.123 Y41.478
G01 F300 X24.256 Y41.627
G01 F300 X24.356 Y41.800
G01 F300 X24.418 Y41.991
G01 F300 X24.439 Y42.189
G01 F300 X24.418 Y42.388
G01 F300 X24.356 Y42.579
G01 F300 X24.256 Y42.752
G01 F300 X24.178 Y42.839
G01 F300 X24.177 Y42.851
G01 F300 X24.153 Y42.925
G01 F300 X24.114 Y42.993
G01 F300 X24.062 Y43.050
G01 F300 X23.999 Y43.096
G01 F300 X23.928 Y43.128
G01 F300 X23.852 Y43.144
G01 F300 X23.774 Y43.144
G00 F3000 Z3.000
G00 F3000 X56.402 Y43.141
G00 F1500 Z0
G01 F300 Z-0.200
G01 F300 X56.207 Y43.099
G01 F300 X56.024 Y43.018
G01 F300 X55.862 Y42.901
G01 F300 X55.728 Y42.752
G01 F300 X55.628 Y42.579
G01 F300 X55.566 Y42.388
G01 F300 X55.545 Y42.189
G01 F300 X55.566 Y41.991
G01 F300 X55.628 Y41.800
G01 F300 X55.728 Y41.627
G01 F300 X55.862 Y41.478
G01 F300 X56.024 Y41.361
G01 F300 X56.207 Y41.279
G01 F300 X56.402 Y41.238
G01 F300 X56.602 Y41.238
G01 F300 X56.798 Y41.279
G01 F300 X56.981 Y41.361
G01 F300 X57.143 Y41.478
G01 F300 X57.276 Y41.627
G01 F300 X57.376 Y41.800
G01 F300 X57.438 Y41.991
G01 F300 X57.459 Y42.189
G01 F300 X57.438 Y42.388
G01 F300 X57.376 Y42.579
G01 F300 X57.276 Y42.752
G01 F300 X57.143 Y42.901
G01 F300 X56.981 Y43.018
G01 F300 X56.798 Y43.099
G01 F300 X56.602 Y43.141
G01 F300 X56.402 Y43.141
G00 F3000 Z3.000
G00 F3000 X41.162 Y43.141
G00 F1500 Z0
G01 F300 Z-0.200
G01 F300 X40.967 Y43.099
G01 F300 X40.784 Y43.018
G01 F300 X40.622 Y42.901
G01 F300 X40.488 Y42.752
G01 F300 X40.388 Y42.579
G01 F300 X40.326 Y42.388
G01 F300 X40.305 Y42.189
G01 F300 X40.326 Y41.991
G01 F300 X40.388 Y41.800
G01 F300 X40.488 Y41.627
G01 F300 X40.622 Y41.478
G01 F300 X40.784 Y41.361
G01 F300 X40.967 Y41.279
G01 F300 X41.162 Y41.238
G01 F300 X41.362 Y41.238
G01 F300 X41.558 Y41.279
G01 F300 X41.741 Y41.361
G01 F300 X41.903 Y41.478
G01 F300 X42.036 Y41.627
G01 F300 X42.136 Y41.800
G01 F300 X42.198 Y41.991
G01 F300 X42.219 Y42.189
G01 F300 X42.198 Y42.388
G01 F300 X42.136 Y42.579
G01 F300 X42.036 Y42.752
G01 F300 X41.903 Y42.901
G01 F300 X41.741 Y43.018
G01 F300 X41.558 Y43.099
G01 F300 X41.362 Y43.141
G01 F300 X41.162 Y43.141
G00 F3000 Z3.000
G00 F3000 X65.579 Y40.733
G00 F1500 Z0
G01 F300 Z-0.200
G01 F300 X65.579 Y40.025
G01 F300 X64.155 Y40.045
G01 F300 X64.083 Y40.045
G01 F300 X64.007 Y40.029
G01 F300 X63.936 Y39.998
G01 F300 X63.873 Y39.952
G01 F300 X63.821 Y39.894
G01 F300 X63.782 Y39.826
G01 F300 X63.758 Y39.752
G01 F300 X63.750 Y39.678
G01 F300 X63.750 Y29.860
G01 F300 X62.569 Y29.860
G01 F300 X62.549 Y29.920
G01 F300 X62.439 Y30.112
G01 F300 X62.291 Y30.276
G01 F300 X62.111 Y30.406
G01 F300 X61.909 Y30.496
G01 F300 X61.693 Y30.542
G01 F300 X61.472 Y30.542
G01 F300 X61.255 Y30.496
G01 F300 X61.053 Y30.406
G01 F300 X60.874 Y30.276
G01 F300 X60.726 Y30.112
G01 F300 X60.615 Y29.920
G01 F300 X60.547 Y29.710
G01 F300 X60.524 Y29.489
G01 F300 X60.547 Y29.269
G01 F300 X60.615 Y29.059
G01 F300 X60.726 Y28.867
G01 F300 X60.874 Y28.703
G01 F300 X61.053 Y28.573
G01 F300 X61.255 Y28.483
G01 F300 X61.472 Y28.437
G01 F300 X61.693 Y28.437
G01 F300 X61.909 Y28.483
G01 F300 X62.111 Y28.573
G01 F300 X62.291 Y28.703
G01 F300 X62.439 Y28.867
G01 F300 X62.549 Y29.059
G01 F300 X62.569 Y29.119
G01 F300 X63.750 Y29.119
G01 F300 X63.750 Y22.215
G01 F300 X59.003 Y22.215
G01 F300 X58.927 Y22.198
G01 F300 X58.856 Y22.167
G01 F300 X58.793 Y22.121
G01 F300 X58.741 Y22.063
G01 F300 X58.702 Y21.996
G01 F300 X58.678 Y21.922
G01 F300 X58.670 Y21.848
G01 F300 X58.670 Y12.101
G01 F300 X57.382 Y12.083
G01 F300 X57.376 Y12.099
G01 F300 X57.276 Y12.272
G01 F300 X57.143 Y12.421
G01 F300 X56.981 Y12.538
G01 F300 X56.798 Y12.619
G01 F300 X56.602 Y12.661
G01 F300 X56.402 Y12.661
G01 F300 X56.207 Y12.619
G01 F300 X56.024 Y12.538
G01 F300 X55.862 Y12.421
G01 F300 X55.728 Y12.272
G01 F300 X55.628 Y12.099
G01 F300 X55.566 Y11.908
G01 F300 X55.545 Y11.709
G01 F300 X55.566 Y11.511
G01 F300 X55.628 Y11.320
G01 F300 X55.728 Y11.147
G01 F300 X55.862 Y10.998
G01 F300 X56.024 Y10.881
G01 F300 X56.207 Y10.799
G01 F300 X56.402 Y10.758
G01 F300 X56.602 Y10.758
G01 F300 X56.798 Y10.799
G01 F300 X56.981 Y10.881
G01 F300 X57.143 Y10.998
G01 F300 X57.276 Y11.147
G01 F300 X57.377 Y11.320
G01 F300 X57.383 Y11.340
G01 F300 X59.082 Y11.364
G01 F300 X59.158 Y11.380
G01 F300 X59.229 Y11.412
G01 F300 X59.292 Y11.458
G01 F300 X59.344 Y11.516
G01 F300 X59.383 Y11.583
G01 F300 X59.407 Y11.657
G01 F300 X59.415 Y11.731
G01 F300 X59.415 Y21.473
G01 F300 X64.161 Y21.473
G01 F300 X64.237 Y21.490
G01 F300 X64.309 Y21.521
G01 F300 X64.372 Y21.567
G01 F300 X64.424 Y21.625
G01 F300 X64.463 Y21.692
G01 F300 X64.487 Y21.767
G01 F300 X64.495 Y21.841
G01 F300 X64.495 Y39.298
G01 F300 X65.579 Y39.283
G01 F300 X65.579 Y38.566
G01 F300 X67.746 Y38.566
G01 F300 X67.746 Y40.733
G01 F300 X65.579 Y40.733
G00 F3000 Z3.000
G00 F3000 X4.619 Y40.733
G00 F1500 Z0
G01 F300 Z-0.200
G01 F300 X4.619 Y40.025
G01 F300 X3.195 Y40.045
G01 F300 X3.123 Y40.045
G01 F300 X3.047 Y40.029
G01 F300 X2.976 Y39.998
G01 F300 X2.914 Y39.953
G01 F300 X0.369 Y37.357
G01 F300 X0.321 Y37.303
G01 F300 X0.282 Y37.236
G01 F300 X0.258 Y37.162
G01 F300 X0.250 Y37.087
G01 F300 X0.250 Y14.271
G01 F300 X0.258 Y14.197
G01 F300 X0.282 Y14.123
G01 F300 X0.321 Y14.056
G01 F300 X0.369 Y14.002
G01 F300 X2.228 Y12.120
G01 F300 X2.164 Y11.921
G01 F300 X2.142 Y11.709
G01 F300 X2.164 Y11.497
G01 F300 X2.230 Y11.294
G01 F300 X2.337 Y11.110
G01 F300 X2.480 Y10.951
G01 F300 X2.652 Y10.826
G01 F300 X2.847 Y10.739
G01 F300 X3.056 Y10.695
G01 F300 X3.269 Y10.695
G01 F300 X3.478 Y10.739
G01 F300 X3.673 Y10.826
G01 F300 X3.845 Y10.951
G01 F300 X3.988 Y11.110
G01 F300 X4.095 Y11.294
G01 F300 X4.117 Y11.364
G01 F300 X15.927 Y11.364
G01 F300 X16.003 Y11.380
G01 F300 X16.074 Y11.412
G01 F300 X16.136 Y11.457
G01 F300 X18.583 Y13.904
G01 F300 X23.547 Y13.904
G01 F300 X23.623 Y13.920
G01 F300 X23.694 Y13.952
G01 F300 X23.756 Y13.997
G01 F300 X26.178 Y16.443
G01 F300 X30.155 Y16.420
G01 F300 X30.170 Y16.374
G01 F300 X30.277 Y16.190
G01 F300 X30.420 Y16.031
G01 F300 X30.592 Y15.906
G01 F300 X30.787 Y15.819
G01 F300 X30.996 Y15.775
G01 F300 X31.209 Y15.775
G01 F300 X31.418 Y15.819
G01 F300 X31.613 Y15.906
G01 F300 X31.785 Y16.031
G01 F300 X31.928 Y16.190
G01 F300 X32.035 Y16.374
G01 F300 X32.100 Y16.577
G01 F300 X32.123 Y16.789
G01 F300 X32.100 Y17.002
G01 F300 X32.035 Y17.204
G01 F300 X31.928 Y17.389
G01 F300 X31.785 Y17.548
G01 F300 X31.613 Y17.673
G01 F300 X31.418 Y17.760
G01 F300 X31.209 Y17.804
G01 F300 X30.996 Y17.804
G01 F300 X30.787 Y17.760
G01 F300 X30.592 Y17.673
G01 F300 X30.420 Y17.548
G01 F300 X30.277 Y17.389
G01 F300 X30.170 Y17.204
G01 F300 X30.156 Y17.162
G01 F300 X26.054 Y17.185
G01 F300 X25.983 Y17.185
G01 F300 X25.907 Y17.169
G01 F300 X25.836 Y17.137
G01 F300 X25.774 Y17.093
G01 F300 X23.351 Y14.645
G01 F300 X18.389 Y14.645
G01 F300 X18.313 Y14.629
G01 F300 X18.241 Y14.598
G01 F300 X18.180 Y14.553
G01 F300 X15.732 Y12.105
G01 F300 X4.101 Y12.105
G01 F300 X4.095 Y12.124
G01 F300 X3.988 Y12.309
G01 F300 X3.845 Y12.468
G01 F300 X3.673 Y12.593
G01 F300 X3.478 Y12.680
G01 F300 X3.269 Y12.724
G01 F300 X3.075 Y12.727
G01 F300 X3.024 Y12.750
G01 F300 X2.947 Y12.766
G01 F300 X2.869 Y12.766
G01 F300 X2.793 Y12.750
G01 F300 X2.721 Y12.717
G01 F300 X2.700 Y12.701
G01 F300 X0.995 Y14.427
G01 F300 X0.995 Y36.933
G01 F300 X3.317 Y39.302
G01 F300 X4.619 Y39.283
G01 F300 X4.619 Y38.566
G01 F300 X6.786 Y38.566
G01 F300 X6.786 Y40.733
G01 F300 X4.619 Y40.733
G00 F3000 Z3.000
G00 F3000 X56.402 Y40.601
G00 F1500 Z0
G01 F300 Z-0.200
G01 F300 X56.207 Y40.559
G01 F300 X56.024 Y40.478
G01 F300 X55.862 Y40.361
G01 F300 X55.728 Y40.212
G01 F300 X55.628 Y40.039
G01 F300 X55.566 Y39.848
G01 F300 X55.545 Y39.649
G01 F300 X55.566 Y39.451
G01 F300 X55.628 Y39.260
G01 F300 X55.728 Y39.087
G01 F300 X55.862 Y38.938
G01 F300 X56.024 Y38.821
G01 F300 X56.207 Y38.739
G01 F300 X56.402 Y38.698
G01 F300 X56.602 Y38.698
G01 F300 X56.798 Y38.739
G01 F300 X56.981 Y38.821
G01 F300 X57.143 Y38.938
G01 F300 X57.276 Y39.087
G01 F300 X57.376 Y39.260
G01 F300 X57.438 Y39.451
G01 F300 X57.459 Y39.649
G01 F300 X57.438 Y39.848
G01 F300 X57.376 Y40.039
G01 F300 X57.276 Y40.212
G01 F300 X57.143 Y40.361
G01 F300 X56.981 Y40.478
G01 F300 X56.798 Y40.559
G01 F300 X56.602 Y40.601
G01 F300 X56.402 Y40.601
G00 F3000 Z3.000
G00 F3000 X41.162 Y40.601
G00 F1500 Z0
G01 F300 Z-0.200
G01 F300 X40.967 Y40.559
G01 F300 X40.784 Y40.478
G01 F300 X40.622 Y40.361
G01 F300 X40.488 Y40.212
G01 F300 X40.388 Y40.039
G01 F300 X40.326 Y39.848
G01 F300 X40.305 Y39.649
G01 F300 X40.326 Y39.451
G01 F300 X40.388 Y39.260
G01 F300 X40.488 Y39.087
G01 F300 X40.622 Y38.938
G01 F300 X40.784 Y38.821
G01 F300 X40.967 Y38.739
G01 F300 X41.162 Y38.698
G01 F300 X41.362 Y38.698
G01 F300 X41.558 Y38.739
G01 F300 X41.741 Y38.821
G01 F300 X41.903 Y38.938
G01 F300 X42.036 Y39.087
G01 F300 X42.136 Y39.260
G01 F300 X42.198 Y39.451
G01 F300 X42.219 Y39.649
G01 F300 X42.198 Y39.848
G01 F300 X42.136 Y40.039
G01 F300 X42.036 Y40.212
G01 F300 X41.903 Y40.361
G01 F300 X41.741 Y40.478
G01 F300 X41.558 Y40.559
G01 F300 X41.362 Y40.601
G01 F300 X41.162 Y40.601
G00 F3000 Z3.000
G00 F3000 X8.543 Y39.907
G00 F1500 Z0
G01 F300 Z-0.200
G01 F300 X8.543 Y39.882
G01 F300 X8.416 Y39.882
G01 F300 X8.416 Y39.857
G01 F300 X8.365 Y39.857
G01 F300 X8.365 Y39.831
G01 F300 X8.340 Y39.831
G01 F300 X8.340 Y39.806
G01 F300 X8.315 Y39.806
G01 F300 X8.315 Y39.780
G01 F300 X8.289 Y39.780
G01 F300 X8.289 Y39.755
G01 F300 X8.264 Y39.755
G01 F300 X8.264 Y39.730
G01 F300 X8.238 Y39.730
G01 F300 X8.238 Y39.679
G01 F300 X8.213 Y39.679
G01 F300 X8.213 Y39.628
G01 F300 X8.188 Y39.628
G01 F300 X8.188 Y38.782
G01 F300 X8.213 Y38.782
G01 F300 X8.213 Y38.706
G01 F300 X8.238 Y38.706
G01 F300 X8.238 Y38.680
G01 F300 X8.264 Y38.680
G01 F300 X8.264 Y38.629
G01 F300 X8.289 Y38.629
G01 F300 X8.289 Y38.604
G01 F300 X8.315 Y38.604
G01 F300 X8.315 Y38.579
G01 F300 X8.365 Y38.579
G01 F300 X8.365 Y38.553
G01 F300 X8.391 Y38.553
G01 F300 X8.391 Y38.528
G01 F300 X8.467 Y38.528
G01 F300 X8.467 Y38.502
G01 F300 X9.212 Y38.502
G01 F300 X9.212 Y39.222
G01 F300 X9.186 Y39.222
G01 F300 X9.186 Y39.247
G01 F300 X9.135 Y39.247
G01 F300 X9.135 Y39.272
G01 F300 X8.924 Y39.272
G01 F300 X8.924 Y39.247
G01 F300 X8.873 Y39.247
G01 F300 X8.873 Y39.222
G01 F300 X8.848 Y39.222
G01 F300 X8.848 Y39.171
G01 F300 X8.822 Y39.171
G01 F300 X8.822 Y38.891
G01 F300 X8.653 Y38.891
G01 F300 X8.653 Y38.917
G01 F300 X8.602 Y38.917
G01 F300 X8.602 Y38.968
G01 F300 X8.577 Y38.968
G01 F300 X8.577 Y39.442
G01 F300 X8.602 Y39.442
G01 F300 X8.602 Y39.468
G01 F300 X8.627 Y39.468
G01 F300 X8.627 Y39.493
G01 F300 X9.356 Y39.493
G01 F300 X9.356 Y39.468
G01 F300 X9.407 Y39.468
G01 F300 X9.407 Y39.442
G01 F300 X9.432 Y39.442
G01 F300 X9.432 Y39.417
G01 F300 X9.483 Y39.417
G01 F300 X9.483 Y39.391
G01 F300 X9.508 Y39.391
G01 F300 X9.508 Y39.366
G01 F300 X9.534 Y39.366
G01 F300 X9.534 Y39.341
G01 F300 X9.585 Y39.341
G01 F300 X9.585 Y39.315
G01 F300 X9.610 Y39.315
G01 F300 X9.610 Y39.290
G01 F300 X9.635 Y39.290
G01 F300 X9.635 Y39.264
G01 F300 X9.661 Y39.264
G01 F300 X9.661 Y39.239
G01 F300 X9.712 Y39.239
G01 F300 X9.712 Y39.214
G01 F300 X9.737 Y39.214
G01 F300 X9.737 Y39.188
G01 F300 X9.762 Y39.188
G01 F300 X9.762 Y39.163
G01 F300 X9.813 Y39.163
G01 F300 X9.813 Y39.137
G01 F300 X9.838 Y39.137
G01 F300 X9.838 Y39.112
G01 F300 X9.864 Y39.112
G01 F300 X9.864 Y39.087
G01 F300 X9.889 Y39.087
G01 F300 X9.889 Y39.036
G01 F300 X9.915 Y39.036
G01 F300 X9.915 Y38.553
G01 F300 X9.940 Y38.553
G01 F300 X9.940 Y38.528
G01 F300 X9.966 Y38.528
G01 F300 X9.966 Y38.502
G01 F300 X10.228 Y38.502
G01 F300 X10.228 Y38.528
G01 F300 X10.253 Y38.528
G01 F300 X10.253 Y38.553
G01 F300 X10.278 Y38.553
G01 F300 X10.278 Y38.579
G01 F300 X10.304 Y38.579
G01 F300 X10.304 Y39.222
G01 F300 X10.278 Y39.222
G01 F300 X10.278 Y39.298
G01 F300 X10.253 Y39.298
G01 F300 X10.253 Y39.349
G01 F300 X10.228 Y39.349
G01 F300 X10.228 Y39.374
G01 F300 X10.202 Y39.374
G01 F300 X10.202 Y39.399
G01 F300 X10.177 Y39.399
G01 F300 X10.177 Y39.425
G01 F300 X10.151 Y39.425
G01 F300 X10.151 Y39.450
G01 F300 X10.126 Y39.450
G01 F300 X10.126 Y39.476
G01 F300 X10.101 Y39.476
G01 F300 X10.101 Y39.501
G01 F300 X10.075 Y39.501
G01 F300 X10.075 Y39.526
G01 F300 X10.024 Y39.526
G01 F300 X10.024 Y39.552
G01 F300 X9.999 Y39.552
G01 F300 X9.999 Y39.577
G01 F300 X9.974 Y39.577
G01 F300 X9.974 Y39.603
G01 F300 X9.923 Y39.603
G01 F300 X9.923 Y39.628
G01 F300 X9.897 Y39.628
G01 F300 X9.897 Y39.653
G01 F300 X9.872 Y39.653
G01 F300 X9.872 Y39.679
G01 F300 X9.821 Y39.679
G01 F300 X9.821 Y39.704
G01 F300 X9.796 Y39.704
G01 F300 X9.796 Y39.730
G01 F300 X9.770 Y39.730
G01 F300 X9.770 Y39.755
G01 F300 X9.745 Y39.755
G01 F300 X9.745 Y39.780
G01 F300 X9.694 Y39.780
G01 F300 X9.694 Y39.806
G01 F300 X9.669 Y39.806
G01 F300 X9.669 Y39.831
G01 F300 X9.618 Y39.831
G01 F300 X9.618 Y39.857
G01 F300 X9.567 Y39.857
G01 F300 X9.567 Y39.882
G01 F300 X9.415 Y39.882
G01 F300 X9.415 Y39.907
G01 F300 X8.543 Y39.907
G00 F3000 Z3.000
G00 F3000 X56.402 Y38.061
G00 F1500 Z0
G01 F300 Z-0.200
G01 F300 X56.207 Y38.019
G01 F300 X56.024 Y37.938
G01 F300 X55.862 Y37.821
G01 F300 X55.728 Y37.672
G01 F300 X55.628 Y37.499
G01 F300 X55.566 Y37.308
G01 F300 X55.545 Y37.109
G01 F300 X55.566 Y36.910
G01 F300 X55.628 Y36.720
G01 F300 X55.728 Y36.547
G01 F300 X55.862 Y36.398
G01 F300 X56.024 Y36.281
G01 F300 X56.207 Y36.199
G01 F300 X56.402 Y36.158
G01 F300 X56.602 Y36.158
G01 F300 X56.798 Y36.199
G01 F300 X56.981 Y36.281
G01 F300 X57.143 Y36.398
G01 F300 X57.276 Y36.547
G01 F300 X57.376 Y36.720
G01 F300 X57.438 Y36.910
G01 F300 X57.459 Y37.109
G01 F300 X57.438 Y37.308
G01 F300 X57.376 Y37.499
G01 F300 X57.276 Y37.672
G01 F300 X57.143 Y37.821
G01 F300 X56.981 Y37.938
G01 F300 X56.798 Y38.019
G01 F300 X56.602 Y38.061
G01 F300 X56.402 Y38.061
G00 F3000 Z3.000
G00 F3000 X8.238 Y38.053
G00 F1500 Z0
G01 F300 Z-0.200
G01 F300 X8.238 Y38.028
G01 F300 X8.213 Y38.028
G01 F300 X8.213 Y38.002
G01 F300 X8.188 Y38.002
G01 F300 X8.188 Y37.740
G01 F300 X8.213 Y37.740
G01 F300 X8.213 Y37.715
G01 F300 X8.238 Y37.715
G01 F300 X8.238 Y37.690
G01 F300 X8.264 Y37.690
G01 F300 X8.264 Y37.664
G01 F300 X9.610 Y37.664
G01 F300 X9.610 Y37.647
G01 F300 X9.559 Y37.647
G01 F300 X9.559 Y37.621
G01 F300 X9.534 Y37.621
G01 F300 X9.534 Y37.596
G01 F300 X9.483 Y37.596
G01 F300 X9.483 Y37.571
G01 F300 X9.407 Y37.571
G01 F300 X9.407 Y37.545
G01 F300 X9.305 Y37.545
G01 F300 X9.305 Y37.520
G01 F300 X9.280 Y37.520
G01 F300 X9.280 Y37.469
G01 F300 X9.254 Y37.469
G01 F300 X9.254 Y37.258
G01 F300 X9.280 Y37.258
G01 F300 X9.280 Y37.207
G01 F300 X9.305 Y37.207
G01 F300 X9.305 Y37.182
G01 F300 X9.381 Y37.182
G01 F300 X9.381 Y37.156
G01 F300 X9.483 Y37.156
G01 F300 X9.483 Y37.131
G01 F300 X9.534 Y37.131
G01 F300 X9.534 Y37.105
G01 F300 X9.559 Y37.105
G01 F300 X9.559 Y37.080
G01 F300 X9.610 Y37.080
G01 F300 X9.610 Y37.063
G01 F300 X8.289 Y37.063
G01 F300 X8.289 Y37.037
G01 F300 X8.238 Y37.037
G01 F300 X8.238 Y37.012
G01 F300 X8.213 Y37.012
G01 F300 X8.213 Y36.986
G01 F300 X8.188 Y36.986
G01 F300 X8.188 Y36.724
G01 F300 X8.213 Y36.724
G01 F300 X8.213 Y36.699
G01 F300 X8.238 Y36.699
G01 F300 X8.238 Y36.674
G01 F300 X10.304 Y36.674
G01 F300 X10.304 Y37.113
G01 F300 X10.278 Y37.113
G01 F300 X10.278 Y37.139
G01 F300 X10.253 Y37.139
G01 F300 X10.253 Y37.164
G01 F300 X10.228 Y37.164
G01 F300 X10.228 Y37.190
G01 F300 X10.177 Y37.190
G01 F300 X10.177 Y37.215
G01 F300 X10.151 Y37.215
G01 F300 X10.151 Y37.240
G01 F300 X10.101 Y37.240
G01 F300 X10.101 Y37.266
G01 F300 X10.075 Y37.266
G01 F300 X10.075 Y37.291
G01 F300 X10.024 Y37.291
G01 F300 X10.024 Y37.317
G01 F300 X9.999 Y37.317
G01 F300 X9.999 Y37.342
G01 F300 X9.974 Y37.342
G01 F300 X9.974 Y37.385
G01 F300 X9.999 Y37.385
G01 F300 X9.999 Y37.410
G01 F300 X10.050 Y37.410
G01 F300 X10.050 Y37.436
G01 F300 X10.075 Y37.436
G01 F300 X10.075 Y37.461
G01 F300 X10.101 Y37.461
G01 F300 X10.101 Y37.486
G01 F300 X10.151 Y37.486
G01 F300 X10.151 Y37.512
G01 F300 X10.177 Y37.512
G01 F300 X10.177 Y37.537
G01 F300 X10.228 Y37.537
G01 F300 X10.228 Y37.563
G01 F300 X10.253 Y37.563
G01 F300 X10.253 Y37.588
G01 F300 X10.278 Y37.588
G01 F300 X10.278 Y37.613
G01 F300 X10.304 Y37.613
G01 F300 X10.304 Y38.053
G01 F300 X8.238 Y38.053
G00 F3000 Z3.000
G00 F3000 X66.549 Y37.222
G00 F1500 Z0
G01 F300 Z-0.200
G01 F300 X66.327 Y37.175
G01 F300 X66.120 Y37.083
G01 F300 X65.937 Y36.950
G01 F300 X65.785 Y36.781
G01 F300 X65.672 Y36.585
G01 F300 X65.602 Y36.370
G01 F300 X65.578 Y36.144
G01 F300 X65.602 Y35.919
G01 F300 X65.672 Y35.703
G01 F300 X65.785 Y35.507
G01 F300 X65.937 Y35.339
G01 F300 X66.121 Y35.205
G01 F300 X66.290 Y35.132
G01 F300 X66.290 Y19.700
G01 F300 X61.518 Y19.700
G01 F300 X61.442 Y19.684
G01 F300 X61.371 Y19.652
G01 F300 X61.308 Y19.606
G01 F300 X61.255 Y19.549
G01 F300 X61.216 Y19.481
G01 F300 X61.192 Y19.407
G01 F300 X61.185 Y19.333
G01 F300 X61.185 Y9.540
G01 F300 X57.382 Y9.540
G01 F300 X57.376 Y9.559
G01 F300 X57.276 Y9.732
G01 F300 X57.143 Y9.880
G01 F300 X56.981 Y9.998
G01 F300 X56.798 Y10.079
G01 F300 X56.602 Y10.121
G01 F300 X56.402 Y10.121
G01 F300 X56.207 Y10.079
G01 F300 X56.024 Y9.998
G01 F300 X55.862 Y9.880
G01 F300 X55.728 Y9.732
G01 F300 X55.628 Y9.559
G01 F300 X55.566 Y9.368
G01 F300 X55.545 Y9.169
G01 F300 X55.566 Y8.971
G01 F300 X55.628 Y8.780
G01 F300 X55.728 Y8.607
G01 F300 X55.862 Y8.458
G01 F300 X56.024 Y8.341
G01 F300 X56.207 Y8.259
G01 F300 X56.402 Y8.218
G01 F300 X56.602 Y8.218
G01 F300 X56.798 Y8.259
G01 F300 X56.981 Y8.341
G01 F300 X57.143 Y8.458
G01 F300 X57.276 Y8.607
G01 F300 X57.376 Y8.780
G01 F300 X57.383 Y8.799
G01 F300 X61.596 Y8.799
G01 F300 X61.672 Y8.815
G01 F300 X61.743 Y8.847
G01 F300 X61.806 Y8.893
G01 F300 X61.858 Y8.950
G01 F300 X61.897 Y9.018
G01 F300 X61.921 Y9.092
G01 F300 X61.929 Y9.166
G01 F300 X61.929 Y18.959
G01 F300 X66.701 Y18.959
G01 F300 X66.778 Y18.975
G01 F300 X66.849 Y19.007
G01 F300 X66.912 Y19.053
G01 F300 X66.964 Y19.110
G01 F300 X67.003 Y19.178
G01 F300 X67.027 Y19.252
G01 F300 X67.035 Y19.326
G01 F300 X67.044 Y35.134
G01 F300 X67.204 Y35.206
G01 F300 X67.388 Y35.339
G01 F300 X67.539 Y35.507
G01 F300 X67.653 Y35.703
G01 F300 X67.722 Y35.919
G01 F300 X67.746 Y36.144
G01 F300 X67.722 Y36.370
G01 F300 X67.653 Y36.585
G01 F300 X67.539 Y36.781
G01 F300 X67.388 Y36.950
G01 F300 X67.204 Y37.083
G01 F300 X66.997 Y37.175
G01 F300 X66.776 Y37.222
G01 F300 X66.549 Y37.222
G00 F3000 Z3.000
G00 F3000 X3.082 Y36.631
G00 F1500 Z0
G01 F300 Z-0.200
G01 F300 X3.082 Y36.605
G01 F300 X3.057 Y36.605
G01 F300 X3.057 Y36.580
G01 F300 X3.031 Y36.580
G01 F300 X3.031 Y36.529
G01 F300 X3.006 Y36.529
G01 F300 X3.006 Y36.148
G01 F300 X2.625 Y36.148
G01 F300 X2.625 Y36.123
G01 F300 X2.574 Y36.123
G01 F300 X2.574 Y36.097
G01 F300 X2.549 Y36.097
G01 F300 X2.549 Y36.072
G01 F300 X2.523 Y36.072
G01 F300 X2.523 Y35.810
G01 F300 X2.549 Y35.810
G01 F300 X2.549 Y35.785
G01 F300 X2.574 Y35.785
G01 F300 X2.574 Y35.759
G01 F300 X2.625 Y35.759
G01 F300 X2.625 Y35.734
G01 F300 X3.006 Y35.734
G01 F300 X3.006 Y35.353
G01 F300 X3.031 Y35.353
G01 F300 X3.031 Y35.302
G01 F300 X3.057 Y35.302
G01 F300 X3.057 Y35.277
G01 F300 X3.082 Y35.277
G01 F300 X3.082 Y35.251
G01 F300 X3.344 Y35.251
G01 F300 X3.344 Y35.277
G01 F300 X3.369 Y35.277
G01 F300 X3.369 Y35.302
G01 F300 X3.395 Y35.302
G01 F300 X3.395 Y35.734
G01 F300 X3.776 Y35.734
G01 F300 X3.776 Y35.759
G01 F300 X3.852 Y35.759
G01 F300 X3.852 Y35.785
G01 F300 X3.878 Y35.785
G01 F300 X3.878 Y35.810
G01 F300 X3.903 Y35.810
G01 F300 X3.903 Y36.072
G01 F300 X3.878 Y36.072
G01 F300 X3.878 Y36.097
G01 F300 X3.852 Y36.097
G01 F300 X3.852 Y36.123
G01 F300 X3.801 Y36.123
G01 F300 X3.801 Y36.148
G01 F300 X3.395 Y36.148
G01 F300 X3.395 Y36.580
G01 F300 X3.369 Y36.580
G01 F300 X3.369 Y36.605
G01 F300 X3.344 Y36.605
G01 F300 X3.344 Y36.631
G01 F300 X3.082 Y36.631
G00 F3000 Z3.000
G00 F3000 X47.380 Y36.351
G00 F1500 Z0
G01 F300 Z-0.200
G01 F300 X47.380 Y36.326
G01 F300 X47.253 Y36.326
G01 F300 X47.253 Y36.301
G01 F300 X47.202 Y36.301
G01 F300 X47.202 Y36.275
G01 F300 X47.151 Y36.275
G01 F300 X47.151 Y36.250
G01 F300 X47.126 Y36.250
G01 F300 X47.126 Y36.224
G01 F300 X47.100 Y36.224
G01 F300 X47.100 Y36.199
G01 F300 X47.075 Y36.199
G01 F300 X47.075 Y36.148
G01 F300 X47.050 Y36.148
G01 F300 X47.050 Y36.097
G01 F300 X47.024 Y36.097
G01 F300 X47.024 Y36.047
G01 F300 X46.999 Y36.047
G01 F300 X46.999 Y34.642
G01 F300 X47.024 Y34.642
G01 F300 X47.024 Y34.565
G01 F300 X47.050 Y34.565
G01 F300 X47.050 Y34.515
G01 F300 X47.075 Y34.515
G01 F300 X47.075 Y34.464
G01 F300 X47.100 Y34.464
G01 F300 X47.100 Y34.438
G01 F300 X47.126 Y34.438
G01 F300 X47.126 Y34.413
G01 F300 X47.177 Y34.413
G01 F300 X47.177 Y34.388
G01 F300 X47.202 Y34.388
G01 F300 X47.202 Y34.362
G01 F300 X47.253 Y34.362
G01 F300 X47.253 Y34.337
G01 F300 X49.826 Y34.337
G01 F300 X49.826 Y34.362
G01 F300 X49.877 Y34.362
G01 F300 X49.877 Y34.388
G01 F300 X49.928 Y34.388
G01 F300 X49.928 Y34.413
G01 F300 X49.953 Y34.413
G01 F300 X49.953 Y34.438
G01 F300 X49.979 Y34.438
G01 F300 X49.979 Y34.464
G01 F300 X50.004 Y34.464
G01 F300 X50.004 Y34.515
G01 F300 X50.029 Y34.515
G01 F300 X50.029 Y34.540
G01 F300 X50.055 Y34.540
G01 F300 X50.055 Y34.616
G01 F300 X50.080 Y34.616
G01 F300 X50.080 Y36.047
G01 F300 X50.055 Y36.047
G01 F300 X50.055 Y36.123
G01 F300 X50.029 Y36.123
G01 F300 X50.029 Y36.148
G01 F300 X50.004 Y36.148
G01 F300 X50.004 Y36.199
G01 F300 X49.979 Y36.199
G01 F300 X49.979 Y36.224
G01 F300 X49.953 Y36.224
G01 F300 X49.953 Y36.250
G01 F300 X49.928 Y36.250
G01 F300 X49.928 Y36.275
G01 F300 X49.877 Y36.275
G01 F300 X49.877 Y36.301
G01 F300 X49.826 Y36.301
G01 F300 X49.826 Y36.326
G01 F300 X49.699 Y36.326
G01 F300 X49.699 Y36.351
G01 F300 X47.380 Y36.351
G00 F3000 Z3.000
G00 F3000 X47.540 Y35.835
G00 F1500 Z0
G01 F300 Z-0.200
G01 F300 X49.539 Y35.835
G01 F300 X49.539 Y35.810
G01 F300 X49.564 Y35.810
G01 F300 X49.564 Y34.853
G01 F300 X47.515 Y34.853
G01 F300 X47.515 Y35.810
G01 F300 X47.540 Y35.810
G01 F300 X47.540 Y35.835
G00 F3000 Z3.000
G00 F3000 X36.076 Y35.584
G00 F1500 Z0
G01 F300 Z-0.200
G01 F300 X35.867 Y35.540
G01 F300 X35.672 Y35.453
G01 F300 X35.500 Y35.328
G01 F300 X35.357 Y35.169
G01 F300 X35.250 Y34.984
G01 F300 X35.184 Y34.782
G01 F300 X35.162 Y34.569
G01 F300 X35.184 Y34.357
G01 F300 X35.250 Y34.154
G01 F300 X35.357 Y33.970
G01 F300 X35.500 Y33.811
G01 F300 X35.672 Y33.686
G01 F300 X35.867 Y33.599
G01 F300 X36.076 Y33.555
G01 F300 X36.289 Y33.555
G01 F300 X36.498 Y33.599
G01 F300 X36.693 Y33.686
G01 F300 X36.865 Y33.811
G01 F300 X37.008 Y33.970
G01 F300 X37.114 Y34.154
G01 F300 X37.127 Y34.193
G01 F300 X40.392 Y34.174
G01 F300 X40.398 Y34.164
G01 F300 X40.390 Y34.139
G01 F300 X40.382 Y34.061
G01 F300 X40.390 Y33.984
G01 F300 X40.414 Y33.910
G01 F300 X40.453 Y33.842
G01 F300 X40.505 Y33.785
G01 F300 X40.568 Y33.739
G01 F300 X40.639 Y33.707
G01 F300 X40.715 Y33.691
G01 F300 X40.795 Y33.691
G01 F300 X40.859 Y33.707
G01 F300 X40.967 Y33.659
G01 F300 X41.162 Y33.618
G01 F300 X41.362 Y33.618
G01 F300 X41.558 Y33.659
G01 F300 X41.741 Y33.741
G01 F300 X41.903 Y33.858
G01 F300 X42.036 Y34.007
G01 F300 X42.136 Y34.180
G01 F300 X42.198 Y34.370
G01 F300 X42.219 Y34.569
G01 F300 X42.198 Y34.768
G01 F300 X42.136 Y34.959
G01 F300 X42.036 Y35.132
G01 F300 X41.903 Y35.281
G01 F300 X41.741 Y35.398
G01 F300 X41.558 Y35.479
G01 F300 X41.362 Y35.521
G01 F300 X41.162 Y35.521
G01 F300 X40.967 Y35.479
G01 F300 X40.784 Y35.398
G01 F300 X40.622 Y35.281
G01 F300 X40.488 Y35.132
G01 F300 X40.388 Y34.959
G01 F300 X40.382 Y34.940
G01 F300 X37.129 Y34.940
G01 F300 X37.114 Y34.984
G01 F300 X37.008 Y35.169
G01 F300 X36.865 Y35.328
G01 F300 X36.693 Y35.453
G01 F300 X36.498 Y35.540
G01 F300 X36.289 Y35.584
G01 F300 X36.076 Y35.584
G00 F3000 Z3.000
G00 F3000 X25.916 Y35.584
G00 F1500 Z0
G01 F300 Z-0.200
G01 F300 X25.707 Y35.540
G01 F300 X25.512 Y35.453
G01 F300 X25.340 Y35.328
G01 F300 X25.197 Y35.169
G01 F300 X25.090 Y34.984
G01 F300 X25.075 Y34.939
G01 F300 X20.980 Y34.915
G01 F300 X19.216 Y34.938
G01 F300 X19.125 Y35.095
G01 F300 X19.000 Y35.233
G01 F300 X18.849 Y35.343
G01 F300 X18.678 Y35.419
G01 F300 X18.496 Y35.458
G01 F300 X18.309 Y35.458
G01 F300 X18.126 Y35.419
G01 F300 X17.956 Y35.343
G01 F300 X17.805 Y35.233
G01 F300 X17.680 Y35.095
G01 F300 X17.586 Y34.933
G01 F300 X17.529 Y34.755
G01 F300 X17.509 Y34.569
G01 F300 X17.529 Y34.384
G01 F300 X17.586 Y34.206
G01 F300 X17.680 Y34.044
G01 F300 X17.805 Y33.906
G01 F300 X17.956 Y33.796
G01 F300 X18.126 Y33.720
G01 F300 X18.309 Y33.681
G01 F300 X18.496 Y33.681
G01 F300 X18.678 Y33.720
G01 F300 X18.849 Y33.796
G01 F300 X19.000 Y33.906
G01 F300 X19.125 Y34.044
G01 F300 X19.213 Y34.196
G01 F300 X20.935 Y34.173
G01 F300 X21.000 Y34.173
G01 F300 X25.076 Y34.197
G01 F300 X25.090 Y34.154
G01 F300 X25.197 Y33.970
G01 F300 X25.340 Y33.811
G01 F300 X25.512 Y33.686
G01 F300 X25.707 Y33.599
G01 F300 X25.916 Y33.555
G01 F300 X26.129 Y33.555
G01 F300 X26.338 Y33.599
G01 F300 X26.533 Y33.686
G01 F300 X26.705 Y33.811
G01 F300 X26.848 Y33.970
G01 F300 X26.955 Y34.154
G01 F300 X27.020 Y34.357
G01 F300 X27.043 Y34.569
G01 F300 X27.020 Y34.782
G01 F300 X26.955 Y34.984
G01 F300 X26.848 Y35.169
G01 F300 X26.705 Y35.328
G01 F300 X26.533 Y35.453
G01 F300 X26.338 Y35.540
G01 F300 X26.129 Y35.584
G01 F300 X25.916 Y35.584
G00 F3000 Z3.000
G00 F3000 X56.402 Y35.521
G00 F1500 Z0
G01 F300 Z-0.200
G01 F300 X56.207 Y35.479
G01 F300 X56.024 Y35.398
G01 F300 X55.862 Y35.281
G01 F300 X55.728 Y35.132
G01 F300 X55.628 Y34.959
G01 F300 X55.566 Y34.768
G01 F300 X55.545 Y34.569
G01 F300 X55.566 Y34.370
G01 F300 X55.628 Y34.180
G01 F300 X55.728 Y34.007
G01 F300 X55.862 Y33.858
G01 F300 X56.024 Y33.741
G01 F300 X56.207 Y33.659
G01 F300 X56.402 Y33.618
G01 F300 X56.602 Y33.618
G01 F300 X56.798 Y33.659
G01 F300 X56.981 Y33.741
G01 F300 X57.143 Y33.858
G01 F300 X57.276 Y34.007
G01 F300 X57.376 Y34.180
G01 F300 X57.438 Y34.370
G01 F300 X57.459 Y34.569
G01 F300 X57.438 Y34.768
G01 F300 X57.376 Y34.959
G01 F300 X57.276 Y35.132
G01 F300 X57.143 Y35.281
G01 F300 X56.981 Y35.398
G01 F300 X56.798 Y35.479
G01 F300 X56.602 Y35.521
G01 F300 X56.402 Y35.521
G00 F3000 Z3.000
G00 F3000 X68.005 Y33.303
G00 F1500 Z0
G01 F300 Z-0.200
G01 F300 X68.005 Y33.278
G01 F300 X67.954 Y33.278
G01 F300 X67.954 Y33.253
G01 F300 X67.928 Y33.253
G01 F300 X67.928 Y33.202
G01 F300 X67.903 Y33.202
G01 F300 X67.903 Y32.795
G01 F300 X67.496 Y32.795
G01 F300 X67.496 Y32.770
G01 F300 X67.446 Y32.770
G01 F300 X67.446 Y32.745
G01 F300 X67.420 Y32.745
G01 F300 X67.420 Y32.457
G01 F300 X67.446 Y32.457
G01 F300 X67.446 Y32.432
G01 F300 X67.471 Y32.432
G01 F300 X67.471 Y32.406
G01 F300 X67.903 Y32.406
G01 F300 X67.903 Y32.000
G01 F300 X67.928 Y32.000
G01 F300 X67.928 Y31.949
G01 F300 X67.954 Y31.949
G01 F300 X67.954 Y31.924
G01 F300 X67.979 Y31.924
G01 F300 X67.979 Y31.898
G01 F300 X68.241 Y31.898
G01 F300 X68.241 Y31.924
G01 F300 X68.267 Y31.924
G01 F300 X68.267 Y31.949
G01 F300 X68.292 Y31.949
G01 F300 X68.292 Y32.381
G01 F300 X68.317 Y32.381
G01 F300 X68.317 Y32.406
G01 F300 X68.749 Y32.406
G01 F300 X68.749 Y32.432
G01 F300 X68.775 Y32.432
G01 F300 X68.775 Y32.457
G01 F300 X68.800 Y32.457
G01 F300 X68.800 Y32.719
G01 F300 X68.775 Y32.719
G01 F300 X68.775 Y32.770
G01 F300 X68.724 Y32.770
G01 F300 X68.724 Y32.795
G01 F300 X68.292 Y32.795
G01 F300 X68.292 Y33.227
G01 F300 X68.267 Y33.227
G01 F300 X68.267 Y33.278
G01 F300 X68.216 Y33.278
G01 F300 X68.216 Y33.303
G01 F300 X68.005 Y33.303
G00 F3000 Z3.000
G00 F3000 X48.878 Y33.049
G00 F1500 Z0
G01 F300 Z-0.200
G01 F300 X48.878 Y33.024
G01 F300 X48.828 Y33.024
G01 F300 X48.828 Y32.999
G01 F300 X48.802 Y32.999
G01 F300 X48.802 Y32.948
G01 F300 X48.777 Y32.948
G01 F300 X48.777 Y32.872
G01 F300 X48.751 Y32.872
G01 F300 X48.751 Y32.356
G01 F300 X48.777 Y32.356
G01 F300 X48.777 Y32.254
G01 F300 X48.802 Y32.254
G01 F300 X48.802 Y32.229
G01 F300 X48.828 Y32.229
G01 F300 X48.828 Y32.203
G01 F300 X48.853 Y32.203
G01 F300 X48.853 Y32.178
G01 F300 X48.904 Y32.178
G01 F300 X48.904 Y32.152
G01 F300 X49.445 Y32.152
G01 F300 X49.445 Y32.178
G01 F300 X49.496 Y32.178
G01 F300 X49.496 Y32.203
G01 F300 X49.547 Y32.203
G01 F300 X49.547 Y32.229
G01 F300 X49.572 Y32.229
G01 F300 X49.572 Y32.279
G01 F300 X49.598 Y32.279
G01 F300 X49.598 Y32.922
G01 F300 X49.572 Y32.922
G01 F300 X49.572 Y32.973
G01 F300 X49.547 Y32.973
G01 F300 X49.547 Y32.999
G01 F300 X49.521 Y32.999
G01 F300 X49.521 Y33.024
G01 F300 X49.496 Y33.024
G01 F300 X49.496 Y33.049
G01 F300 X48.878 Y33.049
G00 F3000 Z3.000
G00 F3000 X25.916 Y33.044
G00 F1500 Z0
G01 F300 Z-0.200
G01 F300 X25.707 Y33.000
G01 F300 X25.512 Y32.913
G01 F300 X25.340 Y32.788
G01 F300 X25.197 Y32.629
G01 F300 X25.090 Y32.444
G01 F300 X25.075 Y32.399
G01 F300 X20.929 Y32.375
G01 F300 X20.853 Y32.358
G01 F300 X20.785 Y32.328
G01 F300 X18.939 Y31.290
G01 F300 X18.849 Y31.355
G01 F300 X18.678 Y31.431
G01 F300 X18.496 Y31.470
G01 F300 X18.309 Y31.470
G01 F300 X18.126 Y31.431
G01 F300 X17.956 Y31.355
G01 F300 X17.805 Y31.245
G01 F300 X17.680 Y31.107
G01 F300 X17.586 Y30.945
G01 F300 X17.529 Y30.767
G01 F300 X17.509 Y30.582
G01 F300 X17.529 Y30.396
G01 F300 X17.586 Y30.218
G01 F300 X17.680 Y30.056
G01 F300 X17.805 Y29.918
G01 F300 X17.956 Y29.808
G01 F300 X18.126 Y29.732
G01 F300 X18.309 Y29.693
G01 F300 X18.496 Y29.693
G01 F300 X18.678 Y29.732
G01 F300 X18.849 Y29.808
G01 F300 X19.000 Y29.918
G01 F300 X19.125 Y30.056
G01 F300 X19.218 Y30.218
G01 F300 X19.276 Y30.396
G01 F300 X19.296 Y30.582
G01 F300 X19.290 Y30.633
G01 F300 X21.069 Y31.634
G01 F300 X25.076 Y31.657
G01 F300 X25.090 Y31.614
G01 F300 X25.197 Y31.430
G01 F300 X25.340 Y31.271
G01 F300 X25.512 Y31.146
G01 F300 X25.707 Y31.059
G01 F300 X25.916 Y31.015
G01 F300 X26.129 Y31.015
G01 F300 X26.338 Y31.059
G01 F300 X26.533 Y31.146
G01 F300 X26.705 Y31.271
G01 F300 X26.848 Y31.430
G01 F300 X26.955 Y31.614
G01 F300 X27.020 Y31.817
G01 F300 X27.043 Y32.029
G01 F300 X27.020 Y32.242
G01 F300 X26.955 Y32.444
G01 F300 X26.848 Y32.629
G01 F300 X26.705 Y32.788
G01 F300 X26.533 Y32.913
G01 F300 X26.338 Y33.000
G01 F300 X26.129 Y33.044
G01 F300 X25.916 Y33.044
G00 F3000 Z3.000
G00 F3000 X36.076 Y33.044
G00 F1500 Z0
G01 F300 Z-0.200
G01 F300 X35.867 Y33.000
G01 F300 X35.672 Y32.913
G01 F300 X35.500 Y32.788
G01 F300 X35.357 Y32.629
G01 F300 X35.250 Y32.444
G01 F300 X35.184 Y32.242
G01 F300 X35.162 Y32.029
G01 F300 X35.184 Y31.817
G01 F300 X35.250 Y31.614
G01 F300 X35.357 Y31.430
G01 F300 X35.500 Y31.271
G01 F300 X35.672 Y31.146
G01 F300 X35.867 Y31.059
G01 F300 X36.076 Y31.015
G01 F300 X36.289 Y31.015
G01 F300 X36.498 Y31.059
G01 F300 X36.693 Y31.146
G01 F300 X36.865 Y31.271
G01 F300 X37.008 Y31.430
G01 F300 X37.114 Y31.614
G01 F300 X37.129 Y31.659
G01 F300 X40.382 Y31.659
G01 F300 X40.388 Y31.640
G01 F300 X40.488 Y31.467
G01 F300 X40.622 Y31.318
G01 F300 X40.784 Y31.201
G01 F300 X40.967 Y31.119
G01 F300 X41.162 Y31.078
G01 F300 X41.362 Y31.078
G01 F300 X41.558 Y31.119
G01 F300 X41.741 Y31.201
G01 F300 X41.903 Y31.318
G01 F300 X42.036 Y31.467
G01 F300 X42.136 Y31.640
G01 F300 X42.198 Y31.831
G01 F300 X42.219 Y32.029
G01 F300 X42.198 Y32.228
G01 F300 X42.136 Y32.419
G01 F300 X42.036 Y32.592
G01 F300 X41.903 Y32.741
G01 F300 X41.741 Y32.858
G01 F300 X41.558 Y32.939
G01 F300 X41.362 Y32.981
G01 F300 X41.162 Y32.981
G01 F300 X40.967 Y32.939
G01 F300 X40.784 Y32.858
G01 F300 X40.622 Y32.741
G01 F300 X40.488 Y32.592
G01 F300 X40.388 Y32.419
G01 F300 X40.382 Y32.400
G01 F300 X37.129 Y32.400
G01 F300 X37.114 Y32.444
G01 F300 X37.008 Y32.629
G01 F300 X36.865 Y32.788
G01 F300 X36.693 Y32.913
G01 F300 X36.498 Y33.000
G01 F300 X36.289 Y33.044
G01 F300 X36.076 Y33.044
G00 F3000 Z3.000
G00 F3000 X56.402 Y32.981
G00 F1500 Z0
G01 F300 Z-0.200
G01 F300 X56.207 Y32.939
G01 F300 X56.024 Y32.858
G01 F300 X55.862 Y32.741
G01 F300 X55.728 Y32.592
G01 F300 X55.628 Y32.419
G01 F300 X55.566 Y32.228
G01 F300 X55.545 Y32.029
G01 F300 X55.566 Y31.831
G01 F300 X55.628 Y31.640
G01 F300 X55.728 Y31.467
G01 F300 X55.862 Y31.318
G01 F300 X56.024 Y31.201
G01 F300 X56.207 Y31.119
G01 F300 X56.402 Y31.078
G01 F300 X56.602 Y31.078
G01 F300 X56.798 Y31.119
G01 F300 X56.981 Y31.201
G01 F300 X57.143 Y31.318
G01 F300 X57.276 Y31.467
G01 F300 X57.376 Y31.640
G01 F300 X57.438 Y31.831
G01 F300 X57.459 Y32.029
G01 F300 X57.438 Y32.228
G01 F300 X57.376 Y32.419
G01 F300 X57.276 Y32.592
G01 F300 X57.143 Y32.741
G01 F300 X56.981 Y32.858
G01 F300 X56.798 Y32.939
G01 F300 X56.602 Y32.981
G01 F300 X56.402 Y32.981
G00 F3000 Z3.000
G00 F3000 X5.857 Y31.633
G00 F1500 Z0
G01 F300 Z-0.200
G01 F300 X15.515 Y31.633
G01 F300 X15.515 Y27.104
G01 F300 X10.505 Y22.143
G01 F300 X8.020 Y19.645
G01 F300 X7.968 Y19.606
G01 F300 X7.915 Y19.549
G01 F300 X7.876 Y19.481
G01 F300 X7.852 Y19.407
G01 F300 X7.845 Y19.333
G01 F300 X7.845 Y15.183
G01 F300 X7.732 Y15.133
G01 F300 X7.690 Y15.103
G01 F300 X7.670 Y15.103
G01 F300 X7.594 Y15.086
G01 F300 X7.523 Y15.055
G01 F300 X7.460 Y15.009
G01 F300 X7.407 Y14.951
G01 F300 X7.368 Y14.884
G01 F300 X7.344 Y14.809
G01 F300 X7.336 Y14.732
G01 F300 X7.338 Y14.713
G01 F300 X7.310 Y14.664
G01 F300 X7.297 Y14.624
G01 F300 X5.859 Y14.644
G01 F300 X3.535 Y16.968
G01 F300 X3.535 Y20.924
G01 F300 X3.673 Y20.986
G01 F300 X3.845 Y21.111
G01 F300 X3.988 Y21.270
G01 F300 X4.095 Y21.454
G01 F300 X4.160 Y21.657
G01 F300 X4.183 Y21.869
G01 F300 X4.160 Y22.082
G01 F300 X4.095 Y22.284
G01 F300 X3.988 Y22.469
G01 F300 X3.845 Y22.628
G01 F300 X3.673 Y22.753
G01 F300 X3.535 Y22.815
G01 F300 X3.535 Y29.335
G01 F300 X5.857 Y31.633
G00 F3000 Z3.000
G00 F3000 X48.726 Y30.890
G00 F1500 Z0
G01 F300 Z-0.200
G01 F300 X48.726 Y30.865
G01 F300 X48.675 Y30.865
G01 F300 X48.675 Y30.840
G01 F300 X48.650 Y30.840
G01 F300 X48.650 Y30.814
G01 F300 X48.624 Y30.814
G01 F300 X48.624 Y30.763
G01 F300 X48.599 Y30.763
G01 F300 X48.599 Y30.501
G01 F300 X48.624 Y30.501
G01 F300 X48.624 Y30.451
G01 F300 X48.650 Y30.451
G01 F300 X48.650 Y30.425
G01 F300 X48.675 Y30.425
G01 F300 X48.675 Y30.400
G01 F300 X48.726 Y30.400
G01 F300 X48.726 Y30.374
G01 F300 X49.564 Y30.374
G01 F300 X49.564 Y30.128
G01 F300 X46.999 Y30.128
G01 F300 X46.999 Y29.003
G01 F300 X47.024 Y29.003
G01 F300 X47.024 Y28.952
G01 F300 X47.050 Y28.952
G01 F300 X47.050 Y28.927
G01 F300 X47.075 Y28.927
G01 F300 X47.075 Y28.901
G01 F300 X47.126 Y28.901
G01 F300 X47.126 Y28.876
G01 F300 X47.388 Y28.876
G01 F300 X47.388 Y28.901
G01 F300 X47.439 Y28.901
G01 F300 X47.439 Y28.927
G01 F300 X47.464 Y28.927
G01 F300 X47.464 Y28.952
G01 F300 X47.489 Y28.952
G01 F300 X47.489 Y28.977
G01 F300 X47.515 Y28.977
G01 F300 X47.515 Y29.612
G01 F300 X49.564 Y29.612
G01 F300 X49.564 Y29.003
G01 F300 X49.590 Y29.003
G01 F300 X49.590 Y28.952
G01 F300 X49.615 Y28.952
G01 F300 X49.615 Y28.927
G01 F300 X49.640 Y28.927
G01 F300 X49.640 Y28.901
G01 F300 X49.691 Y28.901
G01 F300 X49.691 Y28.876
G01 F300 X49.953 Y28.876
G01 F300 X49.953 Y28.901
G01 F300 X50.004 Y28.901
G01 F300 X50.004 Y28.927
G01 F300 X50.029 Y28.927
G01 F300 X50.029 Y28.952
G01 F300 X50.055 Y28.952
G01 F300 X50.055 Y29.003
G01 F300 X50.080 Y29.003
G01 F300 X50.080 Y30.763
G01 F300 X50.055 Y30.763
G01 F300 X50.055 Y30.814
G01 F300 X50.029 Y30.814
G01 F300 X50.029 Y30.840
G01 F300 X50.004 Y30.840
G01 F300 X50.004 Y30.865
G01 F300 X49.953 Y30.865
G01 F300 X49.953 Y30.890
G01 F300 X48.726 Y30.890
G00 F3000 Z3.000
G00 F3000 X36.076 Y30.504
G00 F1500 Z0
G01 F300 Z-0.200
G01 F300 X35.867 Y30.460
G01 F300 X35.672 Y30.373
G01 F300 X35.500 Y30.248
G01 F300 X35.357 Y30.089
G01 F300 X35.250 Y29.904
G01 F300 X35.184 Y29.702
G01 F300 X35.162 Y29.489
G01 F300 X35.184 Y29.277
G01 F300 X35.250 Y29.074
G01 F300 X35.357 Y28.890
G01 F300 X35.500 Y28.731
G01 F300 X35.672 Y28.606
G01 F300 X35.867 Y28.519
G01 F300 X36.076 Y28.475
G01 F300 X36.289 Y28.475
G01 F300 X36.498 Y28.519
G01 F300 X36.693 Y28.606
G01 F300 X36.865 Y28.731
G01 F300 X37.008 Y28.890
G01 F300 X37.114 Y29.074
G01 F300 X37.129 Y29.119
G01 F300 X40.256 Y29.119
G01 F300 X40.263 Y29.056
G01 F300 X40.287 Y28.982
G01 F300 X40.326 Y28.915
G01 F300 X40.378 Y28.857
G01 F300 X40.441 Y28.811
G01 F300 X40.512 Y28.779
G01 F300 X40.587 Y28.763
G01 F300 X40.645 Y28.762
G01 F300 X40.784 Y28.661
G01 F300 X40.967 Y28.579
G01 F300 X41.162 Y28.538
G01 F300 X41.362 Y28.538
G01 F300 X41.558 Y28.579
G01 F300 X41.741 Y28.661
G01 F300 X41.903 Y28.778
G01 F300 X42.036 Y28.927
G01 F300 X42.136 Y29.100
G01 F300 X42.198 Y29.291
G01 F300 X42.219 Y29.489
G01 F300 X42.198 Y29.688
G01 F300 X42.136 Y29.879
G01 F300 X42.036 Y30.052
G01 F300 X41.903 Y30.201
G01 F300 X41.741 Y30.318
G01 F300 X41.558 Y30.399
G01 F300 X41.362 Y30.441
G01 F300 X41.162 Y30.441
G01 F300 X40.967 Y30.399
G01 F300 X40.784 Y30.318
G01 F300 X40.622 Y30.201
G01 F300 X40.488 Y30.052
G01 F300 X40.388 Y29.879
G01 F300 X40.382 Y29.860
G01 F300 X37.129 Y29.860
G01 F300 X37.114 Y29.904
G01 F300 X37.008 Y30.089
G01 F300 X36.865 Y30.248
G01 F300 X36.693 Y30.373
G01 F300 X36.498 Y30.460
G01 F300 X36.289 Y30.504
G01 F300 X36.076 Y30.504
G00 F3000 Z3.000
G00 F3000 X25.916 Y30.504
G00 F1500 Z0
G01 F300 Z-0.200
G01 F300 X25.707 Y30.460
G01 F300 X25.512 Y30.373
G01 F300 X25.340 Y30.248
G01 F300 X25.197 Y30.089
G01 F300 X25.090 Y29.904
G01 F300 X25.076 Y29.860
G01 F300 X20.929 Y29.860
G01 F300 X20.855 Y29.844
G01 F300 X19.036 Y29.200
G01 F300 X19.000 Y29.239
G01 F300 X18.849 Y29.349
G01 F300 X18.678 Y29.425
G01 F300 X18.496 Y29.463
G01 F300 X18.309 Y29.463
G01 F300 X18.126 Y29.425
G01 F300 X17.956 Y29.349
G01 F300 X17.805 Y29.239
G01 F300 X17.680 Y29.100
G01 F300 X17.586 Y28.938
G01 F300 X17.529 Y28.761
G01 F300 X17.509 Y28.575
G01 F300 X17.529 Y28.389
G01 F300 X17.586 Y28.212
G01 F300 X17.680 Y28.050
G01 F300 X17.805 Y27.911
G01 F300 X17.956 Y27.801
G01 F300 X18.126 Y27.725
G01 F300 X18.309 Y27.687
G01 F300 X18.496 Y27.687
G01 F300 X18.678 Y27.725
G01 F300 X18.849 Y27.801
G01 F300 X19.000 Y27.911
G01 F300 X19.125 Y28.050
G01 F300 X19.218 Y28.212
G01 F300 X19.276 Y28.389
G01 F300 X19.288 Y28.499
G01 F300 X21.036 Y29.119
G01 F300 X25.076 Y29.119
G01 F300 X25.090 Y29.074
G01 F300 X25.197 Y28.890
G01 F300 X25.340 Y28.731
G01 F300 X25.512 Y28.606
G01 F300 X25.707 Y28.519
G01 F300 X25.916 Y28.475
G01 F300 X26.129 Y28.475
G01 F300 X26.338 Y28.519
G01 F300 X26.533 Y28.606
G01 F300 X26.705 Y28.731
G01 F300 X26.848 Y28.890
G01 F300 X26.955 Y29.074
G01 F300 X27.020 Y29.277
G01 F300 X27.043 Y29.489
G01 F300 X27.020 Y29.702
G01 F300 X26.955 Y29.904
G01 F300 X26.848 Y30.089
G01 F300 X26.705 Y30.248
G01 F300 X26.533 Y30.373
G01 F300 X26.338 Y30.460
G01 F300 X26.129 Y30.504
G01 F300 X25.916 Y30.504
G00 F3000 Z3.000
G00 F3000 X56.402 Y30.441
G00 F1500 Z0
G01 F300 Z-0.200
G01 F300 X56.207 Y30.399
G01 F300 X56.024 Y30.318
G01 F300 X55.862 Y30.201
G01 F300 X55.728 Y30.052
G01 F300 X55.628 Y29.879
G01 F300 X55.566 Y29.688
G01 F300 X55.545 Y29.489
G01 F300 X55.566 Y29.291
G01 F300 X55.628 Y29.100
G01 F300 X55.728 Y28.927
G01 F300 X55.862 Y28.778
G01 F300 X56.024 Y28.661
G01 F300 X56.207 Y28.579
G01 F300 X56.402 Y28.538
G01 F300 X56.602 Y28.538
G01 F300 X56.798 Y28.579
G01 F300 X56.981 Y28.661
G01 F300 X57.143 Y28.778
G01 F300 X57.276 Y28.927
G01 F300 X57.376 Y29.100
G01 F300 X57.438 Y29.291
G01 F300 X57.459 Y29.489
G01 F300 X57.438 Y29.688
G01 F300 X57.376 Y29.879
G01 F300 X57.276 Y30.052
G01 F300 X57.143 Y30.201
G01 F300 X56.981 Y30.318
G01 F300 X56.798 Y30.399
G01 F300 X56.602 Y30.441
G01 F300 X56.402 Y30.441
G00 F3000 Z3.000
G00 F3000 X47.151 Y28.173
G00 F1500 Z0
G01 F300 Z-0.200
G01 F300 X47.151 Y28.147
G01 F300 X47.100 Y28.147
G01 F300 X47.100 Y28.122
G01 F300 X47.050 Y28.122
G01 F300 X47.050 Y28.071
G01 F300 X47.024 Y28.071
G01 F300 X47.024 Y28.020
G01 F300 X46.999 Y28.020
G01 F300 X46.999 Y27.784
G01 F300 X47.024 Y27.784
G01 F300 X47.024 Y27.733
G01 F300 X47.050 Y27.733
G01 F300 X47.050 Y27.707
G01 F300 X47.075 Y27.707
G01 F300 X47.075 Y27.682
G01 F300 X47.100 Y27.682
G01 F300 X47.100 Y27.657
G01 F300 X47.812 Y27.657
G01 F300 X47.812 Y27.631
G01 F300 X47.888 Y27.631
G01 F300 X47.888 Y27.606
G01 F300 X47.939 Y27.606
G01 F300 X47.939 Y27.580
G01 F300 X48.015 Y27.580
G01 F300 X48.015 Y27.555
G01 F300 X48.066 Y27.555
G01 F300 X48.066 Y27.530
G01 F300 X48.142 Y27.530
G01 F300 X48.142 Y27.504
G01 F300 X48.193 Y27.504
G01 F300 X48.193 Y27.479
G01 F300 X48.269 Y27.479
G01 F300 X48.269 Y27.453
G01 F300 X48.345 Y27.453
G01 F300 X48.345 Y27.428
G01 F300 X48.396 Y27.428
G01 F300 X48.396 Y27.403
G01 F300 X48.472 Y27.403
G01 F300 X48.472 Y27.377
G01 F300 X48.523 Y27.377
G01 F300 X48.523 Y27.352
G01 F300 X48.599 Y27.352
G01 F300 X48.599 Y27.326
G01 F300 X48.650 Y27.326
G01 F300 X48.650 Y27.301
G01 F300 X48.726 Y27.301
G01 F300 X48.726 Y27.276
G01 F300 X48.777 Y27.276
G01 F300 X48.777 Y27.250
G01 F300 X48.853 Y27.250
G01 F300 X48.853 Y27.225
G01 F300 X48.904 Y27.225
G01 F300 X48.904 Y27.199
G01 F300 X48.980 Y27.199
G01 F300 X48.980 Y27.174
G01 F300 X49.056 Y27.174
G01 F300 X49.056 Y27.157
G01 F300 X49.005 Y27.157
G01 F300 X49.005 Y27.131
G01 F300 X48.955 Y27.131
G01 F300 X48.955 Y27.106
G01 F300 X48.878 Y27.106
G01 F300 X48.878 Y27.080
G01 F300 X48.828 Y27.080
G01 F300 X48.828 Y27.055
G01 F300 X48.751 Y27.055
G01 F300 X48.751 Y27.030
G01 F300 X48.675 Y27.030
G01 F300 X48.675 Y27.004
G01 F300 X48.624 Y27.004
G01 F300 X48.624 Y26.979
G01 F300 X48.548 Y26.979
G01 F300 X48.548 Y26.953
G01 F300 X48.497 Y26.953
G01 F300 X48.497 Y26.928
G01 F300 X48.421 Y26.928
G01 F300 X48.421 Y26.903
G01 F300 X48.370 Y26.903
G01 F300 X48.370 Y26.877
G01 F300 X48.294 Y26.877
G01 F300 X48.294 Y26.852
G01 F300 X48.243 Y26.852
G01 F300 X48.243 Y26.826
G01 F300 X48.167 Y26.826
G01 F300 X48.167 Y26.801
G01 F300 X48.091 Y26.801
G01 F300 X48.091 Y26.776
G01 F300 X48.040 Y26.776
G01 F300 X48.040 Y26.750
G01 F300 X47.964 Y26.750
G01 F300 X47.964 Y26.725
G01 F300 X47.913 Y26.725
G01 F300 X47.913 Y26.699
G01 F300 X47.837 Y26.699
G01 F300 X47.837 Y26.674
G01 F300 X47.151 Y26.674
G01 F300 X47.151 Y26.649
G01 F300 X47.100 Y26.649
G01 F300 X47.100 Y26.623
G01 F300 X47.050 Y26.623
G01 F300 X47.050 Y26.572
G01 F300 X47.024 Y26.572
G01 F300 X47.024 Y26.522
G01 F300 X46.999 Y26.522
G01 F300 X46.999 Y26.285
G01 F300 X47.024 Y26.285
G01 F300 X47.024 Y26.234
G01 F300 X47.050 Y26.234
G01 F300 X47.050 Y26.209
G01 F300 X47.075 Y26.209
G01 F300 X47.075 Y26.183
G01 F300 X47.126 Y26.183
G01 F300 X47.126 Y26.158
G01 F300 X48.048 Y26.158
G01 F300 X48.048 Y26.183
G01 F300 X48.124 Y26.183
G01 F300 X48.124 Y26.209
G01 F300 X48.175 Y26.209
G01 F300 X48.175 Y26.234
G01 F300 X48.251 Y26.234
G01 F300 X48.251 Y26.260
G01 F300 X48.302 Y26.260
G01 F300 X48.302 Y26.285
G01 F300 X48.378 Y26.285
G01 F300 X48.378 Y26.310
G01 F300 X48.455 Y26.310
G01 F300 X48.455 Y26.336
G01 F300 X48.505 Y26.336
G01 F300 X48.505 Y26.361
G01 F300 X48.582 Y26.361
G01 F300 X48.582 Y26.387
G01 F300 X48.632 Y26.387
G01 F300 X48.632 Y26.412
G01 F300 X48.709 Y26.412
G01 F300 X48.709 Y26.437
G01 F300 X48.759 Y26.437
G01 F300 X48.759 Y26.463
G01 F300 X48.836 Y26.463
G01 F300 X48.836 Y26.488
G01 F300 X48.912 Y26.488
G01 F300 X48.912 Y26.514
G01 F300 X48.963 Y26.514
G01 F300 X48.963 Y26.539
G01 F300 X49.039 Y26.539
G01 F300 X49.039 Y26.564
G01 F300 X49.090 Y26.564
G01 F300 X49.090 Y26.590
G01 F300 X49.166 Y26.590
G01 F300 X49.166 Y26.615
G01 F300 X49.217 Y26.615
G01 F300 X49.217 Y26.641
G01 F300 X49.293 Y26.641
G01 F300 X49.293 Y26.666
G01 F300 X49.369 Y26.666
G01 F300 X49.369 Y26.691
G01 F300 X49.420 Y26.691
G01 F300 X49.420 Y26.717
G01 F300 X49.496 Y26.717
G01 F300 X49.496 Y26.742
G01 F300 X49.547 Y26.742
G01 F300 X49.547 Y26.768
G01 F300 X49.623 Y26.768
G01 F300 X49.623 Y26.793
G01 F300 X49.699 Y26.793
G01 F300 X49.699 Y26.818
G01 F300 X49.750 Y26.818
G01 F300 X49.750 Y26.844
G01 F300 X49.826 Y26.844
G01 F300 X49.826 Y26.869
G01 F300 X49.877 Y26.869
G01 F300 X49.877 Y26.895
G01 F300 X49.953 Y26.895
G01 F300 X49.953 Y26.920
G01 F300 X50.004 Y26.920
G01 F300 X50.004 Y26.945
G01 F300 X50.029 Y26.945
G01 F300 X50.029 Y26.971
G01 F300 X50.055 Y26.971
G01 F300 X50.055 Y27.022
G01 F300 X50.080 Y27.022
G01 F300 X50.080 Y27.284
G01 F300 X50.055 Y27.284
G01 F300 X50.055 Y27.334
G01 F300 X50.029 Y27.334
G01 F300 X50.029 Y27.360
G01 F300 X50.004 Y27.360
G01 F300 X50.004 Y27.385
G01 F300 X49.979 Y27.385
G01 F300 X49.979 Y27.411
G01 F300 X49.902 Y27.411
G01 F300 X49.902 Y27.436
G01 F300 X49.852 Y27.436
G01 F300 X49.852 Y27.461
G01 F300 X49.775 Y27.461
G01 F300 X49.775 Y27.487
G01 F300 X49.724 Y27.487
G01 F300 X49.724 Y27.512
G01 F300 X49.648 Y27.512
G01 F300 X49.648 Y27.538
G01 F300 X49.572 Y27.538
G01 F300 X49.572 Y27.563
G01 F300 X49.521 Y27.563
G01 F300 X49.521 Y27.588
G01 F300 X49.445 Y27.588
G01 F300 X49.445 Y27.614
G01 F300 X49.394 Y27.614
G01 F300 X49.394 Y27.639
G01 F300 X49.318 Y27.639
G01 F300 X49.318 Y27.665
G01 F300 X49.267 Y27.665
G01 F300 X49.267 Y27.690
G01 F300 X49.191 Y27.690
G01 F300 X49.191 Y27.715
G01 F300 X49.115 Y27.715
G01 F300 X49.115 Y27.741
G01 F300 X49.064 Y27.741
G01 F300 X49.064 Y27.766
G01 F300 X48.988 Y27.766
G01 F300 X48.988 Y27.792
G01 F300 X48.937 Y27.792
G01 F300 X48.937 Y27.817
G01 F300 X48.861 Y27.817
G01 F300 X48.861 Y27.842
G01 F300 X48.810 Y27.842
G01 F300 X48.810 Y27.868
G01 F300 X48.734 Y27.868
G01 F300 X48.734 Y27.893
G01 F300 X48.683 Y27.893
G01 F300 X48.683 Y27.919
G01 F300 X48.607 Y27.919
G01 F300 X48.607 Y27.944
G01 F300 X48.531 Y27.944
G01 F300 X48.531 Y27.969
G01 F300 X48.480 Y27.969
G01 F300 X48.480 Y27.995
G01 F300 X48.404 Y27.995
G01 F300 X48.404 Y28.020
G01 F300 X48.353 Y28.020
G01 F300 X48.353 Y28.046
G01 F300 X48.277 Y28.046
G01 F300 X48.277 Y28.071
G01 F300 X48.226 Y28.071
G01 F300 X48.226 Y28.096
G01 F300 X48.150 Y28.096
G01 F300 X48.150 Y28.122
G01 F300 X48.074 Y28.122
G01 F300 X48.074 Y28.147
G01 F300 X48.023 Y28.147
G01 F300 X48.023 Y28.173
G01 F300 X47.151 Y28.173
G00 F3000 Z3.000
G00 F3000 X61.472 Y28.002
G00 F1500 Z0
G01 F300 Z-0.200
G01 F300 X61.255 Y27.956
G01 F300 X61.053 Y27.866
G01 F300 X60.874 Y27.736
G01 F300 X60.726 Y27.572
G01 F300 X60.615 Y27.380
G01 F300 X60.596 Y27.320
G01 F300 X57.382 Y27.320
G01 F300 X57.376 Y27.339
G01 F300 X57.276 Y27.512
G01 F300 X57.143 Y27.661
G01 F300 X56.981 Y27.778
G01 F300 X56.798 Y27.859
G01 F300 X56.602 Y27.901
G01 F300 X56.402 Y27.901
G01 F300 X56.207 Y27.859
G01 F300 X56.024 Y27.778
G01 F300 X55.862 Y27.661
G01 F300 X55.728 Y27.512
G01 F300 X55.628 Y27.339
G01 F300 X55.566 Y27.148
G01 F300 X55.545 Y26.949
G01 F300 X55.566 Y26.751
G01 F300 X55.628 Y26.560
G01 F300 X55.728 Y26.387
G01 F300 X55.862 Y26.238
G01 F300 X56.024 Y26.121
G01 F300 X56.207 Y26.039
G01 F300 X56.402 Y25.998
G01 F300 X56.602 Y25.998
G01 F300 X56.798 Y26.039
G01 F300 X56.981 Y26.121
G01 F300 X57.143 Y26.238
G01 F300 X57.276 Y26.387
G01 F300 X57.376 Y26.560
G01 F300 X57.383 Y26.579
G01 F300 X60.596 Y26.579
G01 F300 X60.615 Y26.519
G01 F300 X60.726 Y26.327
G01 F300 X60.874 Y26.163
G01 F300 X61.053 Y26.033
G01 F300 X61.255 Y25.943
G01 F300 X61.472 Y25.897
G01 F300 X61.693 Y25.897
G01 F300 X61.909 Y25.943
G01 F300 X62.111 Y26.033
G01 F300 X62.291 Y26.163
G01 F300 X62.439 Y26.327
G01 F300 X62.549 Y26.519
G01 F300 X62.618 Y26.729
G01 F300 X62.641 Y26.949
G01 F300 X62.618 Y27.170
G01 F300 X62.549 Y27.380
G01 F300 X62.439 Y27.572
G01 F300 X62.291 Y27.736
G01 F300 X62.111 Y27.866
G01 F300 X61.909 Y27.956
G01 F300 X61.693 Y28.002
G01 F300 X61.472 Y28.002
G00 F3000 Z3.000
G00 F3000 X36.076 Y27.964
G00 F1500 Z0
G01 F300 Z-0.200
G01 F300 X35.867 Y27.920
G01 F300 X35.672 Y27.833
G01 F300 X35.500 Y27.708
G01 F300 X35.357 Y27.549
G01 F300 X35.250 Y27.364
G01 F300 X35.184 Y27.162
G01 F300 X35.162 Y26.949
G01 F300 X35.184 Y26.737
G01 F300 X35.250 Y26.534
G01 F300 X35.357 Y26.350
G01 F300 X35.500 Y26.191
G01 F300 X35.672 Y26.066
G01 F300 X35.867 Y25.979
G01 F300 X36.076 Y25.935
G01 F300 X36.289 Y25.935
G01 F300 X36.498 Y25.979
G01 F300 X36.693 Y26.066
G01 F300 X36.865 Y26.191
G01 F300 X37.008 Y26.350
G01 F300 X37.114 Y26.534
G01 F300 X37.129 Y26.579
G01 F300 X40.382 Y26.579
G01 F300 X40.388 Y26.560
G01 F300 X40.488 Y26.387
G01 F300 X40.622 Y26.238
G01 F300 X40.784 Y26.121
G01 F300 X40.967 Y26.039
G01 F300 X41.162 Y25.998
G01 F300 X41.362 Y25.998
G01 F300 X41.558 Y26.039
G01 F300 X41.741 Y26.121
G01 F300 X41.903 Y26.238
G01 F300 X42.036 Y26.387
G01 F300 X42.136 Y26.560
G01 F300 X42.198 Y26.751
G01 F300 X42.219 Y26.949
G01 F300 X42.198 Y27.148
G01 F300 X42.136 Y27.339
G01 F300 X42.036 Y27.512
G01 F300 X41.903 Y27.661
G01 F300 X41.741 Y27.778
G01 F300 X41.558 Y27.859
G01 F300 X41.362 Y27.901
G01 F300 X41.162 Y27.901
G01 F300 X40.967 Y27.859
G01 F300 X40.784 Y27.778
G01 F300 X40.622 Y27.661
G01 F300 X40.488 Y27.512
G01 F300 X40.388 Y27.339
G01 F300 X40.382 Y27.320
G01 F300 X37.129 Y27.320
G01 F300 X37.114 Y27.364
G01 F300 X37.008 Y27.549
G01 F300 X36.865 Y27.708
G01 F300 X36.693 Y27.833
G01 F300 X36.498 Y27.920
G01 F300 X36.289 Y27.964
G01 F300 X36.076 Y27.964
G00 F3000 Z3.000
G00 F3000 X23.376 Y27.964
G00 F1500 Z0
G01 F300 Z-0.200
G01 F300 X23.167 Y27.920
G01 F300 X22.972 Y27.833
G01 F300 X22.800 Y27.708
G01 F300 X22.657 Y27.549
G01 F300 X22.550 Y27.364
G01 F300 X22.484 Y27.162
G01 F300 X22.462 Y26.949
G01 F300 X22.484 Y26.737
G01 F300 X22.550 Y26.534
G01 F300 X22.657 Y26.350
G01 F300 X22.800 Y26.191
G01 F300 X22.972 Y26.066
G01 F300 X23.167 Y25.979
G01 F300 X23.376 Y25.935
G01 F300 X23.589 Y25.935
G01 F300 X23.798 Y25.979
G01 F300 X23.992 Y26.066
G01 F300 X24.165 Y26.191
G01 F300 X24.308 Y26.350
G01 F300 X24.414 Y26.534
G01 F300 X24.429 Y26.579
G01 F300 X25.076 Y26.579
G01 F300 X25.090 Y26.534
G01 F300 X25.197 Y26.350
G01 F300 X25.340 Y26.191
G01 F300 X25.512 Y26.066
G01 F300 X25.707 Y25.979
G01 F300 X25.916 Y25.935
G01 F300 X26.129 Y25.935
G01 F300 X26.338 Y25.979
G01 F300 X26.533 Y26.066
G01 F300 X26.705 Y26.191
G01 F300 X26.848 Y26.350
G01 F300 X26.955 Y26.534
G01 F300 X27.020 Y26.737
G01 F300 X27.043 Y26.949
G01 F300 X27.020 Y27.162
G01 F300 X26.955 Y27.364
G01 F300 X26.848 Y27.549
G01 F300 X26.705 Y27.708
G01 F300 X26.533 Y27.833
G01 F300 X26.338 Y27.920
G01 F300 X26.129 Y27.964
G01 F300 X25.916 Y27.964
G01 F300 X25.707 Y27.920
G01 F300 X25.512 Y27.833
G01 F300 X25.340 Y27.708
G01 F300 X25.197 Y27.549
G01 F300 X25.090 Y27.364
G01 F300 X25.076 Y27.320
G01 F300 X24.429 Y27.320
G01 F300 X24.415 Y27.364
G01 F300 X24.308 Y27.549
G01 F300 X24.165 Y27.708
G01 F300 X23.992 Y27.833
G01 F300 X23.798 Y27.920
G01 F300 X23.589 Y27.964
G01 F300 X23.376 Y27.964
G00 F3000 Z3.000
G00 F3000 X61.472 Y25.462
G00 F1500 Z0
G01 F300 Z-0.200
G01 F300 X61.255 Y25.416
G01 F300 X61.053 Y25.326
G01 F300 X60.874 Y25.196
G01 F300 X60.726 Y25.032
G01 F300 X60.615 Y24.840
G01 F300 X60.596 Y24.780
G01 F300 X57.382 Y24.780
G01 F300 X57.376 Y24.799
G01 F300 X57.276 Y24.972
G01 F300 X57.143 Y25.120
G01 F300 X56.981 Y25.238
G01 F300 X56.798 Y25.319
G01 F300 X56.602 Y25.361
G01 F300 X56.402 Y25.361
G01 F300 X56.207 Y25.319
G01 F300 X56.024 Y25.238
G01 F300 X55.862 Y25.120
G01 F300 X55.728 Y24.972
G01 F300 X55.628 Y24.799
G01 F300 X55.566 Y24.608
G01 F300 X55.545 Y24.409
G01 F300 X55.566 Y24.210
G01 F300 X55.628 Y24.020
G01 F300 X55.728 Y23.847
G01 F300 X55.862 Y23.698
G01 F300 X56.024 Y23.581
G01 F300 X56.207 Y23.499
G01 F300 X56.402 Y23.458
G01 F300 X56.602 Y23.458
G01 F300 X56.798 Y23.499
G01 F300 X56.981 Y23.581
G01 F300 X57.143 Y23.698
G01 F300 X57.276 Y23.847
G01 F300 X57.376 Y24.020
G01 F300 X57.383 Y24.039
G01 F300 X60.596 Y24.039
G01 F300 X60.615 Y23.979
G01 F300 X60.726 Y23.787
G01 F300 X60.874 Y23.623
G01 F300 X61.053 Y23.493
G01 F300 X61.255 Y23.403
G01 F300 X61.472 Y23.357
G01 F300 X61.693 Y23.357
G01 F300 X61.909 Y23.403
G01 F300 X62.111 Y23.493
G01 F300 X62.291 Y23.623
G01 F300 X62.439 Y23.787
G01 F300 X62.549 Y23.979
G01 F300 X62.618 Y24.189
G01 F300 X62.641 Y24.409
G01 F300 X62.618 Y24.630
G01 F300 X62.549 Y24.840
G01 F300 X62.439 Y25.032
G01 F300 X62.291 Y25.196
G01 F300 X62.111 Y25.326
G01 F300 X61.909 Y25.416
G01 F300 X61.693 Y25.462
G01 F300 X61.472 Y25.462
G00 F3000 Z3.000
G00 F3000 X18.296 Y25.424
G00 F1500 Z0
G01 F300 Z-0.200
G01 F300 X18.087 Y25.380
G01 F300 X17.892 Y25.293
G01 F300 X17.720 Y25.168
G01 F300 X17.577 Y25.009
G01 F300 X17.470 Y24.824
G01 F300 X17.404 Y24.622
G01 F300 X17.382 Y24.409
G01 F300 X17.404 Y24.197
G01 F300 X17.470 Y23.994
G01 F300 X17.577 Y23.810
G01 F300 X17.720 Y23.651
G01 F300 X17.892 Y23.526
G01 F300 X18.087 Y23.439
G01 F300 X18.296 Y23.395
G01 F300 X18.509 Y23.395
G01 F300 X18.718 Y23.439
G01 F300 X18.913 Y23.526
G01 F300 X19.085 Y23.651
G01 F300 X19.228 Y23.810
G01 F300 X19.334 Y23.994
G01 F300 X19.349 Y24.039
G01 F300 X28.407 Y24.039
G01 F300 X30.730 Y21.716
G01 F300 X30.730 Y20.310
G01 F300 X30.682 Y20.310
G01 F300 X30.606 Y20.293
G01 F300 X30.535 Y20.262
G01 F300 X30.472 Y20.216
G01 F300 X30.420 Y20.158
G01 F300 X30.380 Y20.090
G01 F300 X30.361 Y20.023
G01 F300 X30.277 Y19.929
G01 F300 X30.170 Y19.744
G01 F300 X30.104 Y19.541
G01 F300 X30.082 Y19.329
G01 F300 X30.104 Y19.117
G01 F300 X30.170 Y18.914
G01 F300 X30.277 Y18.730
G01 F300 X30.420 Y18.571
G01 F300 X30.592 Y18.446
G01 F300 X30.787 Y18.359
G01 F300 X30.996 Y18.315
G01 F300 X31.209 Y18.315
G01 F300 X31.418 Y18.359
G01 F300 X31.613 Y18.446
G01 F300 X31.785 Y18.571
G01 F300 X31.928 Y18.730
G01 F300 X32.034 Y18.914
G01 F300 X32.049 Y18.959
G01 F300 X40.382 Y18.959
G01 F300 X40.388 Y18.940
G01 F300 X40.488 Y18.767
G01 F300 X40.622 Y18.618
G01 F300 X40.784 Y18.501
G01 F300 X40.967 Y18.419
G01 F300 X41.162 Y18.378
G01 F300 X41.362 Y18.378
G01 F300 X41.558 Y18.419
G01 F300 X41.741 Y18.501
G01 F300 X41.903 Y18.618
G01 F300 X42.036 Y18.767
G01 F300 X42.136 Y18.940
G01 F300 X42.198 Y19.131
G01 F300 X42.219 Y19.329
G01 F300 X42.198 Y19.528
G01 F300 X42.136 Y19.719
G01 F300 X42.036 Y19.892
G01 F300 X41.903 Y20.041
G01 F300 X41.741 Y20.158
G01 F300 X41.558 Y20.239
G01 F300 X41.362 Y20.281
G01 F300 X41.162 Y20.281
G01 F300 X40.967 Y20.239
G01 F300 X40.784 Y20.158
G01 F300 X40.622 Y20.041
G01 F300 X40.488 Y19.892
G01 F300 X40.388 Y19.719
G01 F300 X40.382 Y19.700
G01 F300 X32.049 Y19.700
G01 F300 X32.035 Y19.744
G01 F300 X31.928 Y19.929
G01 F300 X31.785 Y20.088
G01 F300 X31.613 Y20.213
G01 F300 X31.475 Y20.274
G01 F300 X31.475 Y21.873
G01 F300 X31.467 Y21.947
G01 F300 X31.443 Y22.021
G01 F300 X31.404 Y22.088
G01 F300 X31.355 Y22.142
G01 F300 X28.810 Y24.687
G01 F300 X28.749 Y24.732
G01 F300 X28.678 Y24.764
G01 F300 X28.601 Y24.780
G01 F300 X19.349 Y24.780
G01 F300 X19.335 Y24.824
G01 F300 X19.228 Y25.009
G01 F300 X19.085 Y25.168
G01 F300 X18.913 Y25.293
G01 F300 X18.718 Y25.380
G01 F300 X18.509 Y25.424
G01 F300 X18.296 Y25.424
G00 F3000 Z3.000
G00 F3000 X8.136 Y25.424
G00 F1500 Z0
G01 F300 Z-0.200
G01 F300 X7.927 Y25.380
G01 F300 X7.732 Y25.293
G01 F300 X7.560 Y25.168
G01 F300 X7.417 Y25.009
G01 F300 X7.310 Y24.824
G01 F300 X7.244 Y24.622
G01 F300 X7.222 Y24.409
G01 F300 X7.244 Y24.197
G01 F300 X7.308 Y24.001
G01 F300 X5.449 Y22.142
G01 F300 X5.401 Y22.088
G01 F300 X5.362 Y22.021
G01 F300 X5.338 Y21.947
G01 F300 X5.330 Y21.873
G01 F300 X5.330 Y20.274
G01 F300 X5.192 Y20.213
G01 F300 X5.019 Y20.088
G01 F300 X4.877 Y19.929
G01 F300 X4.770 Y19.744
G01 F300 X4.704 Y19.541
G01 F300 X4.682 Y19.329
G01 F300 X4.704 Y19.117
G01 F300 X4.770 Y18.914
G01 F300 X4.877 Y18.730
G01 F300 X5.019 Y18.571
G01 F300 X5.192 Y18.446
G01 F300 X5.387 Y18.359
G01 F300 X5.596 Y18.315
G01 F300 X5.809 Y18.315
G01 F300 X6.018 Y18.359
G01 F300 X6.213 Y18.446
G01 F300 X6.385 Y18.571
G01 F300 X6.528 Y18.730
G01 F300 X6.635 Y18.914
G01 F300 X6.700 Y19.117
G01 F300 X6.723 Y19.329
G01 F300 X6.700 Y19.541
G01 F300 X6.635 Y19.744
G01 F300 X6.528 Y19.929
G01 F300 X6.385 Y20.088
G01 F300 X6.213 Y20.213
G01 F300 X6.075 Y20.274
G01 F300 X6.075 Y21.716
G01 F300 X7.838 Y23.479
G01 F300 X7.927 Y23.439
G01 F300 X8.136 Y23.395
G01 F300 X8.349 Y23.395
G01 F300 X8.558 Y23.439
G01 F300 X8.753 Y23.526
G01 F300 X8.925 Y23.651
G01 F300 X9.068 Y23.810
G01 F300 X9.175 Y23.994
G01 F300 X9.240 Y24.197
G01 F300 X9.263 Y24.409
G01 F300 X9.240 Y24.622
G01 F300 X9.175 Y24.824
G01 F300 X9.068 Y25.009
G01 F300 X8.925 Y25.168
G01 F300 X8.753 Y25.293
G01 F300 X8.558 Y25.380
G01 F300 X8.349 Y25.424
G01 F300 X8.136 Y25.424
G00 F3000 Z3.000
G00 F3000 X41.162 Y25.361
G00 F1500 Z0
G01 F300 Z-0.200
G01 F300 X40.967 Y25.319
G01 F300 X40.784 Y25.238
G01 F300 X40.622 Y25.120
G01 F300 X40.488 Y24.972
G01 F300 X40.388 Y24.799
G01 F300 X40.326 Y24.608
G01 F300 X40.305 Y24.409
G01 F300 X40.326 Y24.210
G01 F300 X40.388 Y24.020
G01 F300 X40.488 Y23.847
G01 F300 X40.622 Y23.698
G01 F300 X40.784 Y23.581
G01 F300 X40.967 Y23.499
G01 F300 X41.162 Y23.458
G01 F300 X41.362 Y23.458
G01 F300 X41.558 Y23.499
G01 F300 X41.741 Y23.581
G01 F300 X41.903 Y23.698
G01 F300 X42.036 Y23.847
G01 F300 X42.136 Y24.020
G01 F300 X42.198 Y24.210
G01 F300 X42.219 Y24.409
G01 F300 X42.198 Y24.608
G01 F300 X42.136 Y24.799
G01 F300 X42.036 Y24.972
G01 F300 X41.903 Y25.120
G01 F300 X41.741 Y25.238
G01 F300 X41.558 Y25.319
G01 F300 X41.362 Y25.361
G01 F300 X41.162 Y25.361
G00 F3000 Z3.000
G00 F3000 X20.836 Y22.884
G00 F1500 Z0
G01 F300 Z-0.200
G01 F300 X20.627 Y22.840
G01 F300 X20.432 Y22.753
G01 F300 X20.260 Y22.628
G01 F300 X20.117 Y22.469
G01 F300 X20.010 Y22.284
G01 F300 X19.944 Y22.082
G01 F300 X19.922 Y21.869
G01 F300 X19.944 Y21.657
G01 F300 X20.009 Y21.459
G01 F300 X18.271 Y19.700
G01 F300 X14.269 Y19.700
G01 F300 X14.255 Y19.744
G01 F300 X14.148 Y19.929
G01 F300 X14.005 Y20.088
G01 F300 X13.833 Y20.213
G01 F300 X13.638 Y20.300
G01 F300 X13.429 Y20.344
G01 F300 X13.216 Y20.344
G01 F300 X13.007 Y20.300
G01 F300 X12.812 Y20.213
G01 F300 X12.639 Y20.088
G01 F300 X12.497 Y19.929
G01 F300 X12.390 Y19.744
G01 F300 X12.324 Y19.541
G01 F300 X12.302 Y19.329
G01 F300 X12.324 Y19.117
G01 F300 X12.390 Y18.914
G01 F300 X12.497 Y18.730
G01 F300 X12.639 Y18.571
G01 F300 X12.812 Y18.446
G01 F300 X13.007 Y18.359
G01 F300 X13.216 Y18.315
G01 F300 X13.429 Y18.315
G01 F300 X13.638 Y18.359
G01 F300 X13.833 Y18.446
G01 F300 X14.005 Y18.571
G01 F300 X14.148 Y18.730
G01 F300 X14.254 Y18.914
G01 F300 X14.269 Y18.959
G01 F300 X18.467 Y18.959
G01 F300 X18.543 Y18.975
G01 F300 X18.614 Y19.007
G01 F300 X18.676 Y19.052
G01 F300 X20.539 Y20.938
G01 F300 X20.627 Y20.899
G01 F300 X20.836 Y20.855
G01 F300 X21.049 Y20.855
G01 F300 X21.258 Y20.899
G01 F300 X21.453 Y20.986
G01 F300 X21.625 Y21.111
G01 F300 X21.768 Y21.270
G01 F300 X21.875 Y21.454
G01 F300 X21.940 Y21.657
G01 F300 X21.963 Y21.869
G01 F300 X21.940 Y22.082
G01 F300 X21.875 Y22.284
G01 F300 X21.768 Y22.469
G01 F300 X21.625 Y22.628
G01 F300 X21.453 Y22.753
G01 F300 X21.258 Y22.840
G01 F300 X21.049 Y22.884
G01 F300 X20.836 Y22.884
G00 F3000 Z3.000
G00 F3000 X23.376 Y22.884
G00 F1500 Z0
G01 F300 Z-0.200
G01 F300 X23.167 Y22.840
G01 F300 X22.972 Y22.753
G01 F300 X22.800 Y22.628
G01 F300 X22.657 Y22.469
G01 F300 X22.550 Y22.284
G01 F300 X22.484 Y22.082
G01 F300 X22.462 Y21.869
G01 F300 X22.484 Y21.657
G01 F300 X22.550 Y21.454
G01 F300 X22.657 Y21.270
G01 F300 X22.800 Y21.111
G01 F300 X22.972 Y20.986
G01 F300 X23.113 Y20.923
G01 F300 X23.133 Y19.482
G01 F300 X20.813 Y17.185
G01 F300 X14.269 Y17.161
G01 F300 X14.255 Y17.204
G01 F300 X14.148 Y17.389
G01 F300 X14.005 Y17.548
G01 F300 X13.833 Y17.673
G01 F300 X13.638 Y17.760
G01 F300 X13.429 Y17.804
G01 F300 X13.216 Y17.804
G01 F300 X13.007 Y17.760
G01 F300 X12.812 Y17.673
G01 F300 X12.639 Y17.548
G01 F300 X12.497 Y17.389
G01 F300 X12.390 Y17.204
G01 F300 X12.324 Y17.002
G01 F300 X12.302 Y16.789
G01 F300 X12.324 Y16.577
G01 F300 X12.390 Y16.374
G01 F300 X12.497 Y16.190
G01 F300 X12.639 Y16.031
G01 F300 X12.812 Y15.906
G01 F300 X13.007 Y15.819
G01 F300 X13.216 Y15.775
G01 F300 X13.429 Y15.775
G01 F300 X13.638 Y15.819
G01 F300 X13.833 Y15.906
G01 F300 X14.005 Y16.031
G01 F300 X14.148 Y16.190
G01 F300 X14.255 Y16.374
G01 F300 X14.269 Y16.419
G01 F300 X21.007 Y16.444
G01 F300 X21.083 Y16.460
G01 F300 X21.154 Y16.492
G01 F300 X21.216 Y16.537
G01 F300 X23.761 Y19.056
G01 F300 X23.809 Y19.110
G01 F300 X23.848 Y19.178
G01 F300 X23.872 Y19.252
G01 F300 X23.880 Y19.326
G01 F300 X23.858 Y20.926
G01 F300 X23.992 Y20.986
G01 F300 X24.165 Y21.111
G01 F300 X24.308 Y21.270
G01 F300 X24.415 Y21.454
G01 F300 X24.480 Y21.657
G01 F300 X24.503 Y21.869
G01 F300 X24.480 Y22.082
G01 F300 X24.415 Y22.284
G01 F300 X24.308 Y22.469
G01 F300 X24.165 Y22.628
G01 F300 X23.992 Y22.753
G01 F300 X23.798 Y22.840
G01 F300 X23.589 Y22.884
G01 F300 X23.376 Y22.884
G00 F3000 Z3.000
G00 F3000 X41.162 Y22.821
G00 F1500 Z0
G01 F300 Z-0.200
G01 F300 X40.967 Y22.779
G01 F300 X40.784 Y22.698
G01 F300 X40.622 Y22.581
G01 F300 X40.488 Y22.432
G01 F300 X40.388 Y22.259
G01 F300 X40.326 Y22.068
G01 F300 X40.305 Y21.869
G01 F300 X40.326 Y21.671
G01 F300 X40.388 Y21.480
G01 F300 X40.488 Y21.307
G01 F300 X40.622 Y21.158
G01 F300 X40.784 Y21.041
G01 F300 X40.967 Y20.959
G01 F300 X41.162 Y20.918
G01 F300 X41.362 Y20.918
G01 F300 X41.558 Y20.959
G01 F300 X41.741 Y21.041
G01 F300 X41.903 Y21.158
G01 F300 X42.036 Y21.307
G01 F300 X42.136 Y21.480
G01 F300 X42.198 Y21.671
G01 F300 X42.219 Y21.869
G01 F300 X42.198 Y22.068
G01 F300 X42.136 Y22.259
G01 F300 X42.036 Y22.432
G01 F300 X41.903 Y22.581
G01 F300 X41.741 Y22.698
G01 F300 X41.558 Y22.779
G01 F300 X41.362 Y22.821
G01 F300 X41.162 Y22.821
G00 F3000 Z3.000
G00 F3000 X56.402 Y22.821
G00 F1500 Z0
G01 F300 Z-0.200
G01 F300 X56.207 Y22.779
G01 F300 X56.024 Y22.698
G01 F300 X55.862 Y22.581
G01 F300 X55.728 Y22.432
G01 F300 X55.628 Y22.259
G01 F300 X55.566 Y22.068
G01 F300 X55.545 Y21.869
G01 F300 X55.566 Y21.671
G01 F300 X55.628 Y21.480
G01 F300 X55.728 Y21.307
G01 F300 X55.862 Y21.158
G01 F300 X56.024 Y21.041
G01 F300 X56.207 Y20.959
G01 F300 X56.402 Y20.918
G01 F300 X56.602 Y20.918
G01 F300 X56.798 Y20.959
G01 F300 X56.981 Y21.041
G01 F300 X57.143 Y21.158
G01 F300 X57.276 Y21.307
G01 F300 X57.376 Y21.480
G01 F300 X57.438 Y21.671
G01 F300 X57.459 Y21.869
G01 F300 X57.438 Y22.068
G01 F300 X57.376 Y22.259
G01 F300 X57.276 Y22.432
G01 F300 X57.143 Y22.581
G01 F300 X56.981 Y22.698
G01 F300 X56.798 Y22.779
G01 F300 X56.602 Y22.821
G01 F300 X56.402 Y22.821
G00 F3000 Z3.000
G00 F3000 X48.243 Y22.712
G00 F1500 Z0
G01 F300 Z-0.200
G01 F300 X48.243 Y22.686
G01 F300 X48.142 Y22.686
G01 F300 X48.142 Y22.661
G01 F300 X48.116 Y22.661
G01 F300 X48.116 Y22.635
G01 F300 X48.066 Y22.635
G01 F300 X48.066 Y22.610
G01 F300 X48.040 Y22.610
G01 F300 X48.040 Y22.585
G01 F300 X47.989 Y22.585
G01 F300 X47.989 Y22.559
G01 F300 X47.964 Y22.559
G01 F300 X47.964 Y22.534
G01 F300 X47.939 Y22.534
G01 F300 X47.939 Y22.508
G01 F300 X47.913 Y22.508
G01 F300 X47.913 Y22.458
G01 F300 X47.888 Y22.458
G01 F300 X47.888 Y22.432
G01 F300 X47.862 Y22.432
G01 F300 X47.862 Y22.381
G01 F300 X47.837 Y22.381
G01 F300 X47.837 Y22.305
G01 F300 X47.812 Y22.305
G01 F300 X47.812 Y21.561
G01 F300 X47.837 Y21.561
G01 F300 X47.837 Y21.510
G01 F300 X47.862 Y21.510
G01 F300 X47.862 Y21.484
G01 F300 X47.888 Y21.484
G01 F300 X47.888 Y21.459
G01 F300 X47.913 Y21.459
G01 F300 X47.913 Y21.434
G01 F300 X47.939 Y21.434
G01 F300 X47.939 Y21.383
G01 F300 X47.964 Y21.383
G01 F300 X47.964 Y21.357
G01 F300 X47.989 Y21.357
G01 F300 X47.989 Y21.332
G01 F300 X48.029 Y21.332
G01 F300 X48.066 Y21.295
G01 F300 X48.066 Y21.256
G01 F300 X48.091 Y21.256
G01 F300 X48.091 Y21.213
G01 F300 X47.913 Y21.213
G01 F300 X47.913 Y21.188
G01 F300 X47.862 Y21.188
G01 F300 X47.862 Y21.162
G01 F300 X47.837 Y21.162
G01 F300 X47.837 Y21.111
G01 F300 X47.812 Y21.111
G01 F300 X47.812 Y20.799
G01 F300 X47.837 Y20.799
G01 F300 X47.837 Y20.773
